public/images/Fine Arts Cadres /TC_-_EDITING_ESSENTIALS_-_COLOR/TC - MOONRISE KINGDOM.cube
TITLE "Generated by Resolve"
LUT_3D_SIZE 9
0 0.00294499 0.0123293
0.109758 0 0.0149844
0.286305 0 0.015198
0.572534 0 0.00390631
0.841993 0 0
1 0 0
1 0 0
1 0 0
1 0 0
0 0.0881361 0
0.0798047 0.0834974 0
0.314748 0.0582132 0
0.606622 0.00173953 0
0.866804 0 0
1 0 0
1 0 0
1 0 0
1 0 0
0 0.217746 0
0 0.213458 0
0.240009 0.20206 0
0.555871 0.178714 0
0.903075 0.0775311 0
1 0 0
1 0 0
1 0 0
1 0 0
0 0.448493 0
0 0.444343 0
0 0.439841 0
0.493172 0.416617 0
0.778927 0.40943 0
1 0.369162 0
1 0.317968 0
1 0.276631 0
1 0.257649 0
0 0.68513 0
0 0.681514 0
0 0.676646 0
0.280415 0.669429 0
0.722118 0.643137 0
0.973144 0.6374 0
1 0.632532 0
1 0.614511 0
1 0.588434 0
0 0.87628 0
0 0.872969 0
0 0.868711 0
0 0.86186 0
0.575814 0.848402 0
0.917952 0.825711 0
1 0.823972 0
1 0.832364 0
1 0.825635 0
0 0.999496 0
0 0.996948 0
0 0.993606 0
0 0.987274 0
0.434058 0.980377 0
0.838712 0.960784 0
1 0.948989 0
1 0.95259 0
1 0.960815 0
0 1 0
0 1 0
0 1 0
0 1 0
0.332403 1 0
0.748684 1 0
0.972824 1 0
1 1 0
1 1 0
0 1 0
0 1 0
0 1 0
0 1 0
0.254246 1 0
0.689387 1 0
0.931884 1 0
1 1 0
1 1 0
0 0 0.0875715
0.101244 0 0.0809491
0.270314 0 0.0777142
0.552178 0 0.0652781
0.819593 0 0.0476844
1 0 0.0283055
1 0 0.017319
1 0 0.0160678
1 0 0.0211337
0 0.0745861 0.0632792
0.0696727 0.0670024 0.0609903
0.256611 0.0505531 0.0641642
0.551156 0.00161746 0.0569772
0.823835 0 0.0410163
1 0 0.0209659
1 0 0.00886549
1 0 0.00598154
1 0 0.00923171
0 0.210651 0.0257725
0 0.206134 0.0251469
0.223163 0.197131 0.0090486
0.576181 0.157122 0
0.85951 0.0771954 0
1 0 0
1 0 0
1 0 0
1 0 0
0 0.44509 0
0 0.440848 0
0 0.43473 0
0.476036 0.416022 0
0.776226 0.404471 0
1 0.344335 0
1 0.295109 0
1 0.277256 0
1 0.268605 0
0 0.683024 0
0 0.679377 0
0 0.674449 0
0.269474 0.666636 0
0.70576 0.643748 0
0.953735 0.641703 0
1 0.625376 0
1 0.597757 0
1 0.565423 0
0 0.874678 0
0 0.871321 0
0 0.867033 0
0 0.859251 0
0.553246 0.849226 0
0.904265 0.82678 0
1 0.82855 0
1 0.829618 0
1 0.816312 0
0 0.998123 0
0 0.995544 0
0 0.992187 0
0 0.985733 0
0.428351 0.978164 0
0.822095 0.961639 0
1 0.949996 0
1 0.955947 0
1 0.959045 0
0 1 0
0 1 0
0 1 0
0 1 0
0.331258 1 0
0.731899 1 0
0.965423 1 0
1 1 0
1 1 0
0 1 0
0 1 0
0 1 0
0 1 0
0.25008 1 0
0.685023 1 0
0.922683 1 0
1 1 0
1 1 0
0 0 0.206409
0.0913558 0 0.184649
0.263081 0 0.183215
0.546075 0 0.176486
0.812604 0 0.164752
1 0 0.149477
1 0 0.137987
1 0 0.13341
1 0 0.1364
0 0.0508736 0.167163
0.0520333 0.0369116 0.176928
0.242359 0.0260929 0.166934
0.53196 0 0.159899
0.801633 0 0.148821
1 0 0.140902
1 0 0.141238
1 0 0.14992
1 0 0.163119
0 0.201907 0.138964
0 0.192355 0.138705
0.202152 0.185077 0.124071
0.521202 0.145907 0.138399
0.79762 0.0805219 0.134539
1 0 0.126375
1 0 0.122621
1 0 0.133227
1 0 0.14313
0 0.438758 0.0251926
0 0.434363 0.0261082
0 0.427955 0.0247044
0.457069 0.412314 0
0.793515 0.381964 0
1 0.326299 0
1 0.300649 0
1 0.285145 0
1 0.276265 0.00924697
0 0.67921 0
0 0.675471 0
0 0.670481 0
0.26685 0.660945 0
0.688441 0.642344 0
0.945525 0.637522 0
1 0.607202 0
1 0.572198 0
1 0.557809 0
0 0.871824 0
0 0.868421 0
0 0.864073 0
0 0.856168 0
0.536049 0.84712 0
0.889464 0.826246 0
1 0.830106 0
1 0.820981 0
1 0.798367 0
0 0.995712 0
0 0.993103 0
0 0.989715 0
0 0.983246 0
0.42707 0.97438 0
0.803616 0.961273 0
1 0.949676 0
1 0.956924 0
1 0.953429 0
0 1 0
0 1 0
0 1 0
0 1 0
0.326955 1 0
0.720226 1 0
0.957183 1 0
1 1 0
1 1 0
0 1 0
0 1 0
0 1 0
0 1 0
0.241337 1 0
0.683513 1 0
0.912993 1 0
1 1 0
1 1 0
0 0 0.421637
0.0597543 0 0.374228
0.246708 0 0.372488
0.535744 0 0.369726
0.804471 0 0.364599
1 0 0.357946
1 0 0.353246
1 0 0.351415
1 0 0.351583
0 0 0.368338
0.00732433 0 0.387381
0.22565 0 0.355291
0.52163 0 0.352438
0.793149 0 0.347158
1 0 0.340276
1 0 0.335241
1 0 0.333227
1 0 0.335637
0 0.172152 0.309285
0 0.151675 0.326238
0.173327 0.11989 0.342977
0.496971 0.0858015 0.328084
0.775219 0.0124361 0.322698
1 0 0.321294
1 0 0.330678
1 0 0.346593
1 0 0.364477
0 0.428611 0.275257
0 0.417258 0.27541
0 0.405509 0.27541
0.428397 0.395102 0.243793
0.750668 0.353506 0.278355
0.990387 0.317006 0.287572
1 0.284855 0.294987
1 0.262013 0.305516
1 0.246784 0.318151
0 0.666789 0.158663
0 0.662562 0.160555
0 0.657389 0.160479
0.253605 0.647364 0.154391
0.668086 0.633143 0.0595254
0.954452 0.61767 0
1 0.575616 0.0583352
1 0.561196 0.135912
1 0.552773 0.173632
0 0.862562 0
0 0.859068 0
0 0.854627 0
0 0.846601 0
0.528069 0.836057 0
0.872419 0.821027 0
1 0.823896 0
1 0.801526 0
1 0.771618 0
0 0.988006 0
0 0.985351 0
0 0.981888 0
0 0.975372 0
0.419669 0.965866 0
0.781888 0.956222 0
0.99379 0.946578 0
1 0.952972 0
1 0.941634 0
0 1 0
0 1 0
0 1 0
0 1 0
0.314794 1 0
0.714229 1 0
0.947433 1 0
1 1 0
1 1 0
0 1 0
0 1 0
0 1 0
0 1 0
0.225391 1 0
0.679301 1 0
0.903212 1 0
1 1 0
1 1 0
0 0 0.661646
0 0 0.62443
0.213916 0 0.599435
0.518471 0 0.597986
0.791989 0 0.595163
1 0 0.591501
1 0 0.588983
1 0 0.588205
1 0 0.588632
0 0 0.612345
0 0 0.630274
0.191073 0 0.58529
0.50425 0 0.582879
0.780636 0 0.580041
1 0 0.576303
1 0 0.573648
1 0 0.572808
1 0 0.573236
0 0.0117494 0.556863
0 0 0.574945
0.0986954 0 0.593759
0.479057 0 0.563409
0.762478 0 0.560571
0.998581 0 0.556878
1 0 0.554147
1 0 0.553262
1 0 0.553857
0 0.40293 0.49691
0 0.387839 0.505394
0 0.365759 0.521294
0.398093 0.327382 0.537057
0.715511 0.301762 0.524178
0.963073 0.26389 0.520653
1 0.223499 0.525658
1 0.185901 0.540856
1 0.154208 0.558877
0 0.65127 0.47013
0 0.640604 0.470924
0 0.628412 0.470176
0.222889 0.614404 0.468742
0.63592 0.603983 0.435431
0.926986 0.567803 0.468269
1 0.548043 0.482322
1 0.5337 0.494469
1 0.523415 0.507103
0 0.84329 0.395789
0 0.836194 0.398642
0 0.831052 0.399329
0 0.822705 0.39704
0.514534 0.810803 0.392035
0.848875 0.801144 0.318746
1 0.791241 0.243946
1 0.757275 0.3579
1 0.747097 0.398947
0 0.968673 0.330648
0 0.965637 0.332067
0 0.962081 0.332113
0 0.955383 0.329229
0.400732 0.945617 0.323186
0.758633 0.936538 0.295567
0.978256 0.932952 0.133074
1 0.933181 0
1 0.905913 0.136172
0 1 0.270939
0 1 0.271519
0 1 0.271015
0 1 0.266987
0.289754 1 0.259113
0.705119 1 0.247898
0.933257 1 0.160021
1 1 0
1 1 0
0 1 0.221668
0 1 0.221805
0 1 0.2206
0 1 0.215274
0.191241 1 0.205325
0.667872 1 0.191928
0.893248 1 0.148791
1 1 0
1 1 0
0 0 0.849287
0 0 0.829541
0.172335 0 0.778332
0.499702 0 0.777462
0.779095 0 0.775616
1 0 0.773114
1 0 0.771466
1 0 0.771176
1 0 0.771817
0 0 0.803388
0 0 0.820249
0.142336 0 0.781216
0.485237 0 0.763775
0.767681 0 0.761883
1 0 0.759396
1 0 0.757687
1 0 0.757321
1 0 0.757977
0 0 0.750973
0 0 0.769696
0 0 0.787427
0.459266 0 0.74699
0.74931 0 0.745068
0.988098 0 0.742611
1 0 0.740856
1 0 0.74052
1 0 0.741222
0 0.347295 0.687922
0 0.321172 0.705684
0 0.28983 0.723568
0.350439 0.235874 0.741726
0.701427 0.20618 0.716014
0.952041 0.150469 0.713695
1 0.0894942 0.712016
1 0.0427558 0.711849
1 0.0183108 0.712718
0 0.632929 0.650401
0 0.621897 0.652705
0 0.608927 0.655924
0.0480201 0.587854 0.664195
0.613809 0.555032 0.673823
0.889784 0.534752 0.669673
1 0.513268 0.674357
1 0.492668 0.690806
1 0.476844 0.707668
0 0.830106 0.625559
0 0.820111 0.626551
0 0.808896 0.626352
0 0.794308 0.624918
0.496986 0.780545 0.622599
0.82179 0.773404 0.581476
1 0.742412 0.621424
1 0.730404 0.639277
1 0.721813 0.653407
0 0.951415 0.582361
0 0.944503 0.58291
0 0.937942 0.584283
0 0.930556 0.583246
0.378088 0.920394 0.580148
0.746792 0.908858 0.575189
0.961288 0.911177 0.483543
1 0.887816 0.512535
1 0.871122 0.576257
0 1 0.548333
0 1 0.549966
0 1 0.550164
0 1 0.548348
0.258579 1 0.544778
0.69247 0.999039 0.539895
0.917327 0.992905 0.51017
1 1 0.383368
1 0.995651 0.361608
0 1 0.524361
0 1 0.524819
0 1 0.524498
0 1 0.522362
0.144579 1 0.518349
0.654353 1 0.513054
0.88484 1 0.505714
0.996292 1 0.448615
1 1 0.278157
0 0 0.9505
0 0 0.940917
0.138277 0 0.883314
0.486564 0 0.881666
0.770443 0 0.880125
1 0 0.87808
1 0 0.876753
1 0 0.87657
1 0 0.877241
0 0 0.911833
0 0 0.926436
0.0917983 0 0.900023
0.471809 0 0.869245
0.758953 0 0.867689
0.996185 0 0.865614
1 0 0.864256
1 0 0.864057
1 0 0.864744
0 0 0.864164
0 0 0.882017
0 0 0.898024
0.44596 0 0.858045
0.740353 0 0.852598
0.981048 0 0.850553
1 0 0.84918
1 0 0.849042
1 0 0.84976
0 0.292256 0.805508
0 0.259709 0.822583
0 0.217639 0.840742
0.315785 0.142565 0.85771
0.691859 0.101595 0.826627
0.944686 0.0087892 0.824704
1 0 0.823438
1 0 0.823453
1 0 0.824399
0 0.61767 0.748974
0 0.60354 0.757107
0 0.584894 0.770443
0 0.557809 0.787121
0.591531 0.518578 0.803189
0.881743 0.500084 0.786404
1 0.480217 0.785153
1 0.467124 0.78529
1 0.45742 0.789807
0 0.818677 0.739666
0 0.808835 0.742336
0 0.797574 0.744747
0 0.782712 0.745937
0.456565 0.76286 0.745541
0.807355 0.741253 0.746441
0.99968 0.722591 0.756222
1 0.708537 0.767407
1 0.698192 0.779049
0 0.940108 0.715282
0 0.932998 0.715389
0 0.924758 0.714565
0 0.913375 0.713161
0.361166 0.901381 0.711437
0.738567 0.889326 0.708186
0.955795 0.887388 0.652567
1 0.861555 0.708476
1 0.853544 0.72842
0 1 0.685557
0 1 0.685405
0 1 0.686168
0 1 0.68542
0.234333 0.991653 0.682765
0.683345 0.981674 0.679164
0.906462 0.974823 0.663996
1 0.982773 0.567987
1 0.965621 0.614588
0 1 0.664607
0 1 0.665721
0 1 0.66601
0 1 0.66453
0.103502 1 0.661585
0.644694 1 0.657694
0.878523 1 0.653956
0.989166 1 0.613947
1 1 0.48983
0 0 1
0 0 1
0.10721 0 0.958663
0.476249 0 0.954406
0.763775 0 0.952895
1 0 0.950896
1 0 0.949554
1 0 0.949294
1 0 0.949783
0 0 0.982559
0 0 0.993255
0.0411536 0 0.978759
0.461067 0 0.943862
0.752102 0 0.942351
0.990814 0 0.940337
1 0 0.938994
1 0 0.938735
1 0 0.939269
0 0 0.943832
0 0 0.958724
0 0 0.971252
0.434226 0 0.940871
0.733272 0 0.929213
0.975525 0 0.92726
1 0 0.925902
1 0 0.925689
1 0 0.926284
0 0.236576 0.892287
0 0.196338 0.907393
0 0.139712 0.923293
0.28661 0.0264744 0.937316
0.684169 0 0.906386
0.938811 0 0.904524
1 0 0.903243
1 0 0.903181
1 0 0.903944
0 0.599268 0.832273
0 0.581552 0.844953
0 0.559442 0.860929
0 0.530983 0.876005
0.572274 0.489021 0.890547
0.875349 0.469368 0.870436
1 0.448173 0.869215
1 0.43415 0.869261
1 0.425849 0.870207
0 0.810544 0.812924
0 0.80058 0.815152
0 0.789487 0.817212
0 0.773846 0.820127
0.419348 0.749752 0.82858
0.799039 0.722469 0.8327
0.991409 0.708309 0.83151
1 0.696727 0.836316
1 0.684108 0.85127
0 0.929931 0.804547
0 0.922957 0.806271
0 0.914946 0.807431
0 0.903624 0.807034
0.320363 0.88777 0.804227
0.731548 0.872755 0.801541
0.951385 0.858305 0.796841
1 0.847303 0.812711
1 0.839704 0.823316
0 1 0.78436
0 0.99881 0.783322
0 0.993912 0.78201
0 0.986267 0.781094
0.212528 0.977005 0.779232
0.675761 0.966827 0.776196
0.899596 0.958663 0.770001
1 0.963546 0.701503
1 0.943358 0.766232
0 1 0.76376
0 1 0.763699
0 1 0.764248
0 1 0.763317
0.0611429 1 0.7608
0.636637 1 0.757519
0.87306 1 0.754406
0.983108 1 0.726299
1 1 0.628046
0 0 1
0 0 1
0.0764935 0 1
0.46746 0 1
0.758144 0 1
0.99649 0 1
1 0 1
1 0 1
1 0 1
0 0 1
0 0 1
0.00015259 0 1
0.451667 0 1
0.746181 0 1
0.98613 0 0.998154
1 0 0.996658
1 0 0.99617
1 0 0.996414
0 0 1
0 0 1
0 0 1
0.4224 0 1
0.72697 0 0.990143
0.970581 0 0.988128
1 0 0.986633
1 0 0.986206
1 0 0.986557
0 0.174334 0.963623
0 0.122835 0.975128
0 0.0413062 0.986801
0.258259 0 0.996002
0.677623 0 0.971649
0.933501 0 0.968963
1 0 0.967575
1 0 0.967285
1 0 0.967803
0 0.577935 0.909819
0 0.557687 0.923079
0 0.535058 0.935943
0 0.505837 0.947753
0.554055 0.462699 0.958114
0.86949 0.439826 0.939269
1 0.417288 0.937911
1 0.402289 0.937743
1 0.393408 0.938415
0 0.802518 0.876829
0 0.791791 0.880583
0 0.778729 0.886549
0 0.759686 0.895796
0.389792 0.732601 0.906874
0.790784 0.700984 0.912917
0.986496 0.689143 0.904753
1 0.679454 0.904707
1 0.673411 0.905699
0 0.921416 0.872587
0 0.914549 0.874388
0 0.90663 0.875914
0 0.895644 0.876524
0.234119 0.88014 0.875685
0.704417 0.862165 0.875135
0.9355 0.845777 0.876997
1 0.833906 0.886488
1 0.82504 0.896086
0 0.992416 0.863767
0 0.988373 0.864103
0 0.983474 0.863828
0 0.975586 0.862089
0.165454 0.963973 0.859236
0.66833 0.952636 0.856825
0.894804 0.943465 0.854337
1 0.937484 0.837232
1 0.928512 0.862486
0 1 0.848814
0 1 0.847486
0 1 0.846616
0 1 0.845808
0.0187228 1 0.843809
0.628733 1 0.84094
0.867781 0.998367 0.838254
0.976974 0.995834 0.821469
1 1 0.758099
