public/images/Fine Arts Cadres /TC_-_EDITING_ESSENTIALS_-_COLOR/TC - ATLANTA - LOG TO LOOK - 2.cube
TITLE "Generated by Resolve"
LUT_3D_SIZE 9
0.00619516 0.00619516 0.00619516
0.0125887 0.00564584 0.00585946
0.0599985 0.00184634 0.00358587
0.115923 0 0.00149538
0.204303 0 0.00195315
0.360601 0 0.0187076
0.547662 0.0218814 0.0623636
0.689448 0.0487373 0.0981765
0.778683 0.0656901 0.119539
0.00773632 0.0265507 0.0108797
0.0250858 0.033402 0.00981155
0.0767681 0.0419013 0.00753796
0.148516 0.0441291 0.00155642
0.27361 0.0375067 0
0.460853 0.0233005 0
0.647959 0.0471046 0.0442054
0.765301 0.0681163 0.0786297
0.849973 0.0838788 0.101732
0.0122835 0.0922713 0.0331273
0.0209506 0.10425 0.0169985
0.107988 0.124407 0.0260471
0.21622 0.132265 0.0220951
0.36434 0.136873 0.0162661
0.551705 0.135256 0.0214237
0.712108 0.135531 0.0375067
0.805737 0.143481 0.0492561
0.880461 0.154482 0.0594034
0.0265812 0.203861 0.0846418
0.0398108 0.236973 0.0712444
0.0989548 0.274006 0.050721
0.284566 0.315694 0.0855421
0.487419 0.336873 0.088014
0.657221 0.359808 0.0968643
0.774456 0.390845 0.108751
0.850111 0.418173 0.119493
0.915175 0.442664 0.130022
0.0962997 0.443259 0.209049
0.120134 0.491875 0.217853
0.151553 0.542779 0.203693
0.298192 0.578149 0.161227
0.572198 0.62356 0.220539
0.744518 0.645502 0.223133
0.832135 0.667292 0.225208
0.896193 0.694331 0.23241
0.944335 0.721126 0.240665
0.185885 0.687465 0.338872
0.202564 0.721614 0.345556
0.228595 0.756817 0.325185
0.340414 0.772305 0.230121
0.603861 0.803952 0.273411
0.792447 0.82977 0.317494
0.876417 0.842008 0.323537
0.934524 0.851713 0.318898
0.970352 0.865309 0.32076
0.235431 0.82269 0.411963
0.249989 0.850034 0.414694
0.275212 0.876234 0.3823
0.396979 0.8869 0.274342
0.649134 0.913939 0.313069
0.801572 0.934371 0.346624
0.899153 0.948348 0.370565
0.959777 0.960952 0.387091
0.985321 0.969543 0.386679
0.276829 0.935912 0.474891
0.289143 0.954177 0.470558
0.314733 0.962112 0.418418
0.457343 0.964309 0.304723
0.695216 0.974701 0.345449
0.820233 0.980621 0.371862
0.910399 0.985046 0.392676
0.968765 0.988022 0.407492
0.98938 0.98938 0.416968
0.303273 0.962402 0.517861
0.313756 0.963195 0.50692
0.343801 0.964843 0.427512
0.528191 0.968841 0.33698
0.738445 0.978058 0.37261
0.843137 0.982986 0.394125
0.921416 0.98677 0.411414
0.974334 0.98941 0.424033
0.990539 0.990524 0.432135
0.00576791 0.00419623 0.018143
0.0153048 0.00494392 0.0189059
0.0666819 0.00144961 0.0172427
0.125597 0 0.0103456
0.219989 0 0.00817884
0.385306 0.000518807 0.0265354
0.569253 0.0256809 0.0690166
0.701259 0.0509957 0.100969
0.791089 0.068101 0.122148
0.00813306 0.0267185 0.026566
0.0198367 0.0330968 0.0341192
0.0920119 0.034638 0.0274815
0.171557 0.0330358 0.0188449
0.304891 0.0245975 0.0110475
0.495491 0.0176547 0.0187686
0.673396 0.0497444 0.0683604
0.781094 0.0698711 0.096025
0.864347 0.0855421 0.116442
0.0130312 0.0935378 0.0608988
0.0184787 0.105882 0.0544594
0.101518 0.128328 0.0483406
0.222736 0.133425 0.0452888
0.389761 0.132113 0.0438849
0.583017 0.126879 0.0513313
0.734264 0.12781 0.0626535
0.821118 0.136873 0.0710307
0.883268 0.150378 0.0804303
0.0294194 0.220188 0.121279
0.0407874 0.249912 0.115877
0.0644694 0.288121 0.0727703
0.281132 0.330297 0.0978103
0.495644 0.352102 0.113771
0.660685 0.378347 0.122148
0.784039 0.401572 0.131106
0.862715 0.423819 0.139849
0.917174 0.449027 0.150149
0.103059 0.469581 0.241718
0.123949 0.511055 0.249256
0.154818 0.559411 0.238193
0.290364 0.594064 0.17615
0.574548 0.636606 0.229984
0.749157 0.658946 0.240711
0.834241 0.682002 0.244816
0.898085 0.708812 0.250645
0.94876 0.730999 0.256168
0.189807 0.705516 0.366476
0.204349 0.733577 0.37052
0.228458 0.763638 0.352041
0.327901 0.779736 0.243137
0.603311 0.8112 0.285054
0.790951 0.835187 0.324865
0.877684 0.84744 0.335302
0.936034 0.856947 0.334005
0.972 0.871382 0.336156
0.235737 0.832425 0.439094
0.248783 0.855817 0.441688
0.272816 0.879301 0.414801
0.377829 0.892073 0.289815
0.644907 0.918486 0.328023
0.795346 0.937148 0.358068
0.896147 0.949493 0.380575
0.957671 0.960525 0.395987
0.986053 0.968383 0.399191
0.273335 0.938109 0.504921
0.283604 0.952758 0.503243
0.308705 0.962142 0.461616
0.430274 0.965164 0.327733
0.683009 0.975769 0.365225
0.809689 0.981537 0.388968
0.900908 0.985824 0.407462
0.96173 0.9888 0.421241
0.990387 0.990387 0.430304
0.294972 0.962158 0.555642
0.303487 0.962875 0.552178
0.333745 0.964782 0.490532
0.486809 0.969818 0.367422
0.715175 0.979217 0.398505
0.824704 0.98407 0.417075
0.907805 0.9879 0.432807
0.96318 0.990616 0.445289
0.992325 0.992325 0.455756
0.0043946 0 0.0602274
0.0154116 0 0.054551
0.0670329 0.00291447 0.0638437
0.133776 0 0.0662394
0.240543 0 0.0677348
0.415808 0.00283818 0.0818647
0.596002 0.0288701 0.109758
0.717205 0.0512245 0.131792
0.80795 0.0686046 0.149096
0 0.0217746 0.0620737
0.00112917 0.0145266 0.0790417
0.0901808 0.0223545 0.0939956
0.183017 0.0180972 0.0812085
0.330083 0.00877394 0.0681163
0.526436 0.0221866 0.0862898
0.695262 0.0521096 0.116991
0.795132 0.0701762 0.135424
0.875898 0.0848859 0.150515
0.0149691 0.0991379 0.0995346
0.0188144 0.107546 0.10753
0.0870527 0.127245 0.130053
0.245533 0.125261 0.118898
0.429603 0.113191 0.101335
0.616739 0.108995 0.101244
0.757687 0.110979 0.105028
0.837919 0.12137 0.108736
0.884459 0.137224 0.116045
0.0350805 0.238437 0.176837
0.0444953 0.261097 0.178042
0.0670939 0.297765 0.169512
0.262654 0.346654 0.1411
0.500526 0.364492 0.162249
0.680583 0.380072 0.169085
0.800229 0.398154 0.174517
0.878508 0.420615 0.180179
0.919753 0.448157 0.189227
0.109026 0.492943 0.301946
0.124407 0.524804 0.306203
0.1523 0.56759 0.303365
0.239658 0.606699 0.210346
0.566217 0.645457 0.251072
0.753292 0.664637 0.274998
0.835691 0.689845 0.280461
0.905699 0.711574 0.284566
0.954665 0.730053 0.289631
0.185565 0.714931 0.422736
0.196551 0.7355 0.425132
0.218311 0.760418 0.417624
0.269947 0.783108 0.302998
0.58265 0.814755 0.316075
0.781979 0.835111 0.346365
0.877516 0.844678 0.363058
0.937774 0.853803 0.370016
0.9738 0.868986 0.368963
0.227176 0.832227 0.50251
0.237949 0.851102 0.508309
0.260777 0.872557 0.498283
0.316899 0.891539 0.374411
0.610025 0.920501 0.370138
0.77557 0.936172 0.393408
0.887465 0.946212 0.411521
0.955383 0.955398 0.424521
0.987762 0.961196 0.434882
0.262654 0.93048 0.577508
0.270756 0.941573 0.58172
0.296788 0.954299 0.561776
0.361624 0.966079 0.429847
0.636179 0.978241 0.418967
0.780926 0.984161 0.437217
0.883497 0.988464 0.451133
0.953506 0.991592 0.462974
0.993545 0.993545 0.471855
0.28513 0.962402 0.637675
0.293629 0.963226 0.64271
0.326223 0.965698 0.608484
0.411017 0.97171 0.486412
0.653773 0.982162 0.464881
0.787198 0.987411 0.478782
0.888792 0.992477 0.503456
0.954116 0.99678 0.533272
0.995193 1 0.568154
0.00364691 0 0.12166
0.0150912 0 0.10486
0.0669108 0 0.114183
0.133242 0.000381476 0.130327
0.247868 0 0.138552
0.433768 0.00543221 0.149981
0.614908 0.0327916 0.167971
0.729168 0.0537881 0.180514
0.82031 0.070634 0.191699
0 0 0.133425
0 0 0.157244
0.0620737 0 0.153643
0.172168 0.00141909 0.178134
0.34403 0.00415045 0.182483
0.551507 0.0271458 0.192828
0.713664 0.0560922 0.204044
0.806455 0.0728313 0.20972
0.879484 0.0879072 0.217105
0 0.0992447 0.172854
0 0.0903944 0.196109
0.0233463 0.0529335 0.244129
0.230945 0.0699321 0.265141
0.437003 0.0679637 0.246326
0.628489 0.0720836 0.228122
0.759991 0.0816358 0.219715
0.84155 0.0956283 0.2159
0.883528 0.114733 0.21709
0.0406348 0.262455 0.266911
0.0498207 0.2748 0.276799
0.0682994 0.303395 0.298878
0.227481 0.345586 0.351843
0.538094 0.3514 0.343847
0.736721 0.341756 0.305043
0.840589 0.365118 0.302419
0.913878 0.3906 0.301289
0.925475 0.424277 0.307073
0.121309 0.506111 0.415686
0.13286 0.530129 0.421851
0.15584 0.565194 0.432471
0.21503 0.602182 0.406912
0.555291 0.655787 0.415473
0.763699 0.667842 0.402625
0.861082 0.679515 0.37641
0.934707 0.694789 0.384375
0.960204 0.716152 0.391043
0.19292 0.716823 0.531884
0.201251 0.731395 0.536995
0.21915 0.751156 0.541558
0.269108 0.773556 0.497154
0.547341 0.82269 0.463432
0.777081 0.837751 0.493034
0.884733 0.84303 0.508843
0.947478 0.850248 0.476356
0.978851 0.860639 0.452155
0.233036 0.829343 0.612619
0.240696 0.842054 0.619654
0.261006 0.861189 0.623804
0.315831 0.879499 0.567941
0.564462 0.926696 0.532113
0.761242 0.938521 0.558556
0.887327 0.946227 0.584939
0.960754 0.952758 0.605875
0.99855 0.956542 0.599329
0.266102 0.920165 0.686122
0.272206 0.927779 0.691752
0.296971 0.939834 0.686854
0.356222 0.949294 0.620447
0.602319 0.990662 0.601694
0.769879 0.997772 0.626764
0.884642 1 0.648768
0.959472 1 0.672068
1 1 0.693049
0.286809 0.963973 0.741512
0.294347 0.964721 0.747143
0.324971 0.967239 0.730373
0.403845 0.973526 0.669276
0.641459 0.995193 0.66949
0.794049 1 0.694469
0.897932 1 0.714458
0.961624 1 0.730648
1 1 0.745434
0.013611 0 0.232547
0.0201267 0 0.200122
0.0722667 0 0.198749
0.133074 0 0.222202
0.246265 0.000183108 0.252689
0.439155 0.00910964 0.274205
0.621378 0.0358129 0.288777
0.733547 0.0560006 0.295277
0.825864 0.0728008 0.297688
0 0 0.289265
0 0 0.304845
0.0680858 0 0.278737
0.165515 0 0.309514
0.343526 0.00929274 0.352789
0.55996 0.0331579 0.374563
0.721691 0.0602884 0.385611
0.812467 0.076112 0.384817
0.882124 0.0912032 0.381048
0 0.0176089 0.320607
0 0 0.358495
0 0 0.396094
0.181689 0 0.390051
0.417365 0.0237278 0.434562
0.632746 0.0571756 0.447654
0.764523 0.0790265 0.447318
0.848157 0.0938888 0.436576
0.885588 0.110185 0.427802
0 0.283009 0.391012
0 0.291005 0.423606
0 0.267948 0.443931
0.115221 0.248554 0.523415
0.520058 0.285084 0.567956
0.733837 0.282704 0.551492
0.842832 0.308095 0.530922
0.921279 0.337026 0.516472
0.926833 0.373297 0.514336
0.138766 0.526024 0.525826
0.147662 0.544701 0.541146
0.160723 0.564965 0.556146
0.196384 0.593896 0.580011
0.522667 0.647898 0.647868
0.781582 0.657725 0.649638
0.881102 0.665705 0.631174
0.959197 0.675914 0.615366
0.973098 0.695628 0.608637
0.202152 0.711116 0.649561
0.207752 0.720058 0.655192
0.221134 0.735164 0.663081
0.266514 0.757534 0.660426
0.544442 0.810437 0.68484
0.778408 0.835676 0.714137
0.884764 0.84239 0.71339
0.955764 0.846235 0.693706
0.994003 0.852995 0.684138
0.240009 0.821286 0.720012
0.244816 0.828733 0.722683
0.263066 0.847272 0.730694
0.313939 0.864927 0.711162
0.559365 0.912764 0.720134
0.76585 0.935424 0.747295
0.889891 0.943603 0.758587
0.963256 0.948974 0.765438
1 0.953918 0.753185
0.270451 0.908431 0.778454
0.275288 0.914443 0.779934
0.298421 0.926162 0.779141
0.351659 0.934417 0.741634
0.59855 0.977417 0.74902
0.774945 0.994476 0.773602
0.890227 0.999832 0.786252
0.963073 1 0.79855
1 1 0.810407
0.289189 0.959915 0.816739
0.296086 0.965682 0.817853
0.32491 0.968292 0.806775
0.39942 0.974533 0.771282
0.634256 0.996109 0.784634
0.798077 1 0.808774
0.90248 1 0.822354
0.965759 1 0.834272
1 1 0.846586
0.0498817 0 0.39324
0.0542916 0 0.359426
0.086656 0 0.329885
0.141634 0 0.356191
0.244373 0 0.388632
0.43389 0.0205234 0.436362
0.618326 0.0425574 0.461616
0.731182 0.0606699 0.471717
0.824063 0.076463 0.477852
0.0226596 0 0.455329
0.0438849 0 0.465553
0.0929732 0 0.438987
0.175952 0 0.454047
0.339254 0 0.493858
0.557229 0.0469978 0.545174
0.720974 0.0681926 0.565881
0.812024 0.0821851 0.57258
0.885435 0.0959182 0.57641
0 0 0.495705
0 0 0.530846
0.0407874 0 0.542611
0.187152 0 0.532372
0.408606 0 0.569253
0.62945 0.0681926 0.614572
0.763989 0.0864271 0.626001
0.849943 0.0999313 0.628473
0.889021 0.115007 0.629023
0 0.254246 0.532769
0 0.261357 0.563638
0 0.212222 0.580011
0 0.14931 0.622782
0.474144 0.205982 0.674327
0.705791 0.234897 0.701152
0.818845 0.254658 0.693065
0.90312 0.281437 0.68777
0.920943 0.320089 0.688182
0.0211185 0.531701 0.608179
0.0270848 0.558892 0.640848
0.0272831 0.559411 0.651331
0.0853285 0.570626 0.678035
0.43856 0.597284 0.772137
0.770825 0.632288 0.790997
0.880369 0.637995 0.784054
0.961151 0.65005 0.769787
0.976684 0.674449 0.764538
0.20087 0.713619 0.720226
0.207095 0.72195 0.727871
0.222889 0.730709 0.730282
0.257649 0.754116 0.744717
0.462593 0.798581 0.783581
0.760586 0.830106 0.826352
0.892653 0.834867 0.829206
0.964553 0.836622 0.816571
1 0.844099 0.809598
0.245624 0.814466 0.78468
0.248936 0.820066 0.783963
0.2663 0.839567 0.793378
0.31371 0.856184 0.789837
0.557443 0.902937 0.817533
0.763241 0.926741 0.842771
0.891218 0.940337 0.8589
0.962249 0.946273 0.860792
1 0.948562 0.850675
0.273762 0.900664 0.82977
0.278477 0.907118 0.831083
0.300465 0.917449 0.833539
0.349889 0.924407 0.816098
0.596445 0.966735 0.841245
0.771405 0.983871 0.863951
0.893767 0.995529 0.880674
0.964141 0.999802 0.889845
1 1 0.89749
0.291661 0.951934 0.862425
0.298482 0.957351 0.865919
0.325597 0.961364 0.860655
0.396063 0.971099 0.844434
0.627268 0.996597 0.867323
0.795056 1 0.889189
0.905379 1 0.905455
0.968673 1 0.914
1 1 0.921752
0.0785687 0 0.506523
0.0883345 0 0.48925
0.108522 0 0.457404
0.155962 0 0.474052
0.250828 0 0.501778
0.426719 0 0.542733
0.612772 0.0551461 0.589471
0.72639 0.0691997 0.608209
0.820035 0.0827802 0.618921
0.0583352 0 0.558663
0.0724346 0 0.563577
0.119371 0 0.551598
0.189883 0 0.560098
0.345083 0 0.591455
0.553597 0.0162966 0.637125
0.717006 0.0779126 0.672557
0.810117 0.0897231 0.684932
0.887892 0.101717 0.693049
0 0 0.606531
0 0 0.622812
0.0652018 0 0.624842
0.200381 0 0.626612
0.414008 0 0.650675
0.625513 0.0508125 0.692195
0.760601 0.0939345 0.717662
0.849134 0.106081 0.725475
0.891173 0.120043 0.731868
0 0.22742 0.620996
0 0.236713 0.641794
0 0.174304 0.654322
0 0.0905013 0.679408
0.448859 0.150118 0.729305
0.679347 0.201038 0.756527
0.80322 0.231312 0.772107
0.889738 0.253849 0.77026
0.917113 0.287449 0.77557
0 0.528389 0.679408
0 0.556146 0.70782
0 0.553002 0.71751
0 0.545953 0.732586
0.384726 0.563287 0.847608
0.752605 0.604105 0.861295
0.87013 0.626612 0.873594
0.95552 0.632074 0.866239
0.974426 0.651545 0.864485
0.137957 0.702876 0.747631
0.156817 0.732311 0.774487
0.155596 0.729564 0.775723
0.189532 0.745281 0.793454
0.334798 0.766506 0.840391
0.719738 0.802045 0.902403
0.882765 0.819089 0.909773
0.963531 0.822217 0.906905
1 0.830152 0.899886
0.249363 0.820844 0.822324
0.255756 0.828779 0.826886
0.26511 0.84033 0.833722
0.302235 0.856657 0.843153
0.456046 0.893126 0.873381
0.722057 0.920806 0.905623
0.875578 0.935485 0.930144
0.966384 0.94049 0.93547
1 0.941176 0.928267
0.277012 0.89456 0.869444
0.281819 0.901091 0.873091
0.30222 0.910262 0.877775
0.348104 0.916197 0.872892
0.593423 0.958404 0.90753
0.768475 0.976089 0.926879
0.892439 0.989013 0.941512
0.965316 0.996887 0.950927
1 1 0.953094
0.294057 0.945464 0.897963
0.300771 0.95108 0.901793
0.32639 0.95462 0.899367
0.393729 0.963333 0.894133
0.621576 0.994278 0.921584
0.792859 1 0.941146
0.904005 1 0.955276
0.976013 1 0.971298
1 1 0.976272
0.0974136 0 0.57911
0.107271 0 0.563729
0.128038 0 0.53904
0.167605 0 0.545007
0.26041 0 0.568948
0.428092 0 0.605234
0.61059 0.0411231 0.652354
0.723629 0.0771649 0.680766
0.817487 0.0888838 0.696361
0.0819562 0 0.630488
0.0933852 0 0.637201
0.13846 0 0.628473
0.201617 0 0.624979
0.356329 0 0.654612
0.555383 0 0.697795
0.716701 0.076524 0.736904
0.807385 0.0970626 0.756573
0.889479 0.107347 0.768002
0 0 0.678538
0 0 0.691524
0.0849928 0 0.69691
0.210361 0 0.699123
0.419821 0 0.71252
0.626261 0.0325322 0.751476
0.758129 0.0925154 0.779782
0.845685 0.112291 0.794659
0.892897 0.125002 0.804059
0 0.206256 0.684413
0 0.210483 0.7028
0 0.143542 0.714549
0 0.0386816 0.730983
0.423911 0.0826886 0.77557
0.660044 0.164538 0.801846
0.785229 0.208957 0.824323
0.877806 0.23975 0.834791
0.915236 0.269352 0.840467
0 0.524056 0.735897
0 0.548226 0.757824
0 0.551446 0.773602
0 0.531853 0.785153
0.351858 0.543587 0.89073
0.735775 0.580621 0.918013
0.854887 0.610025 0.924651
0.947631 0.628962 0.930388
0.974105 0.643915 0.929702
0.0427558 0.68809 0.782208
0.0742504 0.722774 0.81088
0.074464 0.725689 0.819532
0.104219 0.730205 0.830945
0.28484 0.743786 0.874449
0.69247 0.785901 0.948623
0.87126 0.804959 0.953292
0.957153 0.818555 0.960067
1 0.822797 0.956603
0.212467 0.818448 0.843671
0.230503 0.841398 0.861753
0.231678 0.842344 0.864302
0.263203 0.85716 0.876921
0.34612 0.869352 0.895674
0.653895 0.908583 0.947112
0.850401 0.921233 0.972778
0.960632 0.932143 0.978851
1 0.933883 0.97792
0.280629 0.899123 0.892592
0.283803 0.904112 0.89601
0.295567 0.912657 0.901869
0.333211 0.918227 0.903883
0.489326 0.95021 0.932372
0.719036 0.971954 0.957275
0.86537 0.985611 0.975189
0.955505 0.993851 0.989456
1 0.998154 0.995483
0.295949 0.941665 0.920775
0.302586 0.94728 0.925109
0.327108 0.950271 0.925597
0.392157 0.958038 0.928557
0.616938 0.988571 0.95935
0.791394 1 0.977386
0.902937 1 0.989593
0.970123 1 0.997742
1 1 1
0.116304 0 0.650095
0.125673 0 0.637781
0.146105 0 0.61146
0.178973 0 0.607279
0.270649 0 0.628229
0.43389 0 0.663539
0.60914 0.0150454 0.708949
0.721828 0.0754101 0.740978
0.814679 0.0962387 0.763119
0.103151 0 0.697841
0.112779 0 0.704768
0.156741 0 0.701366
0.214969 0 0.691478
0.367437 0 0.715114
0.56051 0 0.752865
0.714443 0.0551003 0.788876
0.80679 0.102068 0.811978
0.88687 0.113527 0.82681
0.00924697 0 0.737804
0.0151064 0 0.747204
0.0991226 0 0.753964
0.215305 0 0.755825
0.425772 0 0.764263
0.629313 0.0178531 0.798718
0.754269 0.078172 0.823148
0.844755 0.117891 0.841123
0.894148 0.128985 0.85127
0 0.184039 0.735225
0 0.191501 0.747738
0 0.132342 0.755474
0 0.0172274 0.765469
0.404089 0.0345312 0.80705
0.648783 0.142977 0.834424
0.773175 0.195499 0.856107
0.873152 0.237781 0.874876
0.915953 0.270329 0.882734
0 0.522805 0.780453
0 0.544259 0.794385
0 0.55169 0.80972
0 0.529442 0.818402
0.326131 0.535836 0.913619
0.722622 0.567132 0.955367
0.846647 0.602975 0.958343
0.940108 0.627817 0.965881
0.975219 0.647684 0.97052
0 0.680446 0.813489
0.000946059 0.711879 0.833738
0.0170291 0.724269 0.846326
0.0387579 0.723842 0.855436
0.254643 0.73373 0.899107
0.670146 0.777478 0.978363
0.862562 0.795651 0.985901
0.948791 0.812222 0.988922
1 0.823514 0.991836
0.158175 0.803891 0.860136
0.19324 0.838743 0.882979
0.199023 0.845594 0.890303
0.219623 0.854139 0.899779
0.306905 0.859373 0.916854
0.611368 0.89778 0.974533
0.833478 0.913298 0.997574
0.954101 0.924849 1
1 0.93257 1
0.271748 0.900542 0.90695
0.280156 0.911727 0.916197
0.284977 0.916701 0.921096
0.307271 0.922423 0.926741
0.371649 0.928878 0.936065
0.628183 0.964157 0.976394
0.82153 0.979538 0.99646
0.942138 0.987671 1
1 0.996094 1
0.297734 0.944411 0.934676
0.301625 0.949432 0.938537
0.315618 0.952911 0.940749
0.354925 0.952148 0.938674
0.535332 0.982498 0.968917
0.737255 0.999069 0.988571
0.874128 1 1
0.95436 1 1
1 1 1
