public/images/Fine Arts Cadres /TC_-_EDITING_ESSENTIALS_-_COLOR/TC - STRANGER THINGS - LOG TO LOOK - 2.cube
TITLE "Generated by Resolve"
LUT_3D_SIZE 5
0.0061799 0.00952163 0.0102083
0.107607 0.0259709 0.0039826
0.482002 0.0138094 0.0263676
0.749844 0.0614176 0.104494
0.881407 0.105196 0.163424
0.0119478 0.0789349 0.0532235
0.132921 0.125124 0.0263828
0.676356 0.0837568 0.0229801
0.880293 0.105791 0.0986496
0.885023 0.131334 0.137011
0.0786603 0.407538 0.21033
0.0785077 0.381476 0.15491
0.682124 0.6215 0.211353
0.93341 0.594186 0.176715
0.934371 0.59852 0.184588
0.22707 0.8056 0.406851
0.213123 0.763806 0.378393
0.599741 0.901396 0.291249
0.938628 0.952239 0.374334
0.980652 0.944137 0.355596
0.320302 0.964157 0.534157
0.31429 0.963485 0.524285
0.482551 0.965972 0.317006
0.932128 0.986053 0.396811
0.989288 0.989288 0.415702
0.000183108 0.00221256 0.0429084
0.113573 0.00172427 0.10277
0.503395 0.0144808 0.155032
0.792111 0.0654765 0.21062
0.883101 0.108003 0.26273
0.0164797 0.110979 0.109758
0.0894026 0.12398 0.131792
0.638819 0.0682078 0.101976
0.87985 0.0949416 0.162707
0.885054 0.125658 0.208148
0.0933852 0.454109 0.250233
0.0872663 0.431617 0.231388
0.663905 0.614878 0.215869
0.933928 0.588235 0.193042
0.9355 0.59266 0.209674
0.228794 0.811917 0.414267
0.217517 0.780499 0.398779
0.571862 0.894331 0.28574
0.935576 0.946456 0.372671
0.98024 0.940795 0.354498
0.31931 0.96405 0.532891
0.310918 0.963165 0.52311
0.467674 0.965789 0.320745
0.926162 0.985687 0.394644
0.989212 0.989197 0.414618
0 0.00723278 0.143221
0.108888 0 0.252415
0.42565 0.0174411 0.403204
0.664881 0.0496986 0.463798
0.868513 0.0846265 0.505501
0 0.195468 0.369345
0 0.0428779 0.345571
0.611475 0.0570993 0.53843
0.869551 0.0948043 0.568658
0.890394 0.126467 0.603693
0.147463 0.56112 0.532219
0.111818 0.538247 0.559197
0.618311 0.634256 0.598505
0.95668 0.579904 0.537011
0.95584 0.57348 0.534264
0.228 0.8336 0.560739
0.222583 0.799954 0.620691
0.334554 0.886168 0.467567
0.900236 0.941482 0.417655
0.987167 0.938415 0.459541
0.300206 0.963088 0.589364
0.278782 0.961822 0.637446
0.321355 0.96437 0.543709
0.860258 0.985351 0.419028
0.990662 0.990662 0.433906
0 0 0.344167
0.11899 0 0.380575
0.35375 0 0.493797
0.569543 0.0476997 0.5729
0.76083 0.0745708 0.621118
0 0.275441 0.553964
0 0.145541 0.556146
0.547768 0 0.73019
0.817655 0.104875 0.787945
0.893889 0.130159 0.819028
0 0.525307 0.67866
0 0.539483 0.710628
0.274815 0.54667 0.817243
0.913817 0.543587 0.915114
0.953979 0.515862 0.90753
0.209125 0.772488 0.787808
0.127703 0.721172 0.776486
0.272129 0.834501 0.828061
0.85005 0.932601 0.917281
1 0.935683 0.912413
0.282734 0.942184 0.834989
0.273045 0.903136 0.840162
0.29366 0.948516 0.854887
0.76173 1 0.871992
0.98822 1 0.873747
0 0.00547799 0.454063
0.138323 0 0.538842
0.408545 0 0.644358
0.603479 0.0147707 0.700236
0.783185 0.090837 0.745083
0 0.305776 0.637842
0 0.262699 0.671992
0.476509 0 0.819959
0.770962 0.076112 0.871275
0.896178 0.138384 0.896178
0 0.53846 0.745205
0 0.568917 0.779919
0 0.540795 0.831006
0.829755 0.582132 0.960876
0.964385 0.578256 0.964385
0.0162051 0.704662 0.815595
0.010605 0.711177 0.826001
0.181994 0.82385 0.893248
0.684703 0.908736 0.986938
0.986648 0.935073 1
0.265126 0.889662 0.897292
0.213916 0.848142 0.879545
0.290929 0.928847 0.930053
0.567514 0.981491 0.972137
0.963745 1 1
