public/images/Fine Arts Cadres /TC_-_EDITING_ESSENTIALS_-_COLOR/TC - MINDHUNTER - LOG TO LOOK - 2.cube
TITLE "Generated by Resolve"
LUT_3D_SIZE 9
0.00631724 0.00857557 0.00885023
0.0148318 0.0115206 0.00959792
0.0751812 0.0200504 0.00502022
0.154421 0.0131991 0
0.338689 0.00337224 0.00459297
0.569253 0.0378271 0.0678111
0.749172 0.0740063 0.119341
0.882002 0.108949 0.165377
0.886275 0.134691 0.195697
0.00697337 0.0140536 0.0124361
0.0199283 0.018555 0.0119478
0.0928511 0.0260471 0.00512703
0.192905 0.0174868 0
0.407309 0.0111849 0.0111391
0.628458 0.0506752 0.0778668
0.809964 0.0870985 0.13022
0.884001 0.121538 0.174166
0.88716 0.140597 0.195499
0.0124666 0.0749371 0.0437171
0.01355 0.0787213 0.0389105
0.124346 0.115496 0.0260014
0.30454 0.113985 0.0125734
0.572183 0.0948043 0.0235752
0.783185 0.0942702 0.0656138
0.88365 0.124605 0.121553
0.88716 0.144427 0.149493
0.888228 0.150958 0.15462
0.024033 0.171191 0.0898146
0.024155 0.172503 0.0839399
0.0960708 0.237827 0.0423133
0.340887 0.307866 0.0853437
0.617685 0.324514 0.085008
0.827893 0.32047 0.101534
0.902403 0.319539 0.120378
0.903563 0.323247 0.132128
0.904982 0.334112 0.137331
0.0975052 0.418784 0.210163
0.0960861 0.414496 0.206424
0.135973 0.485969 0.197116
0.31371 0.563638 0.165545
0.647868 0.635264 0.245411
0.851896 0.643046 0.220691
0.942016 0.6495 0.222248
0.94342 0.658244 0.229892
0.94435 0.664973 0.233845
0.199863 0.679667 0.346105
0.198215 0.675425 0.343877
0.220371 0.716106 0.340368
0.287007 0.789227 0.273228
0.630198 0.839551 0.30071
0.875151 0.882795 0.364569
0.974548 0.888426 0.348272
0.975586 0.897871 0.349508
0.976074 0.901793 0.350988
0.2916 0.914885 0.471077
0.290181 0.911254 0.469139
0.299962 0.927352 0.463691
0.334081 0.961395 0.412192
0.603311 0.971038 0.335088
0.873762 0.983993 0.394583
0.985489 0.989715 0.423255
0.990387 0.990387 0.430182
0.99025 0.99025 0.428382
0.344106 0.9664 0.54165
0.343618 0.966354 0.541009
0.347433 0.966583 0.533303
0.364324 0.967422 0.481392
0.581964 0.971633 0.352132
0.878538 0.985367 0.4112
0.98851 0.99086 0.437476
0.991562 0.991562 0.445731
0.991714 0.991714 0.447654
0.356252 0.967697 0.556039
0.356161 0.967681 0.555947
0.359243 0.967834 0.546304
0.375189 0.968551 0.492714
0.598337 0.972824 0.361364
0.8972 0.986648 0.42031
0.991409 0.991409 0.443763
0.991943 0.991943 0.450752
0.992065 0.992065 0.452277
0.00479133 0.007187 0.0162661
0.0213474 0.0122835 0.0213779
0.0870069 0.0158999 0.0113832
0.164553 0.00720226 0.00515755
0.347478 0.00291447 0.0200961
0.577066 0.0378882 0.0830091
0.759167 0.0745556 0.133974
0.882399 0.110353 0.180758
0.886488 0.134844 0.210834
0.00437934 0.0106661 0.0218357
0.017258 0.0182498 0.0215
0.0925307 0.0235904 0.0139162
0.185946 0.0153353 0.00735485
0.393866 0.00843824 0.0222782
0.626993 0.049012 0.0901503
0.811475 0.0859846 0.142885
0.884153 0.121294 0.189075
0.887236 0.139681 0.212116
0.0128328 0.0771954 0.0489357
0.0136416 0.0801862 0.0455329
0.121752 0.116045 0.027985
0.300954 0.113542 0.0174258
0.557031 0.095079 0.0277256
0.765042 0.0896925 0.0646372
0.883101 0.119722 0.12369
0.887007 0.142641 0.15874
0.888197 0.14963 0.168688
0.0247044 0.174853 0.0939498
0.0247959 0.175753 0.0894789
0.0869306 0.238712 0.0426947
0.33489 0.309758 0.0886244
0.613291 0.325032 0.086183
0.824964 0.319966 0.102785
0.90248 0.318975 0.122423
0.903975 0.324346 0.136522
0.905196 0.332555 0.142657
0.0979019 0.419791 0.210666
0.0961776 0.415015 0.207309
0.135241 0.485054 0.197925
0.306432 0.563027 0.164279
0.643366 0.636103 0.247318
0.849561 0.644495 0.221714
0.942229 0.651011 0.223117
0.943603 0.659419 0.230884
0.944533 0.665888 0.235187
0.200275 0.68072 0.34667
0.198627 0.676493 0.344427
0.219821 0.715251 0.340581
0.281849 0.789532 0.274556
0.623941 0.839155 0.299413
0.871962 0.882551 0.363745
0.97464 0.88896 0.348775
0.975616 0.898146 0.349706
0.976059 0.901656 0.350927
0.291951 0.915785 0.47155
0.290364 0.911711 0.469383
0.29987 0.92752 0.464256
0.333242 0.96141 0.415518
0.596994 0.970764 0.333928
0.870909 0.983856 0.393927
0.984192 0.989654 0.422904
0.990402 0.990402 0.430488
0.990265 0.990265 0.42858
0.344228 0.966415 0.541802
0.34374 0.966354 0.541161
0.347356 0.966583 0.533715
0.363729 0.967391 0.483574
0.574594 0.971313 0.350927
0.875273 0.985214 0.410483
0.987137 0.990784 0.437156
0.991562 0.991562 0.44567
0.991714 0.991714 0.447669
0.356283 0.967697 0.556069
0.356176 0.967681 0.555978
0.359167 0.967819 0.546639
0.374578 0.968521 0.495048
0.591058 0.972503 0.360159
0.893935 0.986481 0.419562
0.991394 0.991394 0.443519
0.991943 0.991943 0.450706
0.992065 0.992065 0.452277
0 0 0.0585031
0.0119783 0 0.0620279
0.0884413 0.00315862 0.0774395
0.185504 0 0.0815747
0.380133 0.00642405 0.103304
0.595315 0.0405432 0.143435
0.772625 0.0755932 0.182254
0.882933 0.110369 0.221958
0.886702 0.13312 0.248524
0 0 0.0629892
0.0146487 0 0.0620432
0.0916457 0.00790417 0.0797589
0.190402 0 0.0755932
0.403815 0.0101015 0.102373
0.634516 0.0495003 0.14876
0.816526 0.0852369 0.190707
0.884443 0.119539 0.231983
0.887404 0.137331 0.253986
0 0.0894331 0.143755
0.00131228 0.0872663 0.118349
0.0996872 0.116869 0.116991
0.296696 0.0979019 0.0944991
0.537301 0.0804456 0.0998398
0.750759 0.080354 0.126619
0.882765 0.113252 0.174289
0.886976 0.138369 0.207828
0.888334 0.146304 0.219745
0.0406348 0.239536 0.190875
0.0390021 0.234073 0.181109
0.0541085 0.262058 0.135988
0.305623 0.328115 0.112276
0.611627 0.328832 0.127642
0.824079 0.316091 0.141527
0.904677 0.315129 0.160128
0.906508 0.322759 0.175769
0.907652 0.329534 0.18294
0.123079 0.49749 0.297047
0.121599 0.493385 0.295262
0.140383 0.520317 0.265003
0.236225 0.585016 0.183459
0.623194 0.646189 0.253483
0.847669 0.648081 0.237797
0.943191 0.649454 0.239368
0.944579 0.657237 0.248447
0.94548 0.662913 0.253391
0.214191 0.726162 0.398077
0.212696 0.722515 0.396597
0.227619 0.747158 0.384237
0.273167 0.806088 0.339635
0.589654 0.84741 0.300938
0.861067 0.886946 0.364675
0.975326 0.891585 0.355016
0.976608 0.902602 0.357595
0.977371 0.908415 0.360189
0.295613 0.930739 0.49546
0.29424 0.927306 0.493889
0.303044 0.942 0.487892
0.327962 0.963745 0.452552
0.551843 0.969177 0.331563
0.854246 0.983261 0.393118
0.983169 0.989746 0.424796
0.990723 0.990723 0.434607
0.990723 0.990723 0.434623
0.342382 0.966369 0.551324
0.341848 0.966323 0.550774
0.345708 0.966583 0.544732
0.357122 0.967132 0.509041
0.520821 0.969268 0.345846
0.853986 0.984329 0.407706
0.984649 0.990768 0.437919
0.991684 0.991684 0.447364
0.991836 0.991836 0.449378
0.354238 0.96762 0.564141
0.354116 0.967605 0.56408
0.356298 0.967712 0.557702
0.367483 0.968246 0.522545
0.519554 0.969985 0.355993
0.85713 0.985 0.415534
0.984466 0.991196 0.443809
0.992096 0.992081 0.452659
0.992248 0.992233 0.454658
0 0 0.109407
0.0263828 0 0.1205
0.0895857 0 0.153872
0.200214 0.00248722 0.193805
0.412177 0.0118105 0.225727
0.607889 0.0444343 0.25037
0.774624 0.0772717 0.276768
0.883879 0.109316 0.308293
0.887724 0.132448 0.334936
0 0 0.114412
0.0302281 0 0.119951
0.0860914 0 0.156588
0.206073 0.00288396 0.195834
0.427085 0.0144198 0.22533
0.635523 0.0509346 0.256352
0.809232 0.0850233 0.289586
0.885451 0.118059 0.327657
0.88867 0.137148 0.353887
0 0.0692607 0.271611
0 0.0386664 0.221714
0.0647288 0.0336767 0.241352
0.275776 0.0393835 0.269398
0.527428 0.0419471 0.256733
0.744823 0.0814527 0.287068
0.88452 0.11249 0.32018
0.888853 0.138338 0.353307
0.890471 0.147601 0.370809
0 0.288411 0.432181
0 0.276616 0.395026
0.0159609 0.253605 0.312901
0.248585 0.338659 0.312856
0.616251 0.312261 0.285145
0.827039 0.295949 0.286168
0.911757 0.293019 0.300755
0.912825 0.298589 0.317922
0.914107 0.305943 0.33019
0.147021 0.528496 0.474006
0.144183 0.527031 0.451011
0.146197 0.539742 0.391821
0.191226 0.592721 0.344488
0.587549 0.650736 0.280079
0.849577 0.646387 0.30399
0.948043 0.644099 0.318486
0.950317 0.653681 0.337758
0.952087 0.661616 0.351919
0.214008 0.731456 0.511269
0.212863 0.72813 0.510521
0.223362 0.758694 0.483833
0.25388 0.802594 0.445014
0.521523 0.85098 0.324361
0.841428 0.88806 0.376135
0.973312 0.894316 0.382452
0.978866 0.90428 0.388357
0.979553 0.908125 0.392569
0.278462 0.914656 0.567483
0.27747 0.911818 0.567025
0.290272 0.937911 0.558236
0.310475 0.958221 0.524285
0.46952 0.967956 0.349401
0.825635 0.983139 0.403937
0.972824 0.990036 0.43328
0.991409 0.991409 0.443702
0.991501 0.991501 0.444846
0.32549 0.96553 0.601114
0.324758 0.965454 0.600961
0.331472 0.965988 0.595041
0.340963 0.966445 0.565835
0.441855 0.969177 0.377447
0.818418 0.983734 0.415122
0.971771 0.990829 0.444541
0.992187 0.992187 0.45388
0.99234 0.99234 0.455909
0.339513 0.96698 0.615732
0.339406 0.96698 0.615732
0.342214 0.967132 0.608942
0.349783 0.967575 0.590997
0.405203 0.970016 0.403998
0.803891 0.984909 0.437507
0.958343 0.991653 0.461738
0.993454 0.993454 0.470573
0.993667 0.993667 0.473487
0 0 0.196765
0.0511482 0 0.220859
0.0970016 0 0.251179
0.193988 0 0.315251
0.408972 0.0221256 0.387472
0.600229 0.0496529 0.424506
0.763516 0.079469 0.445777
0.885649 0.107301 0.465568
0.889632 0.131853 0.487068
0 0 0.205554
0.0527047 0 0.20882
0.108385 0 0.264439
0.198764 0 0.325994
0.424475 0.0244144 0.39617
0.624445 0.0547646 0.43418
0.793347 0.0858778 0.459541
0.887327 0.116335 0.488716
0.890837 0.137514 0.513375
0 0.0376287 0.39852
0 0 0.376196
0.067689 0 0.390677
0.237675 0 0.442023
0.544884 0.0556802 0.500938
0.751553 0.0885939 0.516442
0.887755 0.11545 0.530571
0.891814 0.140307 0.55523
0.893568 0.150561 0.570169
0 0.286442 0.538415
0 0.245518 0.517327
0 0.172763 0.476875
0.216144 0.225376 0.545876
0.598444 0.246998 0.56878
0.801266 0.249287 0.532769
0.907881 0.248112 0.532769
0.908919 0.253803 0.546349
0.910002 0.259724 0.558953
0 0.478126 0.637201
0 0.504494 0.639185
0.0231174 0.510597 0.601572
0.167361 0.562112 0.579461
0.545907 0.651698 0.592279
0.858717 0.636774 0.576684
0.963455 0.625483 0.569879
0.964523 0.631144 0.577127
0.966171 0.640467 0.587625
0.222797 0.702205 0.693767
0.222034 0.710307 0.670604
0.23653 0.761273 0.660304
0.246052 0.780911 0.623652
0.374548 0.84564 0.53344
0.812863 0.88896 0.520104
0.982483 0.88423 0.503105
0.985702 0.890135 0.509163
0.988006 0.896437 0.533547
0.277836 0.882887 0.710948
0.277195 0.88246 0.704967
0.290623 0.91989 0.71339
0.294926 0.930434 0.674052
0.364355 0.954955 0.567178
0.750164 0.985901 0.474296
0.950896 0.993011 0.48333
0.994842 0.994842 0.488884
0.995285 0.995285 0.494728
0.313237 0.966171 0.729168
0.312734 0.966125 0.729244
0.319661 0.966827 0.735149
0.32253 0.966613 0.69984
0.375463 0.970062 0.603433
0.72604 0.985779 0.483009
0.938277 0.993484 0.495354
0.995666 0.995651 0.499657
0.995712 0.995712 0.500328
0.329351 0.968109 0.764675
0.329229 0.968093 0.764111
0.3308 0.968185 0.760464
0.335592 0.968475 0.749798
0.385962 0.972183 0.689128
0.717479 0.995529 0.618738
0.932998 1 0.649668
1 1 0.679332
1 1 0.692546
0 0 0.319509
0.0826276 0 0.336629
0.116945 0 0.356786
0.188449 0 0.402457
0.381353 0 0.479759
0.575982 0.0569619 0.53901
0.740673 0.0824292 0.570871
0.881621 0.107027 0.589593
0.891356 0.132448 0.608454
0 0 0.32578
0.0796216 0 0.319905
0.131792 0 0.361913
0.200717 0 0.419928
0.397482 0 0.494835
0.597467 0.061326 0.553368
0.766461 0.0877852 0.586511
0.888777 0.114961 0.612085
0.892638 0.138476 0.6365
0 0.0190585 0.484932
0 0 0.496773
0.115572 0 0.52137
0.296574 0 0.580743
0.51783 0.0188754 0.638422
0.747295 0.100114 0.685634
0.89131 0.123674 0.70222
0.894896 0.146014 0.718975
0.896483 0.155795 0.727199
0 0.283879 0.615152
0 0.181598 0.601907
0 0.0483711 0.589548
0.20148 0.0921187 0.650004
0.521202 0.14696 0.697246
0.766995 0.155184 0.712459
0.896727 0.159747 0.701579
0.900191 0.181979 0.708919
0.902174 0.194476 0.715877
0 0.46363 0.699397
0 0.498146 0.722744
0 0.445029 0.691752
0.0382391 0.491127 0.71046
0.539376 0.573968 0.805722
0.836805 0.605249 0.82092
0.965347 0.598505 0.799603
0.966857 0.607706 0.806012
0.968399 0.616938 0.813718
0 0.614816 0.767483
0.0101472 0.656779 0.783215
0.101595 0.713481 0.802289
0.175647 0.732937 0.785687
0.326619 0.803876 0.794064
0.782635 0.882506 0.824109
0.976806 0.882994 0.821546
1 0.888243 0.828138
1 0.898375 0.836759
0.231708 0.809827 0.83595
0.268223 0.826047 0.830198
0.296315 0.893858 0.853407
0.296712 0.902007 0.81828
0.346975 0.925612 0.797848
0.703288 0.984054 0.794049
0.947463 0.999786 0.805829
1 1 0.807614
1 1 0.814176
0.309926 0.939208 0.862974
0.310094 0.94258 0.855741
0.319463 0.967315 0.8701
0.322042 0.968627 0.849119
0.356313 0.971359 0.823697
0.644694 0.997101 0.787411
0.92903 1 0.808057
1 1 0.809979
1 1 0.809674
0.329747 0.970062 0.902037
0.329549 0.970016 0.900298
0.331777 0.970275 0.90486
0.333577 0.970367 0.899397
0.369467 0.973449 0.888441
0.668681 1 0.905226
0.928664 1 0.936599
1 1 0.942931
1 1 0.94197
0 0 0.406638
0.107057 0 0.433417
0.145144 0 0.454826
0.197528 0 0.475547
0.354238 0 0.539239
0.541863 0.0302586 0.603159
0.710063 0.0859541 0.649287
0.857114 0.10837 0.67306
0.892714 0.1337 0.695003
0 0 0.412222
0.102312 0 0.414069
0.156115 0 0.456764
0.218845 0 0.486717
0.374456 0 0.56054
0.56527 0.0375372 0.622934
0.734157 0.0910048 0.667323
0.880873 0.113695 0.693553
0.893858 0.139086 0.719356
0 0.01149 0.563027
0.0574197 0 0.59443
0.149859 0 0.616297
0.340581 0 0.678553
0.512764 0 0.729656
0.724529 0.0845655 0.781582
0.889143 0.131121 0.811048
0.897459 0.152941 0.830625
0.898955 0.16231 0.836881
0 0.265156 0.666804
0 0.103044 0.672236
0 0.000717174 0.69073
0.204242 0 0.724987
0.53341 0.0564736 0.776318
0.722179 0.112993 0.805035
0.89276 0.1514 0.819944
0.899977 0.16997 0.826825
0.90103 0.177127 0.825284
0 0.462364 0.745937
0 0.482841 0.770092
0 0.405127 0.761898
0.00900282 0.450828 0.792325
0.54229 0.520958 0.910002
0.804593 0.560937 0.926604
0.962509 0.569116 0.929946
0.963928 0.578454 0.927657
0.967437 0.601022 0.928649
0 0.610925 0.800534
0 0.680613 0.828733
0 0.675258 0.829221
0.100175 0.719173 0.847059
0.377874 0.781216 0.906508
0.78114 0.850034 0.948791
0.963394 0.87715 0.957549
1 0.882673 0.95021
1 0.893233 0.954147
0.0714733 0.736812 0.848569
0.13193 0.779461 0.866453
0.224628 0.856168 0.901152
0.259236 0.876112 0.90486
0.334249 0.902724 0.909667
0.635859 0.960723 0.934936
0.934066 0.991348 0.954559
1 0.994247 0.956664
1 0.998825 0.969116
0.263218 0.879957 0.903822
0.28484 0.892348 0.90399
0.319615 0.943984 0.928374
0.323735 0.957809 0.922972
0.344854 0.964935 0.913771
0.555154 0.990738 0.919448
0.91223 1 0.951751
1 1 0.965698
1 1 0.966583
0.327443 0.966613 0.942321
0.327916 0.969406 0.939895
0.332189 0.970916 0.947463
0.334035 0.971084 0.947234
0.361074 0.973449 0.943114
0.607553 0.996201 0.968429
0.908202 1 0.996963
1 1 1
1 1 1
0.0181582 0 0.49485
0.134432 0 0.530327
0.175662 0 0.554681
0.226001 0 0.57113
0.341329 0 0.599893
0.499947 0 0.645014
0.66772 0.0723735 0.699397
0.824018 0.109773 0.735561
0.893736 0.134371 0.761837
0.0153964 0 0.497719
0.127871 0 0.50837
0.18294 0 0.553048
0.250843 0 0.571572
0.369162 0 0.620172
0.527764 0 0.671656
0.693446 0.079942 0.721599
0.846967 0.114961 0.756054
0.89482 0.139574 0.784817
0 0.00819409 0.644114
0.110109 0 0.68748
0.187137 0 0.708293
0.374136 0 0.752163
0.536599 0 0.791257
0.695857 0.0518654 0.829511
0.870359 0.136004 0.865385
0.898772 0.156466 0.887388
0.900526 0.167163 0.897765
0 0.25742 0.724102
0 0.0612497 0.734768
0 0 0.763836
0.246036 0 0.785168
0.558953 0.0523232 0.829145
0.705699 0.104463 0.849363
0.876326 0.154177 0.871763
0.901106 0.17261 0.880385
0.902281 0.18024 0.882155
0 0.475273 0.785168
0 0.465614 0.802396
0 0.393637 0.805066
0.0389258 0.433997 0.841184
0.560235 0.504982 0.941024
0.822003 0.538369 0.953979
0.958022 0.580865 0.964584
0.965057 0.582544 0.965057
0.967315 0.596963 0.967315
0 0.614115 0.82179
0 0.688655 0.851926
0 0.669947 0.854261
0.092134 0.719402 0.878767
0.403052 0.77612 0.950469
0.785687 0.839277 0.995102
0.951644 0.867964 1
1 0.880278 1
1 0.891096 1
0.0243076 0.72668 0.860334
0.135515 0.801007 0.89189
0.195483 0.849271 0.913619
0.23592 0.873747 0.924956
0.339101 0.893584 0.939116
0.697627 0.950469 0.993057
0.936217 0.979797 1
1 0.994842 1
1 0.999329 1
0.17322 0.827115 0.900282
0.211383 0.857298 0.912367
0.285969 0.922316 0.942
0.313649 0.944793 0.951888
0.342138 0.956863 0.955474
0.472389 0.981689 0.973816
0.883131 1 1
1 1 1
1 1 1
0.288411 0.921935 0.939651
0.301549 0.931945 0.942977
0.330129 0.967346 0.960021
0.333379 0.971252 0.963272
0.353094 0.972976 0.960693
0.534493 0.989731 0.982422
0.886442 1 1
1 1 1
1 1 1
0.0797894 0 0.590188
0.171252 0 0.662608
0.223804 0 0.695293
0.289631 0 0.707149
0.403662 0 0.733791
0.550652 0 0.769024
0.707362 0.0551308 0.805859
0.857649 0.127077 0.838804
0.897475 0.149569 0.868101
0.0753185 0 0.593851
0.159014 0 0.619379
0.225116 0 0.681315
0.322637 0 0.70901
0.42266 0 0.734508
0.561547 0 0.778866
0.715724 0.0572671 0.814771
0.864775 0.128847 0.846036
0.89778 0.151064 0.874144
0 0.031693 0.721813
0.128847 0 0.764157
0.215442 0 0.777203
0.404242 0 0.809049
0.571603 0 0.838727
0.688838 0.0412757 0.862745
0.847807 0.120348 0.891417
0.899306 0.158877 0.899306
0.901122 0.170779 0.901122
0 0.325338 0.777737
0 0.078996 0.774533
0 0 0.802899
0.278355 0 0.821958
0.558648 0.0597543 0.854475
0.706813 0.109041 0.87042
0.850797 0.178027 0.893629
0.903838 0.189075 0.898009
0.907698 0.213993 0.905364
0 0.533806 0.821469
0 0.491554 0.829236
0 0.433356 0.830747
0.0838636 0.452949 0.870375
0.576669 0.512886 0.942718
0.823392 0.557977 0.957
0.946777 0.610361 0.968734
0.972839 0.632105 0.972839
0.973892 0.638804 0.973892
0 0.655726 0.846052
0 0.707042 0.867338
0 0.709148 0.873945
0.12105 0.743511 0.897322
0.419638 0.789624 0.960342
0.78616 0.839765 0.996078
0.955306 0.869902 1
1 0.89398 1
1 0.899046 1
0.014725 0.725933 0.864118
0.164446 0.829404 0.908614
0.201587 0.85948 0.922988
0.241154 0.88191 0.933211
0.34844 0.897856 0.947997
0.701335 0.950759 0.999893
0.936294 0.976699 1
1 0.993423 1
1 0.998413 1
0.146822 0.80972 0.895125
0.240848 0.88751 0.929793
0.286961 0.926818 0.947448
0.308843 0.944884 0.955627
0.342138 0.955947 0.960403
0.553948 0.985534 0.991028
0.904921 1 1
1 1 1
1 1 1
0.255299 0.897215 0.931853
0.277989 0.917052 0.940948
0.32813 0.96083 0.961074
0.33283 0.971237 0.965835
0.341405 0.97203 0.967651
0.447715 0.98175 0.975998
0.849729 1 1
0.99443 1 1
1 1 1
