public/images/Fine Arts Cadres /TC_-_EDITING_ESSENTIALS_-_COLOR/TC - OPPENHEIMER - LOOK2 - LOG TO LOOK - STANDARD.cube
TITLE "Generated by Resolve"
LUT_3D_SIZE 33
0.00682078 0.0149538 0.0161593
0.00682078 0.0149538 0.0161593
0.00682078 0.0149538 0.0161593
0.00682078 0.0149538 0.0161593
0.00682078 0.0149538 0.0161593
0.00682078 0.0149538 0.0161593
0.00682078 0.0149538 0.0161593
0.00682078 0.0149538 0.0161593
0.0315099 0.0246738 0.0204623
0.0713817 0.037583 0.0239567
0.115114 0.0466621 0.0303197
0.166644 0.0518807 0.041062
0.214023 0.0568093 0.0512093
0.265888 0.0655222 0.0624399
0.317998 0.0767224 0.0737469
0.368704 0.0888838 0.0848096
0.411963 0.0994736 0.0943008
0.45623 0.110246 0.104158
0.501411 0.121202 0.114336
0.544106 0.131548 0.123949
0.55021 0.133028 0.125322
0.55021 0.133028 0.125322
0.55021 0.133028 0.125322
0.55021 0.133028 0.125322
0.55021 0.133028 0.125322
0.55021 0.133028 0.125322
0.55021 0.133028 0.125322
0.55021 0.133028 0.125322
0.55021 0.133028 0.125322
0.55021 0.133028 0.125322
0.55021 0.133028 0.125322
0.55021 0.133028 0.125322
0.55021 0.133028 0.125322
0.00682078 0.0149538 0.0161593
0.00682078 0.0149538 0.0161593
0.00682078 0.0149538 0.0161593
0.00682078 0.0149538 0.0161593
0.00682078 0.0149538 0.0161593
0.00682078 0.0149538 0.0161593
0.00682078 0.0149538 0.0161593
0.00682078 0.0149538 0.0161593
0.029099 0.0239261 0.0202792
0.0696422 0.0370489 0.0238193
0.113756 0.046479 0.0300755
0.165576 0.0518196 0.0408484
0.213077 0.0566873 0.0510109
0.265064 0.0653544 0.0622568
0.317327 0.0765698 0.0735943
0.367971 0.0887007 0.0846571
0.411444 0.0993362 0.0941787
0.45568 0.110109 0.104036
0.50103 0.121111 0.114244
0.543755 0.131472 0.123873
0.55021 0.133028 0.125322
0.55021 0.133028 0.125322
0.55021 0.133028 0.125322
0.55021 0.133028 0.125322
0.55021 0.133028 0.125322
0.55021 0.133028 0.125322
0.55021 0.133028 0.125322
0.55021 0.133028 0.125322
0.55021 0.133028 0.125322
0.55021 0.133028 0.125322
0.55021 0.133028 0.125322
0.55021 0.133028 0.125322
0.55021 0.133028 0.125322
0.00682078 0.0149538 0.0161593
0.00682078 0.0149538 0.0161593
0.00682078 0.0149538 0.0161593
0.00682078 0.0149538 0.0161593
0.00682078 0.0149538 0.0161593
0.00682078 0.0149538 0.0161593
0.00682078 0.0149538 0.0161593
0.00682078 0.0149538 0.0161593
0.0252232 0.0227054 0.0199741
0.0673533 0.036347 0.0236667
0.112276 0.0462806 0.0298009
0.164248 0.0517281 0.0405585
0.21181 0.0565194 0.0507362
0.26389 0.0651255 0.0619974
0.316487 0.0763867 0.0734264
0.367239 0.0885176 0.0844892
0.410727 0.0991684 0.0940261
0.455131 0.109987 0.103914
0.500481 0.120974 0.114122
0.543236 0.131334 0.123751
0.55021 0.133028 0.125322
0.55021 0.133028 0.125322
0.55021 0.133028 0.125322
0.55021 0.133028 0.125322
0.55021 0.133028 0.125322
0.55021 0.133028 0.125322
0.55021 0.133028 0.125322
0.55021 0.133028 0.125322
0.55021 0.133028 0.125322
0.55021 0.133028 0.125322
0.55021 0.133028 0.125322
0.55021 0.133028 0.125322
0.55021 0.133028 0.125322
0.00682078 0.0149538 0.0161593
0.00682078 0.0149538 0.0161593
0.00682078 0.0149538 0.0161593
0.00682078 0.0149538 0.0161593
0.00682078 0.0149538 0.0161593
0.00682078 0.0149538 0.0161593
0.00682078 0.0149538 0.0161593
0.00682078 0.0149538 0.0161593
0.0239261 0.0222934 0.0198825
0.0663462 0.0360418 0.0236057
0.110933 0.0461128 0.0295567
0.162936 0.0515908 0.0402686
0.211185 0.0564431 0.0505989
0.262547 0.0648661 0.0617075
0.315328 0.076112 0.073167
0.366323 0.088304 0.0842908
0.410025 0.0990005 0.0938735
0.454398 0.109804 0.103746
0.499733 0.12079 0.113954
0.542535 0.131167 0.123598
0.55021 0.133028 0.125322
0.55021 0.133028 0.125322
0.55021 0.133028 0.125322
0.55021 0.133028 0.125322
0.55021 0.133028 0.125322
0.55021 0.133028 0.125322
0.55021 0.133028 0.125322
0.55021 0.133028 0.125322
0.55021 0.133028 0.125322
0.55021 0.133028 0.125322
0.55021 0.133028 0.125322
0.55021 0.133028 0.125322
0.55021 0.133028 0.125322
0.00682078 0.0149538 0.0161593
0.00682078 0.0149538 0.0161593
0.00682078 0.0149538 0.0161593
0.00682078 0.0149538 0.0161593
0.00682078 0.0149538 0.0161593
0.00682078 0.0149538 0.0161593
0.00682078 0.0149538 0.0161593
0.00682078 0.0149538 0.0161593
0.0252232 0.0227054 0.0199741
0.0677806 0.0364843 0.0236973
0.112825 0.0463569 0.0298924
0.164782 0.0517586 0.0406653
0.211017 0.0564126 0.0505684
0.261204 0.0646067 0.0614176
0.314153 0.0758373 0.0729076
0.365225 0.0880293 0.0840467
0.409308 0.0988174 0.0937209
0.453666 0.109621 0.103578
0.498985 0.120607 0.113787
0.542 0.131044 0.123476
0.55021 0.133028 0.125322
0.55021 0.133028 0.125322
0.55021 0.133028 0.125322
0.55021 0.133028 0.125322
0.55021 0.133028 0.125322
0.55021 0.133028 0.125322
0.55021 0.133028 0.125322
0.55021 0.133028 0.125322
0.55021 0.133028 0.125322
0.55021 0.133028 0.125322
0.55021 0.133028 0.125322
0.55021 0.133028 0.125322
0.55021 0.133028 0.125322
0.00682078 0.0149538 0.0161593
0.00682078 0.0149538 0.0161593
0.00682078 0.0149538 0.0161593
0.00682078 0.0149538 0.0161593
0.00682078 0.0149538 0.0161593
0.00682078 0.0149538 0.0161593
0.00682078 0.0149538 0.0161593
0.00682078 0.0149538 0.0161593
0.0254063 0.0227665 0.0199893
0.0680705 0.0365759 0.0237125
0.113634 0.0464637 0.030045
0.166903 0.0518959 0.0411231
0.214649 0.0569009 0.0513466
0.264393 0.0652171 0.0621042
0.314321 0.0758831 0.0729534
0.363943 0.0877089 0.083772
0.408423 0.0986038 0.0935225
0.452735 0.109392 0.10338
0.498238 0.120424 0.113619
0.541314 0.130877 0.123323
0.55021 0.133028 0.125322
0.55021 0.133028 0.125322
0.55021 0.133028 0.125322
0.55021 0.133028 0.125322
0.55021 0.133028 0.125322
0.55021 0.133028 0.125322
0.55021 0.133028 0.125322
0.55021 0.133028 0.125322
0.55021 0.133028 0.125322
0.55021 0.133028 0.125322
0.55021 0.133028 0.125322
0.55021 0.133028 0.125322
0.55021 0.133028 0.125322
0.0101167 0.0249027 0.0222782
0.0100099 0.0246281 0.0221103
0.00985733 0.0242161 0.0218509
0.00976577 0.0239414 0.0216678
0.00991836 0.0243534 0.0219272
0.0101625 0.0250401 0.0223697
0.0103151 0.0254673 0.0226291
0.0104677 0.0258793 0.0228885
0.0285954 0.0349584 0.0270848
0.0739452 0.0471351 0.0290379
0.120729 0.0549783 0.0333867
0.172534 0.0560464 0.0428321
0.217166 0.0572519 0.0518959
0.269413 0.0662089 0.0632029
0.3205 0.0773022 0.0742962
0.367422 0.0885634 0.084535
0.408606 0.0986496 0.0935531
0.451637 0.109133 0.10312
0.497124 0.120165 0.113359
0.540429 0.130663 0.123125
0.55021 0.133028 0.125322
0.55021 0.133028 0.125322
0.55021 0.133028 0.125322
0.55021 0.133028 0.125322
0.55021 0.133028 0.125322
0.55021 0.133028 0.125322
0.55021 0.133028 0.125322
0.55021 0.133028 0.125322
0.55021 0.133028 0.125322
0.55021 0.133028 0.125322
0.55021 0.133028 0.125322
0.55021 0.133028 0.125322
0.55021 0.133028 0.125322
0.0175937 0.0448157 0.0349126
0.0174868 0.0445411 0.0347295
0.017319 0.0441291 0.0344701
0.0171664 0.0437171 0.0342107
0.0172274 0.0438544 0.0343023
0.0176394 0.0449531 0.0350042
0.0178988 0.0456397 0.0354467
0.0181125 0.0461891 0.0357977
0.0289769 0.0539254 0.0378271
0.0877089 0.067155 0.0383001
0.138628 0.0760357 0.042359
0.195071 0.0775921 0.0507057
0.241688 0.0750896 0.0592355
0.288228 0.0752422 0.0682078
0.332555 0.080766 0.0771801
0.376089 0.0906844 0.0864271
0.417487 0.100816 0.0955215
0.45716 0.110475 0.104356
0.496925 0.120119 0.113313
0.53904 0.130327 0.122805
0.55021 0.133028 0.125322
0.55021 0.133028 0.125322
0.55021 0.133028 0.125322
0.55021 0.133028 0.125322
0.55021 0.133028 0.125322
0.55021 0.133028 0.125322
0.55021 0.133028 0.125322
0.55021 0.133028 0.125322
0.55021 0.133028 0.125322
0.55021 0.133028 0.125322
0.55021 0.133028 0.125322
0.55021 0.133028 0.125322
0.55021 0.133028 0.125322
0.0275578 0.070985 0.0486152
0.027451 0.0706951 0.0484627
0.0272831 0.0702678 0.048249
0.0271153 0.0698253 0.0480354
0.0269474 0.0693828 0.0478218
0.0271763 0.0699779 0.0481117
0.0278935 0.0718547 0.0490425
0.028275 0.0728771 0.049546
0.0307164 0.0769818 0.050721
0.0932479 0.0985885 0.0486
0.158129 0.10901 0.0539712
0.218036 0.111864 0.0617227
0.270741 0.108949 0.0704204
0.323049 0.104845 0.079408
0.372839 0.103075 0.0884565
0.418082 0.105547 0.0972
0.452537 0.110277 0.104082
0.485512 0.117311 0.110903
0.513542 0.124163 0.117021
0.549691 0.132906 0.1252
0.555261 0.134264 0.126452
0.551781 0.13341 0.125673
0.55021 0.133028 0.125322
0.55021 0.133028 0.125322
0.55021 0.133028 0.125322
0.55021 0.133028 0.125322
0.55021 0.133028 0.125322
0.55021 0.133028 0.125322
0.55021 0.133028 0.125322
0.55021 0.133028 0.125322
0.55021 0.133028 0.125322
0.55021 0.133028 0.125322
0.55021 0.133028 0.125322
0.0398108 0.102983 0.0643778
0.039704 0.102724 0.0642405
0.0395972 0.102464 0.0641184
0.0394598 0.102068 0.06392
0.0393072 0.101671 0.0637217
0.0391546 0.101274 0.0635386
0.0394598 0.102068 0.06392
0.0404669 0.104707 0.0652018
0.0409705 0.10602 0.0658579
0.0723583 0.129152 0.0578622
0.173587 0.152331 0.0682994
0.245426 0.158038 0.0774548
0.301076 0.158099 0.0859846
0.356512 0.155398 0.0947433
0.410224 0.151522 0.103532
0.459403 0.148531 0.112016
0.500832 0.146593 0.119432
0.541543 0.145907 0.126909
0.578836 0.146792 0.133837
0.611688 0.149752 0.140032
0.6112 0.147845 0.139162
0.590936 0.143023 0.134295
0.572595 0.138537 0.130205
0.565347 0.136706 0.128725
0.56228 0.135958 0.128038
0.559731 0.135332 0.127459
0.557504 0.134798 0.12697
0.556313 0.134508 0.126696
0.555611 0.13434 0.126543
0.555261 0.134264 0.126452
0.555093 0.134218 0.126421
0.554574 0.134096 0.126299
0.55404 0.133959 0.126192
0.0549172 0.142336 0.0841077
0.0548104 0.142061 0.0839704
0.0547036 0.141802 0.0838178
0.0545968 0.141527 0.0836805
0.0544442 0.141115 0.0834821
0.0543374 0.140841 0.0833448
0.0541238 0.140307 0.0830549
0.0545968 0.141527 0.0836805
0.05626 0.145876 0.0859083
0.0607462 0.156359 0.080415
0.168002 0.198047 0.0820783
0.268177 0.21854 0.0980087
0.336645 0.2224 0.107851
0.394583 0.221561 0.116121
0.448569 0.219333 0.124483
0.497429 0.21648 0.13225
0.541192 0.212619 0.139239
0.58587 0.208042 0.146441
0.627588 0.203037 0.153048
0.666362 0.199191 0.159167
0.677943 0.192126 0.159991
0.668727 0.182559 0.156649
0.661097 0.175204 0.153964
0.655009 0.169909 0.151888
0.649256 0.165515 0.150011
0.644114 0.162295 0.148455
0.640879 0.160342 0.147463
0.638437 0.158953 0.146731
0.637064 0.158175 0.146319
0.636378 0.157809 0.14612
0.635523 0.157397 0.145876
0.63473 0.156954 0.145632
0.633463 0.156313 0.145266
0.0741741 0.192493 0.10901
0.0740978 0.192309 0.108949
0.073991 0.192004 0.108812
0.0738842 0.19173 0.108675
0.0737774 0.19144 0.108537
0.0736095 0.191028 0.108324
0.0734569 0.190616 0.108125
0.073228 0.190051 0.107851
0.07393 0.191867 0.108736
0.0771649 0.200336 0.111879
0.116701 0.233692 0.091722
0.274113 0.285695 0.119677
0.362387 0.299046 0.133165
0.429603 0.300999 0.142275
0.489494 0.300237 0.1505
0.536599 0.299825 0.15761
0.580789 0.298665 0.164569
0.626017 0.295079 0.171603
0.669535 0.289677 0.178317
0.711772 0.282704 0.184817
0.731975 0.274846 0.187137
0.726528 0.264439 0.184146
0.721981 0.256153 0.181704
0.718288 0.249546 0.179721
0.715236 0.243885 0.178027
0.712871 0.23978 0.176761
0.71136 0.237339 0.175982
0.710292 0.235264 0.175357
0.709575 0.234134 0.17499
0.709239 0.233661 0.174823
0.70901 0.233021 0.174655
0.708568 0.23238 0.174441
0.707851 0.231556 0.174121
0.0996567 0.25919 0.132891
0.0995804 0.259007 0.13283
0.0995041 0.258808 0.132769
0.0993668 0.258442 0.132647
0.0992142 0.258061 0.132509
0.0990768 0.257679 0.132387
0.0989242 0.257298 0.132265
0.0986343 0.25655 0.132006
0.0982834 0.255604 0.131685
0.100374 0.261082 0.133532
0.105776 0.275731 0.123018
0.236667 0.338552 0.134798
0.373342 0.378897 0.159411
0.452201 0.386343 0.170108
0.518288 0.388937 0.179385
0.570611 0.388891 0.186725
0.618128 0.389197 0.193561
0.662058 0.389059 0.199908
0.703456 0.387732 0.205859
0.743954 0.384451 0.211475
0.771267 0.378668 0.214694
0.767834 0.368902 0.211978
0.765133 0.360708 0.209766
0.763027 0.35433 0.208057
0.761196 0.348852 0.206622
0.759762 0.34519 0.205631
0.758831 0.342596 0.204944
0.758236 0.340887 0.204486
0.757855 0.33959 0.204166
0.75761 0.339162 0.204044
0.757504 0.338521 0.203891
0.757214 0.337667 0.203662
0.756939 0.337026 0.203494
0.128344 0.33434 0.157321
0.128267 0.334142 0.157244
0.128191 0.333944 0.157183
0.128038 0.333547 0.157061
0.127886 0.33315 0.156924
0.12781 0.332952 0.156863
0.127657 0.332555 0.156741
0.127352 0.331762 0.156481
0.127047 0.330968 0.156222
0.126589 0.329763 0.155825
0.131411 0.342367 0.159655
0.169558 0.38204 0.147219
0.349264 0.441032 0.178256
0.463371 0.469459 0.197589
0.538003 0.474083 0.207126
0.59443 0.474784 0.21471
0.645899 0.475074 0.222156
0.692546 0.474861 0.228702
0.735058 0.47277 0.233906
0.774334 0.470802 0.238605
0.807599 0.47158 0.243305
0.804379 0.46424 0.240879
0.801755 0.458106 0.23888
0.799786 0.453635 0.237415
0.798047 0.449638 0.236103
0.796872 0.446616 0.235157
0.795987 0.444724 0.234531
0.795453 0.443549 0.23415
0.795102 0.442405 0.233799
0.795041 0.442176 0.233722
0.794781 0.441703 0.23357
0.794537 0.44123 0.233402
0.794293 0.440772 0.233249
0.158419 0.413153 0.180453
0.158328 0.41294 0.180392
0.158251 0.412726 0.180331
0.158083 0.412284 0.180194
0.158007 0.41207 0.180133
0.157916 0.411841 0.180072
0.157748 0.411414 0.17995
0.157504 0.410758 0.179767
0.157244 0.410101 0.179568
0.156832 0.409003 0.179263
0.156161 0.407263 0.178759
0.16611 0.433433 0.179904
0.304906 0.494362 0.194125
0.451041 0.53257 0.217594
0.549035 0.552773 0.233234
0.612284 0.553002 0.240284
0.666377 0.552132 0.246906
0.714641 0.550851 0.253346
0.759686 0.548608 0.259297
0.801724 0.545251 0.263951
0.839887 0.550591 0.270375
0.843381 0.547341 0.269795
0.841413 0.543359 0.268345
0.839887 0.540063 0.26714
0.838422 0.537026 0.266026
0.837354 0.534936 0.265263
0.836744 0.533547 0.264775
0.836194 0.532586 0.264408
0.835889 0.531899 0.264164
0.835828 0.531472 0.264042
0.835615 0.531411 0.263981
0.835554 0.530999 0.263859
0.835279 0.53051 0.263676
0.186297 0.486183 0.201724
0.186206 0.485954 0.201663
0.186206 0.485954 0.201663
0.186114 0.48571 0.201587
0.185931 0.485252 0.20145
0.185855 0.485008 0.201373
0.185763 0.484779 0.201312
0.18558 0.484306 0.201175
0.185306 0.483604 0.200961
0.184863 0.482429 0.20061
0.184329 0.481025 0.200198
0.18761 0.489586 0.203952
0.228367 0.533989 0.205341
0.421485 0.586618 0.234119
0.539025 0.609689 0.251316
0.624613 0.623377 0.263783
0.682078 0.619959 0.269062
0.732128 0.616724 0.274189
0.778042 0.614633 0.280308
0.821576 0.610971 0.285405
0.862516 0.619058 0.293599
0.866453 0.617853 0.29395
0.865583 0.614343 0.292775
0.864927 0.611536 0.291875
0.864393 0.609339 0.291142
0.863981 0.607599 0.290593
0.863752 0.606531 0.290242
0.863539 0.605844 0.289982
0.863462 0.605417 0.28986
0.863416 0.605203 0.289799
0.863294 0.604761 0.289647
0.863249 0.604547 0.289586
0.863127 0.604105 0.289418
0.215976 0.563821 0.227085
0.215885 0.563577 0.227008
0.215793 0.563333 0.226932
0.215702 0.563119 0.226871
0.215686 0.563073 0.226795
0.215518 0.5626 0.226658
0.215427 0.562356 0.226581
0.215228 0.561852 0.226383
0.215045 0.561364 0.22623
0.214664 0.560388 0.225879
0.214099 0.558923 0.225391
0.213443 0.557183 0.22475
0.226596 0.59115 0.237049
0.36585 0.634943 0.248173
0.518212 0.662135 0.267628
0.618631 0.676356 0.280812
0.694087 0.68368 0.290303
0.746731 0.67776 0.294118
0.793072 0.673075 0.298207
0.837247 0.668971 0.302785
0.877317 0.678096 0.311955
0.879728 0.677913 0.312856
0.879225 0.675456 0.312093
0.878798 0.673381 0.311452
0.878416 0.671672 0.310903
0.878157 0.670344 0.310506
0.877974 0.669551 0.310262
0.877821 0.66894 0.310048
0.87776 0.668544 0.309941
0.877729 0.668345 0.309895
0.877684 0.668147 0.309834
0.877607 0.667933 0.309743
0.877577 0.667735 0.309682
0.246006 0.642344 0.254353
0.246006 0.642344 0.254353
0.245914 0.642084 0.254276
0.245823 0.64184 0.2542
0.245716 0.641581 0.254124
0.245716 0.641566 0.254078
0.245518 0.641062 0.25391
0.245426 0.640803 0.253834
0.245121 0.640024 0.253559
0.244831 0.639246 0.253285
0.244327 0.637949 0.252857
0.243641 0.636133 0.252216
0.243931 0.636881 0.252979
0.297688 0.681422 0.26244
0.484565 0.710964 0.282506
0.603311 0.724239 0.295766
0.690562 0.733318 0.306233
0.757794 0.735073 0.313207
0.805341 0.72697 0.315511
0.85034 0.720928 0.318837
0.888182 0.729915 0.328481
0.891203 0.731685 0.330755
0.89073 0.729564 0.329961
0.890257 0.72784 0.329183
0.889921 0.726406 0.328618
0.889616 0.725261 0.32813
0.889448 0.724544 0.32784
0.889281 0.723949 0.327565
0.889235 0.723766 0.327489
0.889189 0.723583 0.327428
0.889158 0.7234 0.327352
0.889113 0.723232 0.327276
0.889067 0.723049 0.327214
0.276371 0.721767 0.282063
0.276265 0.721508 0.281971
0.276158 0.721218 0.281849
0.276158 0.721218 0.281849
0.276066 0.720958 0.281758
0.275959 0.720684 0.281682
0.275853 0.720424 0.28159
0.275746 0.72015 0.281498
0.275441 0.719341 0.281193
0.275135 0.718517 0.280903
0.274723 0.717449 0.280537
0.274098 0.715816 0.279942
0.273274 0.713664 0.279194
0.284947 0.743267 0.29099
0.419669 0.758511 0.296223
0.573007 0.769772 0.309438
0.675319 0.777249 0.319936
0.75758 0.783688 0.329091
0.814603 0.779049 0.332906
0.86128 0.77052 0.335164
0.898787 0.777676 0.347539
0.90399 0.780743 0.352514
0.904402 0.78056 0.353292
0.903929 0.779004 0.352453
0.903532 0.777752 0.351736
0.903227 0.776715 0.351186
0.903059 0.776196 0.350912
0.902907 0.775677 0.350637
0.902861 0.775509 0.350545
0.902815 0.775341 0.350454
0.902815 0.775341 0.350454
0.902708 0.775113 0.350301
0.902617 0.774777 0.350103
0.306905 0.801572 0.31107
0.306905 0.801572 0.31107
0.306783 0.801282 0.310964
0.306783 0.801282 0.310964
0.306676 0.800992 0.310872
0.306569 0.800702 0.310765
0.306447 0.800412 0.310658
0.30634 0.800122 0.310552
0.306111 0.799527 0.310323
0.305791 0.798657 0.310002
0.305333 0.797482 0.30956
0.304784 0.796033 0.30901
0.304006 0.793988 0.308248
0.303105 0.791653 0.307393
0.359411 0.82562 0.320485
0.536629 0.826322 0.332006
0.65481 0.830472 0.342687
0.747616 0.835264 0.351629
0.822187 0.840833 0.359335
0.878859 0.836332 0.366278
0.917556 0.836683 0.385229
0.925643 0.839002 0.394354
0.926558 0.84004 0.396475
0.925628 0.837949 0.394522
0.924834 0.836133 0.392828
0.924269 0.834867 0.391638
0.923949 0.834104 0.390967
0.923613 0.833356 0.39028
0.923506 0.833097 0.390051
0.923354 0.832792 0.389731
0.923354 0.832792 0.389731
0.923247 0.832532 0.389502
0.92314 0.832288 0.389288
0.322713 0.842924 0.327138
0.322713 0.842924 0.327138
0.322713 0.842924 0.327138
0.322713 0.842924 0.327138
0.322728 0.842939 0.327108
0.322728 0.842939 0.327108
0.322728 0.842939 0.327108
0.322728 0.842939 0.327108
0.322728 0.842939 0.327108
0.322728 0.842939 0.327108
0.322728 0.842954 0.327077
0.322728 0.842954 0.327047
0.322728 0.842954 0.327047
0.322744 0.842985 0.326986
0.325673 0.849271 0.331914
0.47393 0.848234 0.339818
0.623072 0.856458 0.357519
0.726253 0.865614 0.372122
0.812177 0.874296 0.384375
0.887251 0.881849 0.396429
0.930694 0.876127 0.419364
0.941634 0.875441 0.432303
0.942184 0.876936 0.439002
0.942397 0.877485 0.441444
0.942397 0.877485 0.441444
0.942367 0.877424 0.44123
0.942367 0.877424 0.44123
0.942351 0.877379 0.441001
0.942351 0.877379 0.441001
0.942351 0.877379 0.441001
0.942351 0.877379 0.441001
0.942351 0.877379 0.441001
0.942351 0.877379 0.441001
0.322621 0.842664 0.327855
0.322621 0.842664 0.327855
0.322621 0.842664 0.327855
0.322621 0.842664 0.327855
0.322621 0.842664 0.327855
0.322621 0.842664 0.327855
0.322621 0.842664 0.327855
0.322621 0.842664 0.327855
0.322621 0.842664 0.327855
0.322621 0.842664 0.327855
0.322621 0.842664 0.327855
0.322621 0.842664 0.327855
0.322621 0.842664 0.327855
0.322621 0.842664 0.327855
0.322621 0.842664 0.327855
0.39498 0.850431 0.335225
0.5794 0.854398 0.353445
0.697856 0.863828 0.369406
0.793149 0.873381 0.383291
0.874403 0.882765 0.395178
0.926314 0.878355 0.417273
0.942046 0.876539 0.437217
0.942519 0.877836 0.443015
0.942916 0.878874 0.4477
0.942885 0.878828 0.447486
0.942885 0.878828 0.447486
0.94287 0.878782 0.447257
0.94287 0.878782 0.447257
0.94287 0.878782 0.447257
0.94287 0.878782 0.447257
0.94287 0.878782 0.447257
0.94287 0.878782 0.447257
0.942855 0.878721 0.447028
0.322621 0.842664 0.327855
0.322621 0.842664 0.327855
0.322621 0.842664 0.327855
0.322621 0.842664 0.327855
0.322621 0.842664 0.327855
0.322621 0.842664 0.327855
0.322621 0.842664 0.327855
0.322621 0.842664 0.327855
0.322621 0.842664 0.327855
0.322621 0.842664 0.327855
0.322621 0.842664 0.327855
0.322621 0.842664 0.327855
0.322621 0.842664 0.327855
0.322621 0.842664 0.327855
0.322621 0.842664 0.327855
0.33695 0.852338 0.331441
0.535805 0.851972 0.348379
0.66894 0.86128 0.365408
0.771969 0.871275 0.380453
0.85716 0.880934 0.392981
0.91989 0.879713 0.41265
0.942077 0.876631 0.437659
0.942596 0.878035 0.4439
0.942962 0.879026 0.448371
0.943145 0.87953 0.450614
0.943145 0.87953 0.450614
0.943145 0.87953 0.450614
0.943145 0.87953 0.450614
0.943145 0.87953 0.450614
0.943145 0.87953 0.450614
0.943145 0.87953 0.450614
0.943145 0.87953 0.450614
0.943145 0.87953 0.450614
0.322621 0.842664 0.327855
0.322621 0.842664 0.327855
0.322621 0.842664 0.327855
0.322621 0.842664 0.327855
0.322621 0.842664 0.327855
0.322621 0.842664 0.327855
0.322621 0.842664 0.327855
0.322621 0.842664 0.327855
0.322621 0.842664 0.327855
0.322621 0.842664 0.327855
0.322621 0.842664 0.327855
0.322621 0.842664 0.327855
0.322621 0.842664 0.327855
0.322621 0.842664 0.327855
0.322621 0.842664 0.327855
0.325383 0.848829 0.333104
0.49247 0.850004 0.343526
0.645167 0.85922 0.362066
0.753353 0.869368 0.377752
0.841917 0.879088 0.390692
0.911192 0.880949 0.408103
0.941924 0.876234 0.435874
0.942458 0.877684 0.442344
0.94284 0.878676 0.446815
0.943145 0.87953 0.450614
0.943145 0.87953 0.450614
0.943145 0.87953 0.450614
0.943145 0.87953 0.450614
0.943145 0.87953 0.450614
0.943145 0.87953 0.450614
0.943145 0.87953 0.450614
0.943145 0.87953 0.450614
0.943145 0.87953 0.450614
0.322621 0.842664 0.327855
0.322621 0.842664 0.327855
0.322621 0.842664 0.327855
0.322621 0.842664 0.327855
0.322621 0.842664 0.327855
0.322621 0.842664 0.327855
0.322621 0.842664 0.327855
0.322621 0.842664 0.327855
0.322621 0.842664 0.327855
0.322621 0.842664 0.327855
0.322621 0.842664 0.327855
0.322621 0.842664 0.327855
0.322621 0.842664 0.327855
0.322621 0.842664 0.327855
0.322621 0.842664 0.327855
0.322484 0.842268 0.329137
0.449363 0.849195 0.339483
0.623713 0.857466 0.359121
0.736797 0.86775 0.375372
0.828717 0.877516 0.388739
0.901305 0.8822 0.404074
0.937438 0.877043 0.427146
0.942351 0.877379 0.441001
0.942748 0.878431 0.445701
0.943053 0.879271 0.4495
0.943145 0.87953 0.450614
0.943145 0.87953 0.450614
0.943145 0.87953 0.450614
0.943145 0.87953 0.450614
0.943145 0.87953 0.450614
0.943145 0.87953 0.450614
0.943145 0.87953 0.450614
0.943145 0.87953 0.450614
0.322621 0.842664 0.327855
0.322621 0.842664 0.327855
0.322621 0.842664 0.327855
0.322621 0.842664 0.327855
0.322621 0.842664 0.327855
0.322621 0.842664 0.327855
0.322621 0.842664 0.327855
0.322621 0.842664 0.327855
0.322621 0.842664 0.327855
0.322621 0.842664 0.327855
0.322621 0.842664 0.327855
0.322621 0.842664 0.327855
0.322621 0.842664 0.327855
0.322621 0.842664 0.327855
0.322621 0.842664 0.327855
0.322621 0.842664 0.327855
0.41648 0.849821 0.336858
0.606806 0.856214 0.356954
0.724285 0.866453 0.373419
0.818967 0.876341 0.387243
0.894621 0.883009 0.401343
0.933837 0.877623 0.423697
0.942275 0.87718 0.440116
0.942657 0.878172 0.444572
0.942977 0.879072 0.4486
0.943145 0.87953 0.450614
0.943145 0.87953 0.450614
0.943145 0.87953 0.450614
0.943145 0.87953 0.450614
0.943145 0.87953 0.450614
0.943145 0.87953 0.450614
0.943145 0.87953 0.450614
0.943145 0.87953 0.450614
0.322621 0.842664 0.327855
0.322621 0.842664 0.327855
0.322621 0.842664 0.327855
0.322621 0.842664 0.327855
0.322621 0.842664 0.327855
0.322621 0.842664 0.327855
0.322621 0.842664 0.327855
0.322621 0.842664 0.327855
0.322621 0.842664 0.327855
0.322621 0.842664 0.327855
0.322621 0.842664 0.327855
0.322621 0.842664 0.327855
0.322621 0.842664 0.327855
0.322621 0.842664 0.327855
0.322621 0.842664 0.327855
0.322621 0.842664 0.327855
0.397681 0.85037 0.33547
0.593866 0.855344 0.355291
0.715892 0.86566 0.372229
0.812512 0.875654 0.386358
0.890288 0.883452 0.399496
0.931502 0.877943 0.421775
0.942229 0.877028 0.439445
