public/images/Fine Arts Cadres /TC_-_EDITING_ESSENTIALS_-_COLOR/TC - BARBIE - LOOK1 - LOG TO LOOK - STANDARD.cube
TITLE "Generated by Resolve"
LUT_3D_SIZE 5
0.00682078 0.0149233 0.0161288
0.210101 0.05626 0.05037
0.691417 0.167529 0.156542
0.691417 0.167529 0.156542
0.691417 0.167529 0.156542
0.0478218 0.123903 0.0746471
0.143313 0.151781 0.0655375
0.691417 0.167529 0.156542
0.691417 0.167529 0.156542
0.691417 0.167529 0.156542
0.262898 0.686625 0.265599
0.261799 0.683757 0.264607
0.640558 0.690944 0.286595
0.845533 0.604135 0.28249
0.844739 0.599268 0.28101
0.326619 0.853254 0.327001
0.326619 0.853254 0.327001
0.326619 0.853254 0.327001
0.912062 0.823316 0.358236
0.912062 0.823316 0.358236
0.326619 0.853254 0.327001
0.326619 0.853254 0.327001
0.326619 0.853254 0.327001
0.912062 0.823316 0.358236
0.912062 0.823316 0.358236
0.0164034 0.0191196 0.118593
0.205982 0.0576181 0.161715
0.702876 0.166003 0.180545
0.701442 0.165789 0.177157
0.700999 0.165759 0.176471
0.0467384 0.118868 0.106035
0.151293 0.137423 0.128405
0.700313 0.165728 0.174914
0.699138 0.16585 0.170367
0.698604 0.166033 0.167346
0.258701 0.675639 0.261799
0.257588 0.672755 0.260807
0.639765 0.683452 0.284047
0.844129 0.595621 0.279896
0.843336 0.590753 0.278416
0.326619 0.853254 0.327001
0.326619 0.853254 0.327001
0.326619 0.853254 0.327001
0.912062 0.823316 0.358236
0.912062 0.823316 0.358236
0.326619 0.853254 0.327001
0.326619 0.853254 0.327001
0.326619 0.853254 0.327001
0.912062 0.823316 0.358236
0.912062 0.823316 0.358236
0.100465 0.224399 0.454231
0.0948653 0.183917 0.493004
0.618082 0.161379 0.559762
0.606363 0.157336 0.53434
0.605219 0.156939 0.531838
0.098497 0.219516 0.447608
0.10309 0.230854 0.462989
0.612802 0.159564 0.548318
0.600443 0.155306 0.521508
0.600641 0.155291 0.520638
0.234165 0.598459 0.495888
0.233356 0.596307 0.495521
0.690806 0.653605 0.607416
0.912413 0.577279 0.564584
0.910994 0.569955 0.5635
0.31342 0.811276 0.504845
0.313466 0.811444 0.504112
0.312276 0.807263 0.523018
0.959136 0.892958 0.444831
0.958877 0.892302 0.441917
0.314443 0.814817 0.489326
0.314488 0.814939 0.488792
0.313695 0.812222 0.500648
0.953964 0.885313 0.426871
0.953658 0.883848 0.425254
0.110155 0.248249 0.486564
0.110155 0.248249 0.486564
0.633387 0.166674 0.593027
0.633387 0.166674 0.593027
0.633387 0.166674 0.593027
0.110155 0.248249 0.486564
0.110155 0.248249 0.486564
0.633387 0.166674 0.593027
0.633387 0.166674 0.593027
0.633387 0.166674 0.593027
0.208042 0.509529 0.651911
0.207538 0.50811 0.651759
0.523003 0.519615 0.836881
0.852918 0.487953 0.850523
0.849836 0.478325 0.84712
0.295216 0.746258 0.720241
0.295247 0.746303 0.720134
0.292668 0.737972 0.73254
0.974548 0.968215 0.948623
0.974548 0.964691 0.943511
0.295995 0.748821 0.71574
0.29604 0.748928 0.715526
0.296269 0.749706 0.714168
0.970428 0.974548 0.941665
0.974548 0.971267 0.941939
0.110155 0.248249 0.486564
0.110155 0.248249 0.486564
0.633387 0.166674 0.593027
0.633387 0.166674 0.593027
0.633387 0.166674 0.593027
0.110155 0.248249 0.486564
0.110155 0.248249 0.486564
0.633387 0.166674 0.593027
0.633387 0.166674 0.593027
0.633387 0.166674 0.593027
0.204746 0.500175 0.652064
0.204395 0.499138 0.652201
0.522362 0.489143 0.826566
0.840818 0.450233 0.837125
0.837201 0.439185 0.833112
0.292653 0.737911 0.732616
0.292622 0.73785 0.732708
0.288853 0.726589 0.740719
0.974548 0.974395 0.974304
0.974548 0.971267 0.970123
0.293019 0.739086 0.731044
0.293019 0.739086 0.731044
0.293019 0.739086 0.731044
0.974548 0.974548 0.974548
0.974548 0.974533 0.97435
