public/images/Fine Arts Cadres /TC_-_EDITING_ESSENTIALS_-_COLOR/TC - OPPENHEIMER - LOOK1 - LOG TO LOOK - STANDARD.cube
TITLE "Generated by Resolve"
LUT_3D_SIZE 33
0.00682078 0.0149538 0.0161593
0.00682078 0.0149538 0.0161593
0.00682078 0.0149538 0.0161593
0.00682078 0.0149538 0.0161593
0.00682078 0.0149538 0.0161593
0.0292821 0.0239719 0.0202945
0.0593881 0.0338903 0.023331
0.0913252 0.043595 0.0264591
0.127749 0.0483101 0.0328374
0.173144 0.0523537 0.0424506
0.220935 0.0577859 0.0527047
0.278447 0.06804 0.065156
0.338201 0.0814679 0.0781415
0.39707 0.0958267 0.0910201
0.44979 0.10869 0.102708
0.502525 0.121477 0.11458
0.552819 0.133669 0.125917
0.600397 0.14519 0.136629
0.64741 0.15671 0.146944
0.685893 0.166186 0.155276
0.685893 0.166186 0.155276
0.685893 0.166186 0.155276
0.685893 0.166186 0.155276
0.685893 0.166186 0.155276
0.685893 0.166186 0.155276
0.685893 0.166186 0.155276
0.685893 0.166186 0.155276
0.685893 0.166186 0.155276
0.685893 0.166186 0.155276
0.685893 0.166186 0.155276
0.685893 0.166186 0.155276
0.685893 0.166186 0.155276
0.685893 0.166186 0.155276
0.00682078 0.0149538 0.0161593
0.00682078 0.0149538 0.0161593
0.00682078 0.0149538 0.0161593
0.00682078 0.0149538 0.0161593
0.00682078 0.0149538 0.0161593
0.0241093 0.0223545 0.0198978
0.0558938 0.0327916 0.0233005
0.0882429 0.0426795 0.0259861
0.1252 0.0480507 0.0323186
0.17116 0.0522011 0.0420233
0.219211 0.0575418 0.0523384
0.277104 0.0677653 0.0648661
0.337087 0.0812085 0.0778973
0.396185 0.095613 0.0908217
0.449058 0.108507 0.102556
0.501778 0.121294 0.114412
0.552132 0.133501 0.12575
0.599893 0.145068 0.136522
0.646571 0.156497 0.146761
0.685893 0.166186 0.155276
0.685893 0.166186 0.155276
0.685893 0.166186 0.155276
0.685893 0.166186 0.155276
0.685893 0.166186 0.155276
0.685893 0.166186 0.155276
0.685893 0.166186 0.155276
0.685893 0.166186 0.155276
0.685893 0.166186 0.155276
0.685893 0.166186 0.155276
0.685893 0.166186 0.155276
0.685893 0.166186 0.155276
0.685893 0.166186 0.155276
0.685893 0.166186 0.155276
0.00682078 0.0149538 0.0161593
0.00682078 0.0149538 0.0161593
0.00682078 0.0149538 0.0161593
0.00682078 0.0149538 0.0161593
0.00682078 0.0149538 0.0161593
0.0178988 0.0201267 0.0190127
0.050782 0.0309148 0.022385
0.0835737 0.0412757 0.0252995
0.121294 0.0475013 0.0315251
0.167834 0.0519722 0.0413214
0.215747 0.0570535 0.0515908
0.275273 0.0673838 0.0644694
0.335439 0.0808118 0.0775311
0.394949 0.0953078 0.090547
0.448142 0.108278 0.102342
0.500847 0.121065 0.114199
0.551431 0.133333 0.125597
0.599222 0.144915 0.13637
0.645884 0.156329 0.146624
0.685893 0.166186 0.155276
0.685893 0.166186 0.155276
0.685893 0.166186 0.155276
0.685893 0.166186 0.155276
0.685893 0.166186 0.155276
0.685893 0.166186 0.155276
0.685893 0.166186 0.155276
0.685893 0.166186 0.155276
0.685893 0.166186 0.155276
0.685893 0.166186 0.155276
0.685893 0.166186 0.155276
0.685893 0.166186 0.155276
0.685893 0.166186 0.155276
0.685893 0.166186 0.155276
0.0104677 0.0258793 0.0228885
0.0102235 0.0251774 0.022446
0.0100099 0.0246281 0.0221103
0.00991836 0.0243534 0.0219272
0.00970474 0.0238041 0.0215915
0.0140536 0.0276799 0.0234226
0.0506752 0.0394141 0.0274815
0.085832 0.0484932 0.0289616
0.123796 0.0537728 0.0334325
0.168826 0.0551766 0.0419776
0.213855 0.0567941 0.0511788
0.272084 0.066743 0.0637827
0.332662 0.0801556 0.076936
0.393698 0.0950027 0.0902876
0.447028 0.108019 0.102098
0.499916 0.120836 0.113985
0.550561 0.13312 0.125399
0.59855 0.144747 0.136217
0.645197 0.156161 0.146471
0.685893 0.166186 0.155276
0.685893 0.166186 0.155276
0.685893 0.166186 0.155276
0.685893 0.166186 0.155276
0.685893 0.166186 0.155276
0.685893 0.166186 0.155276
0.685893 0.166186 0.155276
0.685893 0.166186 0.155276
0.685893 0.166186 0.155276
0.685893 0.166186 0.155276
0.685893 0.166186 0.155276
0.685893 0.166186 0.155276
0.685893 0.166186 0.155276
0.685893 0.166186 0.155276
0.0175326 0.0446784 0.0348211
0.0172732 0.0439918 0.0343786
0.0170138 0.0432898 0.0339361
0.016846 0.0428779 0.0336767
0.0166934 0.0424659 0.0334173
0.0175631 0.0433051 0.0335546
0.0572213 0.0568093 0.037705
0.0958724 0.0648051 0.0371862
0.136873 0.0704814 0.0401312
0.184192 0.0717784 0.0476234
0.229053 0.0700847 0.0560464
0.280766 0.0717327 0.0662547
0.333257 0.080354 0.0771038
0.391562 0.0944839 0.0898146
0.445747 0.107698 0.101808
0.498802 0.120562 0.113741
0.549691 0.132906 0.1252
0.597696 0.144549 0.136019
0.644526 0.155993 0.146334
0.685893 0.166186 0.155276
0.685893 0.166186 0.155276
0.685893 0.166186 0.155276
0.685893 0.166186 0.155276
0.685893 0.166186 0.155276
0.685893 0.166186 0.155276
0.685893 0.166186 0.155276
0.685893 0.166186 0.155276
0.685893 0.166186 0.155276
0.685893 0.166186 0.155276
0.685893 0.166186 0.155276
0.685893 0.166186 0.155276
0.685893 0.166186 0.155276
0.685893 0.166186 0.155276
0.0250553 0.0644388 0.0453803
0.0248417 0.063859 0.0450904
0.024567 0.0631418 0.0447395
0.0243992 0.0626993 0.0445258
0.0242771 0.0624094 0.0443732
0.0240635 0.0618296 0.0440833
0.0537881 0.074876 0.045716
0.107698 0.0853895 0.0450446
0.150683 0.0914473 0.0480507
0.200961 0.0924086 0.054612
0.248981 0.0886549 0.0627909
0.301488 0.0863203 0.0724193
0.353353 0.088838 0.0824903
0.402853 0.0972915 0.092607
0.445075 0.107546 0.101656
0.498054 0.120378 0.113573
0.548638 0.132647 0.124971
0.596689 0.144305 0.13579
0.643671 0.155779 0.146151
0.685893 0.166186 0.155276
0.685893 0.166186 0.155276
0.685893 0.166186 0.155276
0.685893 0.166186 0.155276
0.685893 0.166186 0.155276
0.685893 0.166186 0.155276
0.685893 0.166186 0.155276
0.685893 0.166186 0.155276
0.685893 0.166186 0.155276
0.685893 0.166186 0.155276
0.685893 0.166186 0.155276
0.685893 0.166186 0.155276
0.685893 0.166186 0.155276
0.685893 0.166186 0.155276
0.0336004 0.0868086 0.0564889
0.0334478 0.0863661 0.05626
0.0331579 0.0856489 0.0559091
0.0329442 0.085069 0.0556191
0.0329442 0.085069 0.0556191
0.0328374 0.0847791 0.0554665
0.0400092 0.0933242 0.0553597
0.109453 0.112566 0.0509957
0.166003 0.119234 0.0576181
0.217411 0.121553 0.063859
0.269001 0.119432 0.0721447
0.325216 0.114504 0.0814221
0.380041 0.109987 0.090898
0.431525 0.110002 0.100435
0.474083 0.115373 0.108858
0.513405 0.124117 0.117067
0.548684 0.132692 0.12491
0.595682 0.144045 0.135561
0.642649 0.15552 0.145937
0.685893 0.166186 0.155276
0.685893 0.166186 0.155276
0.685893 0.166186 0.155276
0.685893 0.166186 0.155276
0.685893 0.166186 0.155276
0.685893 0.166186 0.155276
0.685893 0.166186 0.155276
0.685893 0.166186 0.155276
0.685893 0.166186 0.155276
0.685893 0.166186 0.155276
0.685893 0.166186 0.155276
0.685893 0.166186 0.155276
0.685893 0.166186 0.155276
0.685893 0.166186 0.155276
0.0432441 0.11194 0.0687419
0.0430915 0.111543 0.0685588
0.0428779 0.111025 0.0682994
0.0426795 0.110491 0.06804
0.0425879 0.110231 0.0679179
0.0426337 0.110353 0.0679789
0.0427253 0.110567 0.0679332
0.080705 0.134203 0.0593118
0.172824 0.15346 0.0683757
0.236744 0.156054 0.0755627
0.291234 0.156786 0.0840772
0.349981 0.153994 0.0933242
0.408713 0.148516 0.102708
0.463294 0.143999 0.111971
0.510307 0.141405 0.120348
0.553765 0.141039 0.128252
0.592248 0.144213 0.135393
0.62324 0.150805 0.141741
0.649821 0.157382 0.147311
0.685893 0.166186 0.155276
0.685893 0.166186 0.155276
0.685893 0.166186 0.155276
0.685893 0.166186 0.155276
0.685893 0.166186 0.155276
0.685893 0.166186 0.155276
0.685893 0.166186 0.155276
0.685893 0.166186 0.155276
0.685893 0.166186 0.155276
0.685893 0.166186 0.155276
0.685893 0.166186 0.155276
0.685893 0.166186 0.155276
0.685893 0.166186 0.155276
0.685893 0.166186 0.155276
0.055436 0.143694 0.0847944
0.0552834 0.143297 0.084596
0.0551156 0.142885 0.0843824
0.0549172 0.142336 0.0841077
0.0547036 0.141802 0.0838178
0.0547494 0.141939 0.0838941
0.054963 0.142473 0.0841688
0.0598764 0.152911 0.0776989
0.15697 0.187457 0.0777905
0.248264 0.201953 0.0901808
0.316548 0.202792 0.099443
0.376837 0.202304 0.108507
0.436545 0.198917 0.117556
0.492775 0.193759 0.126314
0.543648 0.188739 0.1346
0.591867 0.183764 0.142641
0.635111 0.179767 0.149996
0.673793 0.177432 0.156664
0.707576 0.17731 0.162921
0.729122 0.177783 0.167956
0.710811 0.171679 0.16257
0.690929 0.16733 0.15668
0.685893 0.166186 0.155276
0.685893 0.166186 0.155276
0.685893 0.166186 0.155276
0.685893 0.166186 0.155276
0.685893 0.166186 0.155276
0.685893 0.166186 0.155276
0.685893 0.166186 0.155276
0.685893 0.166186 0.155276
0.685893 0.166186 0.155276
0.685893 0.166186 0.155276
0.685893 0.166186 0.155276
0.0706035 0.1832 0.104479
0.0704967 0.182925 0.104341
0.0703441 0.182498 0.104128
0.0701762 0.182086 0.103929
0.0699626 0.181521 0.103655
0.069749 0.180972 0.10338
0.0699016 0.181384 0.103578
0.0703899 0.182635 0.104204
0.101442 0.210636 0.0838483
0.237995 0.250294 0.104463
0.329595 0.26125 0.117632
0.403967 0.261082 0.127459
0.468025 0.258976 0.136522
0.521538 0.256931 0.144564
0.57348 0.252552 0.152346
0.623865 0.246723 0.15996
0.670375 0.24007 0.167056
0.713375 0.234257 0.173846
0.752285 0.231312 0.180758
0.771267 0.22649 0.184039
0.764782 0.212604 0.180743
0.755337 0.199451 0.177035
0.746792 0.189624 0.173968
0.736919 0.182269 0.17055
0.728405 0.177432 0.167727
0.722347 0.174762 0.165774
0.718059 0.173342 0.164492
0.714382 0.172488 0.163546
0.712139 0.171969 0.162936
0.711086 0.171725 0.162646
0.710018 0.171496 0.162356
0.708705 0.171206 0.161975
0.706844 0.170794 0.16144
0.0920729 0.239338 0.126284
0.0919356 0.238972 0.126162
0.091783 0.23859 0.12604
0.0915694 0.238025 0.125841
0.0914168 0.237644 0.125719
0.0912032 0.237079 0.125536
0.0909133 0.236316 0.125292
0.0912032 0.237079 0.125536
0.0933242 0.243046 0.115938
0.185687 0.288746 0.113848
0.325704 0.328969 0.138384
0.418631 0.335225 0.150408
0.493812 0.333043 0.159564
0.55404 0.329076 0.167346
0.606104 0.326162 0.174807
0.653635 0.322789 0.181811
0.699565 0.31783 0.18854
0.744167 0.311528 0.195087
0.785702 0.309773 0.202182
0.795651 0.303716 0.202853
0.793072 0.291096 0.199939
0.789349 0.27747 0.196551
0.785946 0.266545 0.193759
0.783154 0.257984 0.191516
0.780758 0.250568 0.189624
0.77908 0.245167 0.188388
0.77763 0.24155 0.187549
0.776593 0.239002 0.186954
0.775952 0.237446 0.186603
0.775662 0.236759 0.186435
0.775311 0.23592 0.186236
0.774914 0.234943 0.186023
0.77438 0.233707 0.185733
0.119905 0.312245 0.150195
0.119829 0.312047 0.150134
0.119677 0.31165 0.150011
0.119524 0.311254 0.149874
0.119371 0.310842 0.149752
0.119142 0.310246 0.149569
0.118914 0.309651 0.149371
0.118532 0.308659 0.14905
0.11899 0.30985 0.149432
0.12639 0.327138 0.128115
0.288975 0.385367 0.154437
0.419883 0.41735 0.176181
0.505119 0.41796 0.185519
0.573419 0.414069 0.192905
0.634195 0.409705 0.200153
0.685252 0.406577 0.206973
0.729793 0.404242 0.213413
0.77229 0.40119 0.219608
0.813046 0.404974 0.227207
0.812467 0.401358 0.226291
0.811414 0.393927 0.22446
0.809781 0.382773 0.221744
0.808362 0.37351 0.219501
0.807126 0.365591 0.217594
0.806058 0.358816 0.215976
0.80531 0.353964 0.214832
0.804791 0.350622 0.214054
0.80441 0.348318 0.213504
0.804181 0.346868 0.213169
0.804105 0.346242 0.213031
0.803983 0.345617 0.212863
0.803845 0.344564 0.212634
0.803647 0.343328 0.212345
0.151415 0.394781 0.17525
0.151324 0.394568 0.175189
0.151156 0.394125 0.175067
0.15108 0.393912 0.175006
0.150912 0.393469 0.174884
0.150744 0.393042 0.174762
0.150484 0.392386 0.174578
0.15024 0.391714 0.174395
0.149828 0.390631 0.17409
0.150744 0.393042 0.174762
0.203387 0.428565 0.165408
0.389868 0.4822 0.1953
0.506661 0.505745 0.213291
0.583978 0.502861 0.220478
0.64863 0.498207 0.226795
0.704952 0.493248 0.232761
0.754147 0.488563 0.238392
0.799771 0.48748 0.244846
0.825513 0.4916 0.249805
0.82536 0.490898 0.249607
0.824781 0.487663 0.248707
0.823545 0.479194 0.246403
0.822553 0.472343 0.244572
0.82182 0.466911 0.243122
0.821149 0.46215 0.241856
0.820645 0.458762 0.240955
0.820325 0.456504 0.24036
0.820111 0.454932 0.239948
0.819974 0.454017 0.239719
0.819883 0.453574 0.239597
0.819837 0.453117 0.239475
0.81973 0.452445 0.239292
0.819623 0.451545 0.239063
0.181903 0.474693 0.198337
0.181811 0.474449 0.19826
0.181735 0.47422 0.198199
0.181552 0.473747 0.198062
0.18146 0.473518 0.197986
0.181277 0.473045 0.197848
0.181094 0.472572 0.197711
0.180835 0.47187 0.197513
0.180468 0.470924 0.197238
0.179934 0.46952 0.196826
0.18349 0.478965 0.194385
0.333822 0.534752 0.210117
0.482994 0.566842 0.23151
0.58822 0.582712 0.246174
0.65658 0.576501 0.251331
0.714992 0.570336 0.256229
0.766384 0.565118 0.261173
0.815885 0.563195 0.267262
0.83682 0.565316 0.270756
0.837369 0.56466 0.270665
0.837415 0.563561 0.270375
0.836362 0.558114 0.268742
0.835554 0.553399 0.267353
0.834958 0.549752 0.2663
0.834424 0.546746 0.265415
0.834058 0.544396 0.264729
0.833799 0.542885 0.264286
0.833616 0.541817 0.263981
0.833494 0.541161 0.263783
0.833463 0.540948 0.263722
0.833432 0.540734 0.263661
0.833326 0.540307 0.263539
0.833234 0.539666 0.263355
0.213443 0.557229 0.223056
0.213352 0.557 0.22298
0.21326 0.556756 0.222904
0.213169 0.556512 0.222827
0.213077 0.556268 0.222751
0.212985 0.556039 0.222675
0.212802 0.55555 0.222538
0.212528 0.554833 0.222309
0.212238 0.554116 0.22208
0.21178 0.552911 0.221714
0.211048 0.550988 0.221118
0.24564 0.578897 0.222385
0.447898 0.623865 0.248676
0.571313 0.642481 0.264378
0.661173 0.650538 0.275273
0.722438 0.640299 0.278401
0.774243 0.632761 0.282002
0.823545 0.629267 0.287037
0.84831 0.631632 0.290913
0.849195 0.630121 0.290654
0.84979 0.628458 0.290288
0.849134 0.624628 0.289097
0.848463 0.621164 0.288014
0.847837 0.618265 0.287098
0.847379 0.615961 0.286381
0.847028 0.614221 0.285832
0.846799 0.61326 0.285527
0.846647 0.612482 0.285283
0.846525 0.611902 0.285115
0.846494 0.611719 0.285054
0.846448 0.611521 0.284993
0.846372 0.611139 0.284871
0.846311 0.610742 0.284749
0.245747 0.641749 0.251286
0.245655 0.641489 0.251209
0.245548 0.641215 0.251087
0.245457 0.640955 0.251011
0.24535 0.640711 0.250919
0.245258 0.640452 0.250843
0.24506 0.639933 0.250675
0.244862 0.639414 0.250477
0.244572 0.638636 0.250233
0.24416 0.637598 0.249851
0.24358 0.636042 0.249332
0.244724 0.639033 0.251133
0.385641 0.676417 0.26389
0.541085 0.695781 0.280217
0.648753 0.706218 0.292409
0.728573 0.706523 0.300023
0.780636 0.693462 0.301381
0.828504 0.685573 0.304448
0.859327 0.688533 0.309071
0.860792 0.687297 0.30898
0.861631 0.68545 0.308629
0.861463 0.682719 0.30779
0.860792 0.679881 0.306844
0.860304 0.677729 0.306142
0.859861 0.675776 0.305501
0.859571 0.674525 0.305089
0.859419 0.673655 0.304814
0.859251 0.672938 0.30457
0.859174 0.672587 0.304463
0.859129 0.672404 0.304402
0.859083 0.672221 0.304341
0.859052 0.672053 0.30428
0.858961 0.671687 0.304158
0.277836 0.725689 0.280964
0.277745 0.725414 0.280873
0.277638 0.725139 0.280781
0.277531 0.72488 0.28069
0.277424 0.724605 0.280598
0.277333 0.724346 0.280507
0.277226 0.724056 0.280385
0.277012 0.723522 0.280201
0.276814 0.722988 0.280018
0.276402 0.721904 0.279606
0.275776 0.720272 0.279026
0.275044 0.718379 0.278355
0.302968 0.733547 0.281529
0.498527 0.746456 0.295201
0.625849 0.754696 0.306889
0.720974 0.759487 0.316625
0.785977 0.751614 0.32047
0.832761 0.737667 0.321157
0.870375 0.736584 0.32517
0.872023 0.735698 0.325216
0.873381 0.734798 0.325216
0.873701 0.733059 0.324758
0.873137 0.730816 0.323995
0.872709 0.729076 0.3234
0.872312 0.727626 0.322896
0.872007 0.726513 0.322515
0.871885 0.725887 0.322301
0.871763 0.725399 0.322133
0.871672 0.725078 0.322026
0.871626 0.724926 0.321965
0.87158 0.724758 0.321904
0.871534 0.724605 0.321859
0.871458 0.724285 0.321736
0.311421 0.813458 0.313222
0.311421 0.813458 0.313222
0.311299 0.813169 0.313115
0.311192 0.812879 0.313008
0.311192 0.812879 0.313008
0.311086 0.812589 0.312901
0.310857 0.812009 0.312673
0.31075 0.811719 0.312566
0.310521 0.811139 0.312352
0.310079 0.809964 0.311925
0.309529 0.808515 0.311376
0.308858 0.80676 0.310719
0.308309 0.805356 0.310323
0.435782 0.806836 0.313802
0.592798 0.8038 0.321569
0.70161 0.805097 0.330266
0.785702 0.805417 0.337972
0.838941 0.790341 0.338659
0.880903 0.779614 0.340368
0.88394 0.777569 0.340108
0.885176 0.776761 0.340124
0.88632 0.776211 0.340185
0.885817 0.774426 0.339544
0.885435 0.773144 0.339086
0.885054 0.771878 0.338628
0.88481 0.771038 0.338323
0.884627 0.770459 0.338109
0.884535 0.770169 0.338003
0.884428 0.769879 0.337896
0.884382 0.769741 0.33785
0.884337 0.769589 0.337789
0.884337 0.769482 0.337758
0.884291 0.769345 0.337697
0.322606 0.842725 0.324498
0.322606 0.842725 0.324498
0.322606 0.842725 0.324498
0.322606 0.842725 0.324498
0.322606 0.842725 0.324498
0.322606 0.84271 0.324483
0.322606 0.84271 0.324483
0.322606 0.84271 0.324483
0.322606 0.84271 0.324483
0.322606 0.84271 0.324483
0.322606 0.84271 0.324468
0.322606 0.84271 0.324468
0.322606 0.84271 0.324453
0.346807 0.847272 0.325521
0.542382 0.834638 0.329763
0.672175 0.835401 0.338582
0.769772 0.837476 0.347265
0.843336 0.83566 0.353353
0.890425 0.821286 0.355352
0.906477 0.821759 0.361975
0.908675 0.824521 0.364691
0.911116 0.827207 0.367941
0.911254 0.826627 0.368277
0.91043 0.825071 0.367269
0.909773 0.82385 0.366491
0.909163 0.822736 0.365743
0.908919 0.822232 0.365423
0.908598 0.821653 0.365026
0.908522 0.821515 0.364965
0.908415 0.821317 0.364828
0.908309 0.821118 0.364691
0.908278 0.821012 0.364645
0.908171 0.820813 0.364523
0.322652 0.842817 0.324926
0.322652 0.842817 0.324926
0.322652 0.842817 0.324926
0.322652 0.842817 0.324926
0.322652 0.842817 0.324926
0.322652 0.842817 0.324926
0.322652 0.842817 0.324926
0.322652 0.842817 0.324926
0.322652 0.842817 0.324926
0.322652 0.842817 0.32491
0.322652 0.842817 0.32491
0.322652 0.842817 0.32491
0.322652 0.842802 0.32488
0.322652 0.842802 0.32488
0.453361 0.838209 0.326665
0.623224 0.835248 0.335164
0.735683 0.837476 0.344427
0.821973 0.838529 0.352285
0.877684 0.823163 0.352819
0.907134 0.822583 0.362768
0.907713 0.823316 0.363485
0.909346 0.82536 0.365545
0.911131 0.827573 0.367895
0.911208 0.82768 0.367987
0.911208 0.82768 0.367987
0.911208 0.82768 0.367987
0.911284 0.827771 0.368093
0.911284 0.827771 0.368093
0.911284 0.827771 0.368093
0.911284 0.827771 0.368093
0.911284 0.827771 0.368093
0.911284 0.827771 0.368093
0.911284 0.827771 0.368093
0.322683 0.842893 0.325322
0.322683 0.842893 0.325322
0.322683 0.842893 0.325322
0.322683 0.842893 0.325322
0.322683 0.842893 0.325322
0.322683 0.842893 0.325322
0.322683 0.842893 0.325307
0.322683 0.842893 0.325307
0.322683 0.842893 0.325307
0.322683 0.842893 0.325307
0.322683 0.842893 0.325307
0.322683 0.842893 0.325307
0.322683 0.842893 0.325277
0.322683 0.842893 0.325277
0.343343 0.848341 0.326116
0.559838 0.835798 0.331563
0.696376 0.837339 0.341344
0.795575 0.839078 0.350134
0.863676 0.83006 0.353536
0.908385 0.824155 0.364324
0.908385 0.824155 0.364324
0.908904 0.824796 0.364965
0.909865 0.826001 0.366217
0.910384 0.826658 0.366903
0.910384 0.826658 0.366903
0.910384 0.826658 0.366903
0.910384 0.826658 0.366903
0.910384 0.826658 0.366903
0.910384 0.826658 0.366903
0.910384 0.826658 0.366903
0.910384 0.826658 0.366903
0.910384 0.826658 0.366903
0.91046 0.826749 0.366995
0.322713 0.842954 0.325597
0.322713 0.842954 0.325597
0.322713 0.842954 0.325597
0.322713 0.842954 0.325597
0.322713 0.842954 0.325597
0.322713 0.842954 0.325597
0.322713 0.842954 0.325597
0.322713 0.842954 0.325597
0.322713 0.842954 0.325597
0.322713 0.842954 0.325597
0.322713 0.842954 0.325597
0.322713 0.842954 0.325597
0.322713 0.842954 0.325597
0.322713 0.842954 0.325597
0.322713 0.842954 0.325597
0.487953 0.837674 0.328557
0.65449 0.837049 0.338277
0.767941 0.839292 0.34786
0.849454 0.836515 0.354177
0.900496 0.825238 0.360372
0.909499 0.825544 0.365728
0.90956 0.825635 0.365835
0.909865 0.826001 0.366217
0.910384 0.826658 0.366903
0.910384 0.826658 0.366903
0.910384 0.826658 0.366903
0.910384 0.826658 0.366903
0.910384 0.826658 0.366903
0.910384 0.826658 0.366903
0.910384 0.826658 0.366903
0.910384 0.826658 0.366903
0.910384 0.826658 0.366903
0.910384 0.826658 0.366903
0.322713 0.842954 0.325597
0.322713 0.842954 0.325597
0.322713 0.842954 0.325597
0.322713 0.842954 0.325597
0.322713 0.842954 0.325597
0.322713 0.842954 0.325597
0.322713 0.842954 0.325597
0.322713 0.842954 0.325597
0.322713 0.842954 0.325597
0.322713 0.842954 0.325597
0.322713 0.842954 0.325597
0.322713 0.842954 0.325597
0.322713 0.842954 0.325597
0.322713 0.842954 0.325597
0.322713 0.842954 0.325597
0.402884 0.84332 0.326696
0.61384 0.836545 0.335363
0.740246 0.838849 0.345434
0.833143 0.839963 0.35378
0.889601 0.825254 0.355917
0.909789 0.82591 0.366125
0.909865 0.826001 0.366217
0.910018 0.826185 0.366415
0.910307 0.826566 0.366796
0.910536 0.826841 0.367102
0.910536 0.826841 0.367102
0.910536 0.826841 0.367102
0.910536 0.826841 0.367102
0.910536 0.826841 0.367102
0.910536 0.826841 0.367102
0.910536 0.826841 0.367102
0.910536 0.826841 0.367102
0.910536 0.826841 0.367102
0.322713 0.842954 0.325597
0.322713 0.842954 0.325597
0.322713 0.842954 0.325597
0.322713 0.842954 0.325597
0.322713 0.842954 0.325597
0.322713 0.842954 0.325597
0.322713 0.842954 0.325597
0.322713 0.842954 0.325597
0.322713 0.842954 0.325597
0.322713 0.842954 0.325597
0.322713 0.842954 0.325597
0.322713 0.842954 0.325597
0.322713 0.842954 0.325597
0.322713 0.842954 0.325597
0.322713 0.842954 0.325597
0.339727 0.849012 0.326406
0.57525 0.8365 0.332952
0.716533 0.838422 0.343404
0.816709 0.839933 0.352285
0.880232 0.825071 0.353613
0.909789 0.82591 0.366125
0.909865 0.826001 0.366217
0.909941 0.826093 0.366308
0.910155 0.826383 0.366598
0.910536 0.826841 0.367102
0.910536 0.826841 0.367102
0.910536 0.826841 0.367102
0.910536 0.826841 0.367102
0.910536 0.826841 0.367102
0.910536 0.826841 0.367102
0.910536 0.826841 0.367102
0.910536 0.826841 0.367102
0.910536 0.826841 0.367102
0.322713 0.842954 0.325597
0.322713 0.842954 0.325597
0.322713 0.842954 0.325597
0.322713 0.842954 0.325597
0.322713 0.842954 0.325597
0.322713 0.842954 0.325597
0.322713 0.842954 0.325597
0.322713 0.842954 0.325597
0.322713 0.842954 0.325597
0.322713 0.842954 0.325597
0.322713 0.842954 0.325597
0.322713 0.842954 0.325597
0.322713 0.842954 0.325597
0.322713 0.842954 0.325597
0.322713 0.842954 0.325597
0.323445 0.844755 0.326238
0.5402 0.836713 0.330999
0.694743 0.837903 0.341527
0.802152 0.839826 0.350973
0.871916 0.828199 0.35375
0.909789 0.82591 0.366125
0.909865 0.826001 0.366217
0.909941 0.826093 0.366308
0.910094 0.826276 0.366506
0.91046 0.826749 0.366995
0.910536 0.826841 0.367102
0.910536 0.826841 0.367102
0.910536 0.826841 0.367102
0.910536 0.826841 0.367102
0.910536 0.826841 0.367102
0.910536 0.826841 0.367102
0.910536 0.826841 0.367102
0.910536 0.826841 0.367102
0.322713 0.842954 0.325597
0.322713 0.842954 0.325597
0.322713 0.842954 0.325597
0.322713 0.842954 0.325597
0.322713 0.842954 0.325597
0.322713 0.842954 0.325597
0.322713 0.842954 0.325597
0.322713 0.842954 0.325597
0.322713 0.842954 0.325597
0.322713 0.842954 0.325597
0.322713 0.842954 0.325597
0.322713 0.842954 0.325597
0.322713 0.842954 0.325597
0.322713 0.842954 0.325597
0.322713 0.842954 0.325597
0.322713 0.842954 0.325597
0.512749 0.837064 0.329641
0.678325 0.837568 0.340185
0.791089 0.839673 0.349966
0.865843 0.830488 0.353872
0.909789 0.82591 0.366125
0.909865 0.826001 0.366217
0.909941 0.826093 0.366308
0.910094 0.826276 0.366506
0.910307 0.826566 0.366796
0.910536 0.826841 0.367102
0.910536 0.826841 0.367102
0.910536 0.826841 0.367102
0.910536 0.826841 0.367102
0.910536 0.826841 0.367102
0.910536 0.826841 0.367102
0.910536 0.826841 0.367102
0.910536 0.826841 0.367102
0.322713 0.842954 0.325597
0.322713 0.842954 0.325597
0.322713 0.842954 0.325597
0.322713 0.842954 0.325597
0.322713 0.842954 0.325597
0.322713 0.842954 0.325597
0.322713 0.842954 0.325597
0.322713 0.842954 0.325597
0.322713 0.842954 0.325597
0.322713 0.842954 0.325597
0.322713 0.842954 0.325597
0.322713 0.842954 0.325597
0.322713 0.842954 0.325597
0.322713 0.842954 0.325597
0.322713 0.842954 0.325597
0.322713 0.842954 0.325597
0.491447 0.837583 0.32871
0.667109 0.837324 0.339284
0.78378 0.839582 0.34931
0.861738 0.832044 0.353964
0.909789 0.82591 0.366125
0.909789 0.82591 0.366125
0.909865 0.826001 0.366217
0.910018 0.826185 0.366415
0.910307 0.826566 0.366796
