public/images/Fine Arts Cadres /TC_-_EDITING_ESSENTIALS_-_COLOR/TC - BARBIE - LOOK1 - LOG TO LOOK - STANDARD.cube
TITLE "Generated by Resolve"
LUT_3D_SIZE 9
0.00682078 0.0149233 0.0161288
0.0879377 0.0425422 0.0259098
0.210101 0.05626 0.05037
0.54757 0.132387 0.124727
0.691417 0.167529 0.156542
0.691417 0.167529 0.156542
0.691417 0.167529 0.156542
0.691417 0.167529 0.156542
0.691417 0.167529 0.156542
0.0154574 0.0392157 0.0313268
0.0301823 0.0414282 0.0307164
0.171939 0.0522011 0.0421759
0.522103 0.126223 0.119005
0.691417 0.167529 0.156542
0.691417 0.167529 0.156542
0.691417 0.167529 0.156542
0.691417 0.167529 0.156542
0.691417 0.167529 0.156542
0.0478218 0.123903 0.0746471
0.0471962 0.122271 0.0738079
0.143313 0.151781 0.0655375
0.478645 0.124788 0.111696
0.691417 0.167529 0.156542
0.691417 0.167529 0.156542
0.691417 0.167529 0.156542
0.691417 0.167529 0.156542
0.691417 0.167529 0.156542
0.129107 0.336355 0.1579
0.128603 0.335027 0.157519
0.127535 0.332235 0.156619
0.3673 0.395132 0.163989
0.807721 0.330861 0.209628
0.798596 0.28452 0.199084
0.792813 0.263554 0.194263
0.790967 0.257084 0.192782
0.790433 0.255268 0.19237
0.262898 0.686625 0.265599
0.262501 0.685588 0.265232
0.261799 0.683757 0.264607
0.257801 0.673274 0.26099
0.640558 0.690944 0.286595
0.848127 0.618524 0.286961
0.845533 0.604135 0.28249
0.844938 0.600488 0.281376
0.844739 0.599268 0.28101
0.326619 0.853254 0.327001
0.326619 0.853254 0.327001
0.326619 0.853254 0.327001
0.326619 0.853254 0.327001
0.374121 0.852552 0.327916
0.855955 0.839506 0.355947
0.911131 0.821607 0.357534
0.910063 0.819608 0.356725
0.909758 0.819028 0.356481
0.326619 0.853254 0.327001
0.326619 0.853254 0.327001
0.326619 0.853254 0.327001
0.326619 0.853254 0.327001
0.326619 0.853254 0.327001
0.741817 0.843503 0.346548
0.912062 0.823316 0.358236
0.912062 0.823316 0.358236
0.912062 0.823316 0.358236
0.326619 0.853254 0.327001
0.326619 0.853254 0.327001
0.326619 0.853254 0.327001
0.326619 0.853254 0.327001
0.326619 0.853254 0.327001
0.710399 0.842542 0.343587
0.912062 0.823316 0.358236
0.912062 0.823316 0.358236
0.912062 0.823316 0.358236
0.326619 0.853254 0.327001
0.326619 0.853254 0.327001
0.326619 0.853254 0.327001
0.326619 0.853254 0.327001
0.326619 0.853254 0.327001
0.700923 0.842176 0.342702
0.912062 0.823316 0.358236
0.912062 0.823316 0.358236
0.912062 0.823316 0.358236
0.0089723 0.0171511 0.0468757
0.0900435 0.043946 0.0563516
0.212406 0.0571298 0.0547951
0.546151 0.131014 0.127184
0.691417 0.167529 0.156542
0.691417 0.167529 0.156542
0.691417 0.167529 0.156542
0.691417 0.167529 0.156542
0.691417 0.167529 0.156542
0.0113222 0.0280919 0.0256199
0.0322576 0.0310674 0.0319982
0.178576 0.0532235 0.0437324
0.528527 0.127779 0.120455
0.691417 0.167529 0.156542
0.691417 0.167529 0.156542
0.691417 0.167529 0.156542
0.691417 0.167529 0.156542
0.691417 0.167529 0.156542
0.0449683 0.116457 0.0709392
0.044419 0.115023 0.0702373
0.144854 0.144442 0.0630808
0.475059 0.120134 0.110201
0.691417 0.167529 0.156542
0.691417 0.167529 0.156542
0.691417 0.167529 0.156542
0.691417 0.167529 0.156542
0.691417 0.167529 0.156542
0.12723 0.331441 0.156359
0.126772 0.330236 0.155962
0.125704 0.327443 0.155062
0.367254 0.390753 0.162524
0.806806 0.325856 0.208469
0.797345 0.279896 0.198001
0.791501 0.258915 0.19321
0.789609 0.25243 0.19173
0.789075 0.250645 0.191318
0.261494 0.682963 0.264332
0.261204 0.682185 0.264057
0.260395 0.680079 0.263325
0.256489 0.669871 0.259815
0.640284 0.68867 0.285817
0.847669 0.616251 0.286244
0.845106 0.601495 0.281697
0.844465 0.59765 0.280522
0.844297 0.596628 0.280201
0.326619 0.853254 0.327001
0.326619 0.853254 0.327001
0.326619 0.853254 0.327001
0.326619 0.853254 0.327001
0.373556 0.852613 0.327916
0.856077 0.83946 0.355947
0.910369 0.820172 0.356954
0.909285 0.818173 0.35613
0.90898 0.817594 0.355901
0.326619 0.853254 0.327001
0.326619 0.853254 0.327001
0.326619 0.853254 0.327001
0.326619 0.853254 0.327001
0.326619 0.853254 0.327001
0.740902 0.843473 0.346456
0.912062 0.823316 0.358236
0.912062 0.823316 0.358236
0.912062 0.823316 0.358236
0.326619 0.853254 0.327001
0.326619 0.853254 0.327001
0.326619 0.853254 0.327001
0.326619 0.853254 0.327001
0.326619 0.853254 0.327001
0.709453 0.842496 0.343496
0.912062 0.823316 0.358236
0.912062 0.823316 0.358236
0.912062 0.823316 0.358236
0.326619 0.853254 0.327001
0.326619 0.853254 0.327001
0.326619 0.853254 0.327001
0.326619 0.853254 0.327001
0.326619 0.853254 0.327001
0.699977 0.84213 0.342611
0.912062 0.823316 0.358236
0.912062 0.823316 0.358236
0.912062 0.823316 0.358236
0.0164034 0.0191196 0.118593
0.0556344 0.0271916 0.138552
0.205982 0.0576181 0.161715
0.545312 0.129259 0.159106
0.702876 0.166003 0.180545
0.702464 0.165911 0.17847
0.701442 0.165789 0.177157
0.701091 0.165759 0.176623
0.700999 0.165759 0.176471
0.0150149 0.0178836 0.104021
0.0158389 0.0184634 0.112596
0.188571 0.0559854 0.150576
0.534844 0.126757 0.152895
0.702724 0.165957 0.179339
0.701823 0.165835 0.177646
0.70074 0.165743 0.175952
0.700389 0.165728 0.175143
0.700298 0.165728 0.174884
0.0467384 0.118868 0.106035
0.0460365 0.117006 0.104997
0.151293 0.137423 0.128405
0.475792 0.113283 0.114397
0.700313 0.165728 0.174914
0.700313 0.165728 0.174945
0.699138 0.16585 0.170367
0.698711 0.166003 0.167987
0.698604 0.166033 0.167346
0.121202 0.315663 0.151263
0.120745 0.314458 0.150881
0.119677 0.311666 0.149981
0.369955 0.37908 0.158938
0.804746 0.314763 0.205921
0.794537 0.269703 0.195666
0.788556 0.249027 0.190951
0.785901 0.242588 0.189441
0.785107 0.240726 0.189014
0.258701 0.675639 0.261799
0.258289 0.674586 0.261433
0.257588 0.672755 0.260807
0.25359 0.662257 0.257237
0.639765 0.683452 0.284047
0.846647 0.610834 0.28455
0.844129 0.595621 0.279896
0.843503 0.59176 0.278721
0.843336 0.590753 0.278416
0.326619 0.853254 0.327001
0.326619 0.853254 0.327001
0.326619 0.853254 0.327001
0.326619 0.853254 0.327001
0.372183 0.852766 0.327932
0.856413 0.839307 0.355932
0.908675 0.817029 0.355673
0.907591 0.81503 0.354849
0.907286 0.81445 0.35462
0.326619 0.853254 0.327001
0.326619 0.853254 0.327001
0.326619 0.853254 0.327001
0.326619 0.853254 0.327001
0.326619 0.853254 0.327001
0.73904 0.843427 0.346288
0.912062 0.823316 0.358236
0.912062 0.823316 0.358236
0.912062 0.823316 0.358236
0.326619 0.853254 0.327001
0.326619 0.853254 0.327001
0.326619 0.853254 0.327001
0.326619 0.853254 0.327001
0.326619 0.853254 0.327001
0.707362 0.84242 0.343297
0.912062 0.823316 0.358236
0.912062 0.823316 0.358236
0.912062 0.823316 0.358236
0.326619 0.853254 0.327001
0.326619 0.853254 0.327001
0.326619 0.853254 0.327001
0.326619 0.853254 0.327001
0.326619 0.853254 0.327001
0.698085 0.842069 0.342428
0.912062 0.823316 0.358236
0.912062 0.823316 0.358236
0.912062 0.823316 0.358236
0.0547189 0.112352 0.289586
0.0572824 0.119112 0.297017
0.145327 0.0546883 0.314885
0.479469 0.121645 0.373861
0.664591 0.16144 0.358572
0.668269 0.161883 0.346899
0.669993 0.162097 0.341497
0.670527 0.162158 0.339834
0.670695 0.162188 0.339315
0.0536507 0.109529 0.286473
0.0542153 0.110994 0.28809
0.126329 0.0514839 0.307652
0.470207 0.119539 0.370901
0.665614 0.161563 0.355322
0.669337 0.162005 0.343542
0.671107 0.162234 0.338048
0.671641 0.162295 0.336217
0.671778 0.16231 0.335698
0.0622263 0.136355 0.289754
0.0603647 0.13109 0.286839
0.0533913 0.0404974 0.26537
0.44271 0.113054 0.357794
0.667903 0.161837 0.348058
0.671748 0.16231 0.335821
0.67335 0.162493 0.330022
0.673854 0.162554 0.328191
0.674006 0.16257 0.327672
0.137682 0.349798 0.316747
0.137255 0.348669 0.31635
0.136385 0.346334 0.315373
0.395865 0.370642 0.351171
0.830289 0.273533 0.289555
0.801892 0.22417 0.282963
0.785702 0.203143 0.275639
0.780362 0.197559 0.273152
0.77879 0.196017 0.272358
0.243565 0.633967 0.313664
0.243305 0.633295 0.313283
0.242618 0.63151 0.312474
0.2374 0.617594 0.314122
0.648051 0.65626 0.275929
0.849958 0.590249 0.279393
0.845899 0.573098 0.274128
0.844846 0.568963 0.272847
0.844556 0.567666 0.27245
0.326619 0.853254 0.327001
0.326619 0.853254 0.327001
0.326619 0.853254 0.327001
0.326619 0.853254 0.327001
0.376944 0.852262 0.327901
0.859022 0.838163 0.35584
0.900984 0.802731 0.349874
0.899977 0.80087 0.349126
0.899748 0.800443 0.348943
0.326619 0.853254 0.327001
0.326619 0.853254 0.327001
0.326619 0.853254 0.327001
0.326619 0.853254 0.327001
0.326619 0.853254 0.327001
0.731838 0.843259 0.345617
0.912062 0.823316 0.358236
0.912062 0.823316 0.358236
0.912062 0.823316 0.358236
0.326619 0.853254 0.327001
0.326619 0.853254 0.327001
0.326619 0.853254 0.327001
0.326619 0.853254 0.327001
0.326619 0.853254 0.327001
0.699596 0.842115 0.342565
0.912062 0.823316 0.358236
0.912062 0.823316 0.358236
0.912062 0.823316 0.358236
0.326619 0.853254 0.327001
0.326619 0.853254 0.327001
0.326619 0.853254 0.327001
0.326619 0.853254 0.327001
0.326619 0.853254 0.327001
0.69015 0.841764 0.341695
0.912062 0.823316 0.358236
0.912062 0.823316 0.358236
0.912062 0.823316 0.358236
0.100465 0.224399 0.454231
0.10042 0.224277 0.454063
0.0948653 0.183917 0.493004
0.405158 0.119432 0.55552
0.618082 0.161379 0.559762
0.609201 0.158312 0.54049
0.606363 0.157336 0.53434
0.605463 0.157031 0.532387
0.605219 0.156939 0.531838
0.0998856 0.222934 0.452247
0.0997787 0.22269 0.451911
0.103227 0.22359 0.481529
0.39527 0.11754 0.554055
0.616403 0.1608 0.55613
0.607401 0.157687 0.536583
0.60444 0.15668 0.530159
0.60354 0.156359 0.528206
0.603281 0.156268 0.527642
0.098497 0.219516 0.447608
0.0984512 0.219394 0.447456
0.10309 0.230854 0.462989
0.373098 0.113359 0.550546
0.612802 0.159564 0.548318
0.603403 0.156313 0.527916
0.600443 0.155306 0.521508
0.600595 0.155291 0.520836
0.600641 0.155291 0.520638
0.152697 0.369589 0.50428
0.152361 0.368627 0.50396
0.15169 0.366751 0.503502
0.228443 0.247562 0.589868
0.709194 0.18909 0.581827
0.632242 0.160967 0.503151
0.612009 0.155718 0.487282
0.611292 0.155627 0.488426
0.611048 0.155596 0.488823
0.234165 0.598459 0.495888
0.233906 0.597742 0.495811
0.233356 0.596307 0.495521
0.229358 0.584802 0.5028
0.690806 0.653605 0.607416
0.916899 0.600351 0.569085
0.912413 0.577279 0.564584
0.911315 0.571618 0.56379
0.910994 0.569955 0.5635
0.311101 0.803021 0.542016
0.311116 0.803067 0.541833
0.311147 0.803189 0.541314
0.311238 0.80354 0.539757
0.34873 0.85008 0.584207
0.90573 0.860014 0.415137
0.949599 0.828382 0.426688
0.948913 0.826032 0.425376
0.948745 0.825452 0.425071
0.31342 0.811276 0.504845
0.313436 0.811322 0.504662
0.313466 0.811444 0.504112
0.313573 0.81181 0.50248
0.312276 0.807263 0.523018
0.730602 0.897887 0.432212
0.959136 0.892958 0.444831
0.958938 0.892454 0.442588
0.958877 0.892302 0.441917
0.314199 0.813993 0.492897
0.314214 0.814038 0.492714
0.314244 0.81416 0.49218
0.314366 0.814572 0.490394
0.313313 0.81091 0.506493
0.693675 0.893568 0.406058
0.95584 0.887053 0.430213
0.9552 0.886137 0.428779
0.955077 0.885939 0.428489
0.314443 0.814817 0.489326
0.314458 0.814862 0.489143
0.314488 0.814939 0.488792
0.314595 0.815351 0.486992
0.313695 0.812222 0.500648
0.68394 0.89192 0.403281
0.953964 0.885313 0.426871
0.953826 0.884092 0.425635
0.953658 0.883848 0.425254
0.110155 0.248249 0.486564
0.110155 0.248249 0.486564
0.110155 0.248249 0.486564
0.350759 0.1093 0.547372
0.633387 0.166674 0.593027
0.633387 0.166674 0.593027
0.633387 0.166674 0.593027
0.633387 0.166674 0.593027
0.633387 0.166674 0.593027
0.110155 0.248249 0.486564
0.110155 0.248249 0.486564
0.110155 0.248249 0.486564
0.339513 0.107286 0.545663
0.633387 0.166674 0.593027
0.633387 0.166674 0.593027
0.633387 0.166674 0.593027
0.633387 0.166674 0.593027
0.633387 0.166674 0.593027
0.110155 0.248249 0.486564
0.110155 0.248249 0.486564
0.110155 0.248249 0.486564
0.314168 0.102815 0.541512
0.633387 0.166674 0.593027
0.633387 0.166674 0.593027
0.633387 0.166674 0.593027
0.633387 0.166674 0.593027
0.633387 0.166674 0.593027
0.133196 0.307713 0.545251
0.132143 0.304921 0.543145
0.129824 0.298756 0.538491
0.180102 0.0822003 0.515923
0.633387 0.166674 0.593027
0.633387 0.166674 0.593027
0.633387 0.166674 0.593027
0.633387 0.166674 0.593027
0.633387 0.166674 0.593027
0.216098 0.535836 0.623789
0.2159 0.535271 0.62356
0.215381 0.533898 0.62298
0.213458 0.528771 0.620874
0.558953 0.582895 0.852888
0.885817 0.592966 0.882216
0.878569 0.569665 0.877058
0.876875 0.564569 0.876585
0.876356 0.56289 0.87602
0.301381 0.767208 0.675212
0.301381 0.767208 0.675212
0.301381 0.767254 0.675074
0.301427 0.767407 0.674662
0.304784 0.771237 0.717617
0.926955 0.871962 0.808087
0.972473 0.862684 0.799863
0.971923 0.860273 0.798993
0.971756 0.859556 0.798779
0.302464 0.771038 0.664881
0.302464 0.771038 0.664881
0.30248 0.771084 0.664744
0.302525 0.771237 0.664332
0.299214 0.759457 0.69633
0.766125 0.936217 0.851286
0.974548 0.957549 0.834394
0.974548 0.957824 0.836347
0.974548 0.957855 0.836515
0.302739 0.772061 0.661814
0.302754 0.772107 0.661662
0.30277 0.772152 0.661509
0.3028 0.77229 0.661051
0.301183 0.766552 0.676982
0.732021 0.927932 0.842893
0.974548 0.957397 0.825269
0.974548 0.955612 0.820981
0.974548 0.955581 0.820813
0.302831 0.772381 0.660746
0.302831 0.772381 0.660746
0.302846 0.772427 0.660594
0.302876 0.772564 0.660136
0.302022 0.769482 0.669078
0.72253 0.925689 0.840665
0.974548 0.961959 0.82356
0.974548 0.95523 0.818357
0.974548 0.95523 0.818357
0.110155 0.248249 0.486564
0.110155 0.248249 0.486564
0.110155 0.248249 0.486564
0.311925 0.102434 0.541146
0.633387 0.166674 0.593027
0.633387 0.166674 0.593027
0.633387 0.166674 0.593027
0.633387 0.166674 0.593027
0.633387 0.166674 0.593027
0.110155 0.248249 0.486564
0.110155 0.248249 0.486564
0.110155 0.248249 0.486564
0.299046 0.100221 0.538979
0.633387 0.166674 0.593027
0.633387 0.166674 0.593027
0.633387 0.166674 0.593027
0.633387 0.166674 0.593027
0.633387 0.166674 0.593027
0.110155 0.248249 0.486564
0.110155 0.248249 0.486564
0.110155 0.248249 0.486564
0.27042 0.0955062 0.534096
0.633387 0.166674 0.593027
0.633387 0.166674 0.593027
0.633387 0.166674 0.593027
0.633387 0.166674 0.593027
0.633387 0.166674 0.593027
0.110155 0.248249 0.486564
0.110155 0.248249 0.486564
0.110155 0.248249 0.486564
0.140871 0.077348 0.506172
0.633387 0.166674 0.593027
0.633387 0.166674 0.593027
0.633387 0.166674 0.593027
0.633387 0.166674 0.593027
0.633387 0.166674 0.593027
0.208042 0.509529 0.651911
0.207889 0.509102 0.651896
0.207538 0.50811 0.651759
0.2065 0.505165 0.651896
0.523003 0.519615 0.836881
0.862516 0.518013 0.861082
0.852918 0.487953 0.850523
0.850538 0.480522 0.847898
0.849836 0.478325 0.84712
0.289494 0.72845 0.739666
0.289525 0.728542 0.73962
0.289525 0.728542 0.73962
0.289525 0.728542 0.73962
0.286473 0.717601 0.762356
0.882292 0.848234 0.957305
0.96289 0.849058 0.956313
0.962112 0.846525 0.955779
0.961898 0.845808 0.955764
0.295216 0.746258 0.720241
0.295216 0.746258 0.720241
0.295247 0.746303 0.720134
0.295262 0.746365 0.720027
0.292668 0.737972 0.73254
0.764446 0.94638 0.929244
0.974548 0.968215 0.948623
0.974548 0.964996 0.94403
0.974548 0.964691 0.943511
0.295857 0.748333 0.716564
0.295872 0.748394 0.716472
0.295888 0.748455 0.716365
0.295964 0.748699 0.715938
0.295705 0.74786 0.717403
0.718395 0.935271 0.918685
0.974212 0.974548 0.948486
0.974548 0.971405 0.943084
0.974548 0.971466 0.943664
0.295995 0.748821 0.71574
0.29601 0.748882 0.715633
0.29604 0.748928 0.715526
0.296117 0.749233 0.715007
0.296269 0.749706 0.714168
0.708141 0.932769 0.916045
0.970428 0.974548 0.941665
0.974548 0.971206 0.94136
0.974548 0.971267 0.941939
0.110155 0.248249 0.486564
0.110155 0.248249 0.486564
0.110155 0.248249 0.486564
0.301885 0.10071 0.539467
0.633387 0.166674 0.593027
0.633387 0.166674 0.593027
0.633387 0.166674 0.593027
0.633387 0.166674 0.593027
0.633387 0.166674 0.593027
0.110155 0.248249 0.486564
0.110155 0.248249 0.486564
0.110155 0.248249 0.486564
0.288685 0.098497 0.537224
0.633387 0.166674 0.593027
0.633387 0.166674 0.593027
0.633387 0.166674 0.593027
0.633387 0.166674 0.593027
0.633387 0.166674 0.593027
0.110155 0.248249 0.486564
0.110155 0.248249 0.486564
0.110155 0.248249 0.486564
0.25977 0.0938125 0.532265
0.633387 0.166674 0.593027
0.633387 0.166674 0.593027
0.633387 0.166674 0.593027
0.633387 0.166674 0.593027
0.633387 0.166674 0.593027
0.110155 0.248249 0.486564
0.110155 0.248249 0.486564
0.110155 0.248249 0.486564
0.125795 0.0756542 0.501686
0.633387 0.166674 0.593027
0.633387 0.166674 0.593027
0.633387 0.166674 0.593027
0.633387 0.166674 0.593027
0.633387 0.166674 0.593027
0.205447 0.502159 0.651957
0.205341 0.501839 0.652003
0.205081 0.501091 0.652079
0.204028 0.4981 0.652201
0.522377 0.496071 0.828916
0.853895 0.49102 0.851606
0.843732 0.45922 0.840391
0.841031 0.450935 0.837385
0.840208 0.448402 0.836469
0.287968 0.723964 0.742184
0.287938 0.723873 0.742245
0.287907 0.723766 0.74229
0.287739 0.723308 0.742565
0.28188 0.704982 0.76022
0.875639 0.836851 0.955062
0.959487 0.839261 0.960433
0.958663 0.836545 0.959655
0.958434 0.835813 0.959442
0.292683 0.738033 0.732464
0.292683 0.738033 0.732464
0.292668 0.737972 0.73254
0.292592 0.737728 0.732876
0.288823 0.726482 0.740764
0.748837 0.944121 0.937255
0.974548 0.974029 0.973648
0.974548 0.97116 0.969375
0.974548 0.970947 0.969131
0.293019 0.739086 0.731044
0.293019 0.739086 0.731044
0.293019 0.739086 0.731044
0.293095 0.739345 0.730709
0.293217 0.739712 0.730205
0.703456 0.933501 0.92903
0.974548 0.974548 0.974548
0.974548 0.974212 0.970657
0.974548 0.974243 0.971084
0.293126 0.739467 0.730541
0.293156 0.739528 0.730449
0.293172 0.73959 0.730373
0.293248 0.739834 0.730037
0.293431 0.740398 0.72929
0.692454 0.930846 0.926329
0.974212 0.974548 0.973327
0.974548 0.973846 0.966842
0.974548 0.973922 0.967498
0.110155 0.248249 0.486564
0.110155 0.248249 0.486564
0.110155 0.248249 0.486564
0.298894 0.100206 0.538964
0.633387 0.166674 0.593027
0.633387 0.166674 0.593027
0.633387 0.166674 0.593027
0.633387 0.166674 0.593027
0.633387 0.166674 0.593027
0.110155 0.248249 0.486564
0.110155 0.248249 0.486564
0.110155 0.248249 0.486564
0.285832 0.0980087 0.536736
0.633387 0.166674 0.593027
0.633387 0.166674 0.593027
0.633387 0.166674 0.593027
0.633387 0.166674 0.593027
0.633387 0.166674 0.593027
0.110155 0.248249 0.486564
0.110155 0.248249 0.486564
0.110155 0.248249 0.486564
0.256596 0.0933089 0.531685
0.633387 0.166674 0.593027
0.633387 0.166674 0.593027
0.633387 0.166674 0.593027
0.633387 0.166674 0.593027
0.633387 0.166674 0.593027
0.110155 0.248249 0.486564
0.110155 0.248249 0.486564
0.110155 0.248249 0.486564
0.121721 0.0752117 0.500404
0.633387 0.166674 0.593027
0.633387 0.166674 0.593027
0.633387 0.166674 0.593027
0.633387 0.166674 0.593027
0.633387 0.166674 0.593027
0.204746 0.500175 0.652064
0.204639 0.499855 0.652125
0.204395 0.499138 0.652201
0.203357 0.496162 0.652399
0.522362 0.489143 0.826566
0.851377 0.483146 0.848829
0.840818 0.450233 0.837125
0.838041 0.441718 0.834028
0.837201 0.439185 0.833112
0.287877 0.723674 0.742351
0.287846 0.723583 0.742397
0.287816 0.723491 0.742458
0.287648 0.723033 0.742687
0.280751 0.701991 0.75874
0.875074 0.833799 0.954208
0.958602 0.836362 0.959594
0.957778 0.833631 0.958816
0.957565 0.832914 0.958602
0.292653 0.737911 0.732616
0.292622 0.73785 0.732708
0.292622 0.73785 0.732708
0.292546 0.737591 0.733043
0.288853 0.726589 0.740719
0.747845 0.943908 0.93724
0.974548 0.974395 0.974304
0.974548 0.971405 0.970245
0.974548 0.971267 0.970123
0.293019 0.739086 0.731044
0.293019 0.739086 0.731044
0.293019 0.739086 0.731044
0.293019 0.739086 0.731044
0.293019 0.739086 0.731044
0.700359 0.932967 0.929854
0.974548 0.974548 0.974548
0.974548 0.974548 0.974548
0.974548 0.974548 0.974548
0.293019 0.739086 0.731044
0.293019 0.739086 0.731044
0.293019 0.739086 0.731044
0.293019 0.739086 0.731044
0.293019 0.739086 0.731044
0.688151 0.930114 0.927535
0.974548 0.974548 0.974548
0.974548 0.974472 0.973587
0.974548 0.974533 0.97435
