public/images/Fine Arts Cadres /TC_-_EDITING_ESSENTIALS_-_COLOR/TC - DUNKIRK.cube
TITLE "Generated by Resolve"
LUT_3D_SIZE 33
0 0 0
0 0 0
0 0 0
0 0 0
0 0 0
0 0 0
0 0 0
0 0 0
0 0 0
0 0 0
0.0888991 0.0124208 0
0.121187 0.00738537 0
0.158129 0.000839246 0
0.198184 0 0
0.240803 0 0
0.286961 0 0
0.330785 0 0
0.371298 0 0
0.410773 0 0
0.450172 0 0
0.489433 0 0
0.531258 0 0
0.575219 0 0
0.618006 0 0
0.660075 0 0
0.700893 0 0
0.745632 0 0
0.786282 0 0
0.826444 0 0
0.866285 0 0
0.906004 0 0
0.945068 0 0
0.984558 0 0
0 0 0
0 0 0
0 0 0
0 0 0
0 0 0
0 0 0
0 0 0
0 0 0
0.0448615 0.0202945 0
0.0776837 0.0171817 0
0.115038 0.0106203 0
0.15465 0.00189212 0
0.200595 0 0
0.247318 0 0
0.293599 0 0
0.343633 0 0
0.392721 0 0
0.435309 0 0
0.473243 0 0
0.510628 0 0
0.547814 0 0
0.587442 0 0
0.629084 0 0
0.669978 0 0
0.710658 0 0
0.751308 0 0
0.79144 0 0
0.831434 0 0
0.870954 0 0
0.910292 0 0
0.949416 0 0
0.98819 0 0
1 0 0
0 0 0
0 0 0
0 0 0
0 0 0
0 0 0
0 0 0
0.0248569 0.019501 0
0.0479744 0.0184634 0
0.0826123 0.0134737 0
0.116442 0.00639353 0
0.152422 0 0
0.193317 0 0
0.238834 0 0
0.285161 0 0
0.334081 0 0
0.38674 0 0
0.436377 0 0
0.478309 0 0
0.515999 0 0
0.553323 0 0
0.590707 0 0
0.630182 0 0
0.67158 0 0
0.712276 0 0
0.752789 0 0
0.793118 0 0
0.833356 0 0
0.873213 0 0
0.912612 0 0
0.951934 0 0
0.990845 0 0
1 0 0
1 0 0
0 0 0
0 0 0
0 0 0
0 0 0
0.0149844 0.016556 0
0.0285039 0.0178225 0
0.0527199 0.0170596 0
0.0824598 0.0145876 0
0.109377 0.0122225 0
0.137469 0.0104067 0
0.172076 0.00889601 0
0.213657 0.00717174 0
0.262348 0.00442512 0
0.313008 0.000289921 0
0.366705 0 0
0.423301 0 0
0.473274 0 0
0.515435 0 0
0.553399 0 0
0.591058 0 0
0.628504 0 0
0.668437 0 0
0.710094 0 0
0.751034 0 0
0.79173 0 0
0.832258 0 0
0.872602 0 0
0.912428 0 0
0.952026 0 0
0.991196 0 0
1 0 0
1 0 0
1 0 0
0.00553903 0.0208743 0
0.00480659 0.0222934 0
0.00283818 0.0253452 0
0.00779736 0.0278019 0
0.0212558 0.0293431 0
0.0409552 0.0316777 0
0.0647746 0.0324254 0
0.0906539 0.0323796 0
0.115068 0.0323644 0
0.14493 0.0321965 0
0.182818 0.0314183 0
0.228977 0.02916 0
0.282887 0.02533 0
0.338369 0.0201877 0
0.397147 0.0131228 0
0.455039 0.00482185 0
0.50573 0 0
0.548455 0 0
0.586969 0 0
0.625132 0 0
0.66305 0 0
0.703563 0 0
0.745495 0 0
0.786709 0 0
0.827634 0 0
0.868437 0 0
0.908919 0 0
0.948882 0 0
0.988525 0 0
1 0 0
1 0 0
1 0 0
1 0 0
0 0.0464332 0
0 0.0511177 0
0 0.0536355 0
0.000137331 0.0556954 0
0.018967 0.056611 0
0.0406653 0.0567788 0
0.064622 0.0588693 0
0.0903487 0.0603494 0
0.116655 0.0604562 0
0.149874 0.0596628 0
0.191836 0.057847 0
0.242542 0.0546426 0
0.301701 0.0495766 0
0.362158 0.0429389 0
0.424536 0.0345769 0
0.483452 0.0253452 0
0.534997 0.0161746 0
0.578363 0.00764477 0
0.617441 0 0
0.656153 0 0
0.694575 0 0
0.735592 0 0
0.77789 0 0
0.819471 0 0
0.860792 0 0
0.9019 0 0
0.942535 0 0
0.982773 0 0
1 0 0
1 0 0
1 0 0
1 0 0
1 0 0
0 0.0802319 0
0 0.0826581 0
0 0.0842145 0
0 0.0857404 0
0.014725 0.086656 0
0.0373541 0.0867628 0
0.0619516 0.0865644 0
0.0885481 0.0877394 0
0.11783 0.0880446 0
0.154467 0.0873426 0
0.20032 0.085359 0
0.25539 0.081651 0
0.319371 0.0754253 0
0.384604 0.0676432 0
0.448646 0.0584268 0
0.508614 0.0484016 0
0.561028 0.0384985 0
0.605112 0.0293431 0
0.64477 0.0203555 0
0.684047 0.0108492 0
0.723033 0.000808728 0
0.764645 0 0
0.80737 0 0
0.849332 0 0
0.891035 0 0
0.932479 0 0
0.973266 0 0
1 0 0
1 0 0
1 0 0
1 0 0
1 0 0
1 0 0
0 0.109941 0
0 0.111482 0
0 0.112627 0
0 0.113725 0
0.00814832 0.114702 0
0.0314641 0.115465 0
0.0565652 0.115938 0
0.0846571 0.116091 0
0.11722 0.116869 0
0.157473 0.116808 0
0.207294 0.115511 0
0.266712 0.112535 0
0.335256 0.107317 0
0.404242 0.100099 0
0.469337 0.0914473 0
0.530221 0.0812848 0
0.583474 0.0706493 0
0.628168 0.0610361 0
0.668452 0.0516518 0
0.708309 0.0417334 0
0.747875 0.0312505 0
0.790158 0.0193332 0
0.833371 0.00639353 0
0.875837 0 0
0.917983 0 0
0.959731 0 0
1 0 0
1 0 0
1 0 0
1 0 0
1 0 0
1 0 0
1 0 0
0 0.143038 0
0 0.145083 0
0 0.14667 0
0 0.148196 0
0 0.149615 0
0.0182193 0.150912 0
0.0437018 0.152041 0
0.0733349 0.15285 0
0.111147 0.153079 0
0.1561 0.153735 0
0.210681 0.153277 0
0.274968 0.151186 0
0.348409 0.147005 0
0.420066 0.141146 0
0.486198 0.134218 0
0.548074 0.126253 0
0.602136 0.117952 0
0.647471 0.109865 0
0.688304 0.101564 0
0.72871 0.0923018 0
0.768917 0.0818036 0
0.811856 0.0692149 0
0.855573 0.0558175 0
0.898543 0.0418708 0
0.941207 0.0271763 0
0.983078 0.0119936 0
1 0 0
1 0 0
1 0 0
1 0 0
1 0 0
1 0 0
1 0 0
0 0.185901 0
0 0.188357 0
0 0.190372 0
0 0.19234 0
0 0.194217 0
0 0.195987 0
0.0193027 0.19762 0
0.0510719 0.198947 0
0.094667 0.199817 0
0.147723 0.199924 0
0.208698 0.200259 0
0.278996 0.199084 0
0.358083 0.195941 0
0.431907 0.19147 0
0.499321 0.18613 0
0.562295 0.179965 0
0.617227 0.173556 0
0.663157 0.167407 0
0.704448 0.161212 0
0.745449 0.154376 0
0.786252 0.146838 0
0.829892 0.137896 0
0.874098 0.127764 0
0.917632 0.116487 0
0.960754 0.103853 0
1 0.0900435 0
1 0.0749828 0
1 0.0605783 0
1 0.0474403 0
1 0.0361486 0
1 0.0269017 0
1 0.0184176 0
1 0.0106355 0
0 0.238315 0
0 0.241215 0
0 0.243748 0
0 0.24622 0
0 0.248569 0
0 0.250797 0
0 0.252888 0
0.0127413 0.254688 0
0.0598917 0.256001 0
0.126421 0.256733 0
0.198398 0.256641 0
0.276493 0.256519 0
0.362188 0.254536 0
0.438224 0.251453 0
0.507469 0.247562 0
0.571786 0.242939 0
0.627756 0.238087 0
0.674357 0.233433 0
0.716243 0.228733 0
0.757855 0.22359 0
0.799359 0.217945 0
0.843626 0.211368 0
0.88838 0.204044 0
0.932479 0.196078 0
0.975769 0.187488 0
1 0.178622 0
1 0.169497 0
1 0.16051 0
1 0.152056 0
1 0.144656 0
1 0.137728 0
1 0.130922 0
1 0.124605 0
0 0.300969 0
0 0.304326 0
0 0.307393 0
0 0.310399 0
0 0.313222 0
0 0.315923 0
0 0.318486 0
0 0.32076 0
0.00169375 0.322591 0
0.0801404 0.323934 0
0.172869 0.324361 0
0.264179 0.323934 0
0.357748 0.323247 0
0.437125 0.321492 0
0.508873 0.318898 0
0.575051 0.315648 0
0.632303 0.312139 0
0.679759 0.308675 0
0.722438 0.30515 0
0.764904 0.301274 0
0.807385 0.296986 0
0.852903 0.29192 0
0.899031 0.286229 0
0.944671 0.280003 0
0.988663 0.273396 0
1 0.266575 0
1 0.259724 0
1 0.253239 0
1 0.247517 0
1 0.242557 0
1 0.237919 0
1 0.233799 0
1 0.230442 0
0 0.372442 0
0 0.376181 0
0 0.379629 0
0 0.382956 0
0 0.386084 0
0 0.389059 0
0 0.391836 0
0 0.394339 0
0 0.396399 0
0.000106813 0.398047 0
0.123812 0.398871 0
0.237583 0.398428 0
0.343465 0.397452 0
0.427741 0.396612 0
0.502937 0.394995 0
0.571893 0.392721 0
0.631418 0.390127 0
0.680598 0.387488 0
0.725093 0.384695 0
0.769467 0.381552 0
0.813947 0.378012 0
0.861479 0.373785 0
0.909255 0.36907 0
0.95584 0.363989 0
0.999313 0.358831 0
1 0.353704 0
1 0.348913 0
1 0.344656 0
1 0.341146 0
1 0.338048 0
1 0.335271 0
1 0.332952 0
1 0.331151 0
0 0.43653 0
0 0.440208 0
0 0.44361 0
0 0.446906 0
0 0.449973 0
0 0.452903 0
0 0.45565 0
0 0.458137 0
0 0.460227 0
0 0.461982 0
0.0496529 0.463004 0
0.202441 0.462959 0
0.32282 0.461646 0
0.414267 0.460914 0
0.493782 0.459968 0
0.566186 0.458274 0
0.628183 0.456168 0
0.679118 0.453956 0
0.724865 0.451591 0
0.770275 0.44889 0
0.815305 0.445899 0
0.862959 0.442374 0
0.910353 0.438514 0
0.955703 0.434485 0
0.997803 0.430488 0
1 0.426627 0
1 0.423026 0
1 0.419944 0
1 0.417441 0
1 0.415244 0
1 0.413306 0
1 0.411719 0
1 0.410559 0
0 0.498863 0
0 0.502525 0
0 0.505928 0
0 0.509194 0
0 0.512261 0
0 0.515206 0
0 0.517937 0
0 0.520439 0
0 0.522591 0
0 0.524636 0
0 0.526192 0
0.147982 0.526833 0
0.292241 0.526192 0
0.393469 0.524605 0
0.479179 0.523781 0
0.554955 0.522408 0
0.618723 0.520607 0
0.670558 0.518715 0
0.716823 0.516732 0
0.762524 0.514488 0
0.807767 0.512016 0
0.855451 0.509148 0
0.902617 0.506065 0
0.947402 0.502861 0
0.989059 0.499687 0
1 0.496651 0
1 0.493858 0
1 0.491508 0
1 0.489677 0
1 0.488075 0
1 0.486732 0
1 0.485725 0
1 0.485145 0
0 0.560464 0
0 0.564111 0
0 0.567514 0
0 0.570748 0
0 0.573754 0
0 0.576638 0
0 0.579507 0
0 0.582345 0
0 0.58497 0
0 0.587503 0
0 0.58938 0
0.0503548 0.590005 0
0.249195 0.58912 0
0.364385 0.587304 0
0.458106 0.584863 0
0.537606 0.58352 0
0.603235 0.581964 0
0.656153 0.580346 0
0.703182 0.578653 0
0.749569 0.576761 0
0.795468 0.574685 0
0.84358 0.572305 0
0.891051 0.56968 0
0.935714 0.567056 0
0.977234 0.564446 0
1 0.561944 0
1 0.559747 0
1 0.557916 0
1 0.556573 0
1 0.555474 0
1 0.554604 0
1 0.554055 0
1 0.553826 0
0 0.615686 0
0 0.619181 0
0 0.622415 0
0 0.625559 0
0 0.628717 0
0 0.631983 0
0 0.635279 0
0 0.638437 0
0 0.641123 0
0 0.64329 0
0 0.644404 0
0 0.644205 0
0.200229 0.642817 0
0.333135 0.640864 0
0.433936 0.638392 0
0.519005 0.635935 0
0.586755 0.634607 0
0.640879 0.63328 0
0.688792 0.631876 0
0.735943 0.630274 0
0.782422 0.628519 0
0.830961 0.626505 0
0.87834 0.624338 0
0.922835 0.622126 0
0.964034 0.620005 0
1 0.618006 0
1 0.616281 0
1 0.614908 0
1 0.613962 0
1 0.613245 0
1 0.612711 0
1 0.61239 0
1 0.612299 0
0 0.662745 0
0 0.666285 0
0 0.66981 0
0 0.673472 0
0 0.677134 0
0 0.680751 0
0 0.684047 0
0 0.686748 0
0 0.688624 0
0 0.68986 0
0 0.690181 0
0 0.689509 0
0.145068 0.687922 0
0.301625 0.685985 0
0.410712 0.68365 0
0.49955 0.68101 0
0.570825 0.679042 0
0.6262 0.677867 0
0.674952 0.676631 0
0.722683 0.675242 0
0.769604 0.673686 0
0.818357 0.671931 0
0.865644 0.670054 0
0.909911 0.668223 0
0.951064 0.666438 0
0.98851 0.66479 0
1 0.663386 0
1 0.662303 0
1 0.66154 0
1 0.661006 0
1 0.660609 0
1 0.660395 0
1 0.66041 0
0 0.707134 0
0 0.711192 0
0 0.715221 0
0 0.719265 0
0 0.722896 0
0 0.725978 0
0 0.728328 0
0 0.730007 0
0 0.731029 0
0 0.731548 0
0 0.73138 0
0 0.730449 0
0.0715953 0.728786 0
0.268284 0.726802 0
0.387213 0.724483 0
0.480644 0.721904 0
0.554101 0.719356 0
0.611811 0.717815 0
0.661341 0.71667 0
0.709636 0.715419 0
0.757015 0.714061 0
0.806058 0.712505 0
0.853407 0.710918 0
0.897887 0.709316 0
0.939284 0.70779 0
0.976959 0.706401 0
1 0.705211 0
1 0.704311 0
1 0.703716 0
1 0.703334 0
1 0.703059 0
1 0.702953 0
1 0.703059 0
0 0.752819 0
0 0.757275 0
0 0.761349 0
0 0.764813 0
0 0.767376 0
0 0.769238 0
0 0.77055 0
0 0.771389 0
0 0.771801 0
0 0.771847 0
0 0.771389 0
0 0.770214 0
0 0.768307 0
0.231159 0.766171 0
0.362676 0.763729 0
0.461311 0.76112 0
0.537285 0.758556 0
0.596262 0.756222 0
0.647761 0.75494 0
0.696757 0.753857 0
0.744747 0.752697 0
0.794324 0.751415 0
0.842023 0.750072 0
0.886809 0.748745 0
0.928481 0.747463 0
0.966384 0.746288 0
0.999847 0.745296 0
1 0.744549 0
1 0.744106 0
1 0.743832 0
1 0.743633 0
1 0.743603 0
1 0.74377 0
0 0.798489 0
0 0.802319 0
0 0.805219 0
0 0.80734 0
0 0.808682 0
0 0.809567 0
0 0.810132 0
0 0.810437 0
0 0.810468 0
0 0.810162 0
0 0.809293 0
0 0.80766 0
0 0.805371 0
0.191745 0.802991 0
0.338537 0.800458 0
0.442603 0.797833 0
0.521157 0.795392 0
0.581491 0.793271 0
0.63418 0.79144 0
0.684794 0.790188 0
0.733547 0.789227 0
0.783719 0.788159 0
0.83183 0.787045 0
0.876921 0.785931 0
0.918807 0.784833 0
0.956863 0.783841 0
0.990311 0.782986 0
1 0.782361 0
1 0.78201 0
1 0.781781 0
1 0.781674 0
1 0.781689 0
1 0.781888 0
0 0.842893 0
0 0.845228 0
0 0.84683 0
0 0.847852 0
0 0.848325 0
0 0.848585 0
0 0.848692 0
0 0.848585 0
0 0.848188 0
0 0.847349 0
0 0.845869 0
0 0.843641 0
0 0.840955 0
0.148318 0.838376 0
0.314336 0.835752 0
0.424231 0.833204 0
0.505516 0.830869 0
0.56759 0.828809 0
0.621241 0.826841 0
0.673671 0.824964 0
0.72369 0.823865 0
0.774563 0.822812 0
0.823316 0.821683 0
0.868498 0.820554 0
0.910552 0.819425 0
0.948608 0.818357 0
0.981903 0.817441 0
1 0.816724 0
1 0.816266 0
1 0.8159 0
1 0.815641 0
1 0.815518 0
1 0.815564 0
0 0.882124 0
0 0.883055 0
0 0.883528 0
0 0.883604 0
0 0.88333 0
0 0.882872 0
0 0.882246 0
0 0.881376 0
0 0.880156 0
0 0.878416 0
0 0.876143 0
0 0.873426 0
0 0.870558 0
0.107118 0.867994 0
0.294484 0.865492 0
0.409659 0.863081 0
0.4934 0.860899 0
0.556878 0.858991 0
0.611551 0.85716 0
0.664332 0.855207 0
0.716472 0.85359 0
0.767758 0.852689 0
0.816709 0.851713 0
0.861997 0.850752 0
0.903944 0.849805 0
0.941726 0.848936 0
0.974655 0.848234 0
1 0.84773 0
1 0.847471 0
1 0.847303 0
1 0.847227 0
1 0.847272 0
1 0.847501 0
0 0.913237 0
0 0.913451 0
0 0.913436 0
0 0.913176 0
0 0.912566 0
0 0.911818 0
0 0.910887 0
0 0.909667 0
0 0.908171 0
0 0.906279 0
0 0.904143 0
0 0.901778 0
0 0.899336 0
0.0531777 0.897169 0
0.272419 0.895033 0
0.393713 0.892989 0
0.480278 0.891081 0
0.545342 0.889403 0
0.601175 0.887755 0
0.654932 0.885985 0
0.707286 0.884092 0
0.76054 0.882872 0
0.809689 0.882033 0
0.855085 0.881193 0
0.896895 0.880385 0
0.934417 0.879652 0
0.96698 0.879072 0
0.994141 0.878676 0
1 0.878523 0
1 0.878416 0
1 0.878416 0
1 0.878538 0
1 0.878813 0
0 0.942626 0
0 0.942611 0
0 0.942382 0
0 0.941817 0
0 0.940856 0
0 0.939696 0
0 0.938338 0
0 0.936782 0
0 0.935149 0
0 0.933379 0
0 0.931517 0
0 0.929458 0
0 0.927367 0
0 0.925475 0
0.248676 0.923598 0
0.37763 0.921706 0
0.467338 0.919951 0
0.534157 0.918364 0
0.591257 0.916823 0
0.646067 0.91519 0
0.699275 0.913436 0
0.753292 0.911757 0
0.803204 0.910735 0
0.848661 0.910002 0
0.890349 0.9093 0
0.92755 0.90869 0
0.95967 0.908232 0
0.986313 0.907958 0
1 0.907866 0
1 0.907851 0
1 0.907927 0
1 0.90811 0
1 0.908461 0
0 0.970077 0
0 0.969726 0
0 0.969116 0
0 0.968124 0
0 0.966705 0
0 0.965164 0
0 0.963607 0
0 0.962097 0
0 0.960723 0
0 0.959274 0
0 0.957732 0
0 0.955993 0
0 0.954192 0
0 0.952453 0
0.224414 0.950683 0
0.36199 0.948898 0
0.455039 0.947234 0
0.523674 0.945739 0
0.58204 0.944305 0
0.637873 0.942763 0
0.691936 0.941131 0
0.745937 0.939345 0
0.797345 0.93785 0
0.842802 0.937194 0
0.884321 0.936568 0
0.921111 0.936049 0
0.952743 0.935668 0
0.978851 0.935454 0
1 0.935439 0
1 0.93547 0
1 0.935576 0
1 0.935805 0
1 0.936172 0
0 0.99472 0
0 0.993988 0
0 0.99295 0
0 0.991516 0
0 0.989883 0
0 0.988342 0
0 0.986984 0
0 0.985809 0
0 0.984741 0
0 0.983612 0
0 0.982376 0
0 0.98085 0
0 0.979141 0
0 0.977478 0
0.200885 0.975784 0
0.347814 0.974075 0
0.444068 0.972503 0
0.514351 0.971099 0
0.573922 0.969741 0
0.630747 0.968292 0
0.685557 0.966751 0
0.740093 0.965072 0
0.790829 0.963348 0
0.837812 0.962325 0
0.878981 0.961761 0
0.915404 0.961273 0
0.946456 0.960937 0
0.971954 0.960784 0
0.993103 0.960769 0
1 0.960815 0
1 0.960937 0
1 0.961181 0
1 0.961547 0
0 1 0
0 1 0
0 1 0
0 1 0
0 1 0
0 1 0
0 1 0
0 1 0
0 1 0
