public/images/Fine Arts Cadres /TC_-_EDITING_ESSENTIALS_-_COLOR/TC - TRUE DETECTIVE - LOG TO LOOK - 2.cube
TITLE "Generated by Resolve"
LUT_3D_SIZE 9
0.00588998 0.0105287 0.0117342
0.00639353 0.011841 0.0126955
0.0591897 0.0290379 0.0110475
0.111315 0.0335241 0.00343328
0.19176 0.0248112 0
0.333242 0 0
0.408453 0 0
0.461738 0 0
0.520562 0 0.00749218
0.00616464 0.0162966 0.0173648
0.00920119 0.0219883 0.0201572
0.0835584 0.0394751 0.0119173
0.152941 0.0458381 0.000183108
0.280583 0.0302281 0
0.452293 0.000579843 0
0.525505 0.00308232 0
0.594202 0.00798047 0.00386053
0.661616 0.016083 0.0227207
0.00802625 0.0483864 0.041001
0.00944533 0.0575265 0.0395361
0.122484 0.102312 0.0177768
0.256062 0.113085 0.00148013
0.473915 0.100084 0
0.639017 0.0824598 0
0.698238 0.0777752 0
0.753353 0.0741283 0
0.809903 0.0696727 0
0.00981155 0.0910201 0.0737469
0.0096437 0.0958114 0.0580301
0.151339 0.177996 0.0273136
0.341817 0.228 0.0195315
0.57966 0.255756 0.010193
0.726574 0.266987 0.0126802
0.777279 0.273838 0.0155489
0.827222 0.281071 0.0191806
0.876616 0.287083 0.0234226
0.0146334 0.178958 0.12491
0.013489 0.177874 0.083238
0.156054 0.318395 0.0397345
0.422431 0.444892 0.108949
0.652323 0.511467 0.100359
0.784756 0.534371 0.0929427
0.831083 0.54461 0.0930648
0.874113 0.55555 0.0942855
0.913085 0.566659 0.0961471
0.0263828 0.299901 0.176379
0.0280613 0.293248 0.12018
0.165988 0.469368 0.0737011
0.4663 0.586938 0.141894
0.705379 0.665339 0.186175
0.817212 0.686946 0.168627
0.860716 0.694697 0.163699
0.900313 0.702922 0.160723
0.932342 0.710964 0.159564
0.0354162 0.364019 0.201129
0.0435187 0.364111 0.140505
0.195651 0.547951 0.10074
0.506096 0.657923 0.162844
0.744488 0.735454 0.225391
0.834714 0.7523 0.2065
0.875013 0.762158 0.201755
0.912612 0.767697 0.19585
0.942428 0.776165 0.194217
0.0480964 0.431434 0.223835
0.0675364 0.454734 0.175296
0.220279 0.624369 0.128359
0.545998 0.727153 0.183566
0.77731 0.798306 0.248508
0.854078 0.816052 0.245991
0.890959 0.824811 0.239796
0.924361 0.832288 0.234653
0.951095 0.839796 0.232059
0.0705119 0.509987 0.251331
0.0964218 0.547204 0.215732
0.249607 0.699382 0.153399
0.582895 0.793317 0.203159
0.805539 0.857053 0.264012
0.872724 0.877134 0.283726
0.908217 0.885466 0.27895
0.937163 0.892256 0.273396
0.960174 0.89897 0.270375
0.00588998 0.0105287 0.0117342
0.00634775 0.0117189 0.0126192
0.0579232 0.028809 0.0111391
0.109789 0.0335546 0.00364691
0.189212 0.0251774 0
0.330678 0 0
0.406043 0 0
0.455268 0 0.00329595
0.510246 0 0.0229496
0.00621042 0.0170748 0.0180972
0.0108034 0.0233463 0.0209354
0.0846876 0.0410163 0.0122072
0.15555 0.0478523 0.000198367
0.285542 0.0322728 0
0.460945 0.000595102 0
0.537987 0.00251774 0
0.605356 0.00756847 0.0163729
0.673365 0.016144 0.0408179
0.00807202 0.0494087 0.0417945
0.00950637 0.0590677 0.0399176
0.125628 0.104585 0.0177768
0.259098 0.115846 0.00170901
0.477546 0.103639 0
0.644038 0.0838178 0
0.705562 0.0765545 0
0.763745 0.0673838 0
0.824521 0.056611 0.00334173
0.00987259 0.0925765 0.074815
0.00976577 0.098146 0.0576791
0.155612 0.181903 0.027985
0.348135 0.233295 0.0205234
0.583871 0.263035 0.0127871
0.730388 0.271824 0.0163577
0.782544 0.276127 0.0209659
0.834745 0.279225 0.0275731
0.886641 0.281987 0.0366217
0.0153658 0.187335 0.131762
0.0142367 0.187381 0.0893568
0.15288 0.328405 0.0413367
0.425864 0.454948 0.111498
0.65658 0.521004 0.105669
0.787106 0.541878 0.0979019
0.834348 0.552224 0.0988174
0.879316 0.562356 0.101305
0.919692 0.570642 0.104906
0.0301061 0.323919 0.197864
0.0302434 0.315587 0.140459
0.156649 0.480858 0.0835279
0.4645 0.596826 0.143664
0.708858 0.674891 0.192538
0.818555 0.694484 0.17406
0.86331 0.702281 0.169421
0.903777 0.709316 0.166567
0.936782 0.71545 0.165866
0.0427863 0.402045 0.236072
0.0468147 0.395499 0.173434
0.176593 0.561837 0.114687
0.498802 0.669825 0.164141
0.745663 0.746731 0.233677
0.83566 0.762722 0.214527
0.877058 0.770977 0.20853
0.915923 0.77644 0.203037
0.946609 0.781506 0.200397
0.0592355 0.483421 0.27245
0.0715343 0.489906 0.216129
0.185092 0.644038 0.149432
0.531243 0.741588 0.184375
0.772076 0.809186 0.249454
0.852872 0.827192 0.255879
0.891569 0.834806 0.248249
0.926436 0.840085 0.241489
0.954803 0.846677 0.238666
0.0813764 0.571557 0.314427
0.0999008 0.584848 0.262684
0.192859 0.7243 0.18294
0.560265 0.80824 0.203311
0.794079 0.867094 0.263874
0.865309 0.884993 0.283909
0.90663 0.895293 0.288472
0.937972 0.900175 0.280858
0.963287 0.906279 0.27715
0.00486763 0.0111543 0.0190433
0.0047303 0.0125124 0.0210575
0.0639658 0.0294957 0.0274968
0.124102 0.0262303 0.022034
0.199435 0.0104219 0.0189975
0.331975 0 0.0314336
0.40589 0 0.0578012
0.453483 0 0.0765087
0.509392 0 0.0947433
0.00445563 0.0196384 0.0287327
0.00801099 0.0246128 0.0350958
0.0894636 0.0436103 0.0417945
0.176699 0.0365759 0.035172
0.309178 0.0116884 0.0349126
0.485054 0 0.0556191
0.561364 0.000793469 0.0788739
0.626123 0.00721752 0.100313
0.689921 0.0154269 0.121691
0.00567636 0.06421 0.0711223
0.00839246 0.0686351 0.071046
0.119432 0.115816 0.0688945
0.277317 0.118059 0.0496681
0.499352 0.0964065 0.0469825
0.665949 0.0671855 0.0513466
0.72575 0.055375 0.063035
0.77789 0.0473487 0.0759442
0.83267 0.045243 0.0947433
0.00857557 0.138872 0.146731
0.013138 0.135409 0.12488
0.0645457 0.204562 0.063798
0.339498 0.263706 0.0643931
0.590494 0.283131 0.0690929
0.742031 0.285573 0.0791943
0.794965 0.287068 0.0905013
0.846662 0.289967 0.102159
0.897536 0.290776 0.115892
0.0319982 0.293797 0.271611
0.026627 0.281209 0.213153
0.0556649 0.373541 0.147982
0.368841 0.489357 0.121752
0.646784 0.551217 0.146365
0.785458 0.56466 0.142473
0.835676 0.572213 0.148211
0.883131 0.581643 0.157107
0.925689 0.589761 0.168551
0.0556802 0.429297 0.357061
0.0503548 0.428046 0.289723
0.0976425 0.525139 0.220508
0.389105 0.62681 0.1561
0.687831 0.698695 0.219791
0.808225 0.713298 0.206622
0.858335 0.719326 0.205631
0.90222 0.725017 0.208484
0.938857 0.733715 0.215946
0.0691691 0.486107 0.398733
0.067216 0.502464 0.334173
0.122133 0.602869 0.258244
0.416022 0.695888 0.178042
0.712551 0.761868 0.238071
0.821714 0.781918 0.246082
0.868574 0.786984 0.240787
0.912734 0.791928 0.240742
0.946868 0.799985 0.245808
0.0860914 0.551644 0.437263
0.0874342 0.578988 0.372061
0.140963 0.672358 0.301137
0.444297 0.761578 0.200549
0.734798 0.822446 0.256504
0.833783 0.844831 0.280064
0.880491 0.852583 0.279438
0.92134 0.857984 0.275792
0.953552 0.864271 0.278126
0.104036 0.619944 0.476692
0.105821 0.647898 0.405127
0.158663 0.739055 0.344259
0.472541 0.826322 0.223972
0.754604 0.87953 0.274952
0.838132 0.896483 0.293675
0.890288 0.908965 0.306584
0.930617 0.916533 0.310842
0.959304 0.922789 0.310765
0.00111391 0.00643931 0.0401007
0.000717174 0.00656138 0.0429084
0.057557 0.0195773 0.0696117
0.118639 0.0142367 0.0785382
0.188388 0 0.0775006
0.314244 0 0.0960861
0.38436 0 0.115923
0.428733 0 0.135729
0.481025 0 0.156176
0.000350958 0.0223087 0.0583047
0 0.0225986 0.0637675
0.0781415 0.0353094 0.0995651
0.175296 0.0252384 0.110597
0.308705 0.000213626 0.109224
0.488746 0 0.139376
0.561166 0.0015259 0.169146
0.620325 0.00724804 0.197253
0.67924 0.0146334 0.225422
0 0.10074 0.156878
0 0.0912032 0.142245
0.0586404 0.102419 0.166125
0.264454 0.119997 0.184512
0.490135 0.0822309 0.17882
0.652018 0.0488899 0.194461
0.708446 0.0347448 0.215061
0.762341 0.0388495 0.246326
0.817426 0.0459144 0.27924
0 0.217121 0.306081
0 0.196887 0.265324
0.025864 0.208087 0.215778
0.313451 0.305943 0.245304
0.602335 0.296361 0.219852
0.761196 0.284337 0.230671
0.817182 0.28246 0.252995
0.871672 0.27776 0.275486
0.90959 0.27863 0.304143
0 0.373938 0.42974
0.0148928 0.374838 0.400763
0.0558938 0.397757 0.311406
0.244694 0.523552 0.247822
0.639902 0.575967 0.230228
0.793103 0.580957 0.261112
0.850065 0.58555 0.28481
0.902815 0.589059 0.308751
0.944183 0.595163 0.333227
0.0387274 0.472908 0.494728
0.0811933 0.49601 0.479484
0.0882429 0.531411 0.384482
0.217716 0.646281 0.278431
0.654276 0.714336 0.264424
0.804791 0.72784 0.286488
0.862303 0.731258 0.307012
0.912978 0.735515 0.328222
0.955764 0.738369 0.349706
0.0681468 0.517647 0.529259
0.0975357 0.557641 0.52047
0.104784 0.594354 0.43032
0.238621 0.708461 0.317571
0.670604 0.776745 0.293187
0.811429 0.794537 0.30779
0.867414 0.798978 0.323095
0.918929 0.803159 0.343984
0.958663 0.80795 0.3626
0.107774 0.575448 0.570199
0.114595 0.622049 0.563775
0.120226 0.654536 0.476036
0.260914 0.769207 0.355154
0.683665 0.835386 0.321355
0.808301 0.853971 0.332021
0.871962 0.863615 0.3411
0.920592 0.867521 0.356252
0.959136 0.8719 0.374762
0.122255 0.63183 0.607828
0.128481 0.676188 0.595865
0.134783 0.712093 0.519829
0.29305 0.832807 0.382986
0.694057 0.891173 0.348638
0.801816 0.905196 0.357259
0.869093 0.914611 0.36907
0.923217 0.923095 0.380819
0.95761 0.928222 0.394049
0 0.00489815 0.0628214
0 0.0018616 0.0650645
0.0451057 0 0.0878767
0.102144 0 0.114977
0.176562 0 0.140612
0.295033 0 0.167834
0.362615 0 0.1841
0.40676 0 0.200214
0.453117 0 0.220447
0 0.044892 0.1131
0 0.0292821 0.10251
0.0542306 0.00799573 0.145922
0.155306 0 0.184146
0.309224 0 0.22063
0.484855 0 0.255238
0.55407 0.00196841 0.282261
0.609018 0.00715648 0.314412
0.663188 0.0135042 0.347875
0 0.157733 0.302586
0 0.126192 0.267002
0 0.0509804 0.246082
0.207156 0.0549325 0.324926
0.464561 0.0333104 0.340002
0.634256 0.0256046 0.356435
0.694957 0.0333104 0.388861
0.746548 0.0401617 0.422065
0.798703 0.0471351 0.450233
0 0.298329 0.440635
0 0.273396 0.418311
0 0.196323 0.344213
0.210742 0.28217 0.429953
0.583337 0.307042 0.45095
0.753124 0.281392 0.458701
0.804501 0.275929 0.479652
0.851865 0.275914 0.499001
0.897292 0.274434 0.515923
0 0.412924 0.530297
0 0.422614 0.528176
0 0.404334 0.457481
0.135576 0.507897 0.48513
0.630472 0.607202 0.528634
0.794461 0.60528 0.528771
0.852277 0.607324 0.546471
0.90483 0.61146 0.563104
0.952926 0.614801 0.578897
0 0.483818 0.579858
0 0.514672 0.587839
0.0844587 0.529793 0.536477
0.16762 0.629053 0.534646
0.628885 0.734127 0.555871
0.799161 0.751797 0.557641
0.859861 0.75288 0.573159
0.913207 0.75314 0.589471
0.957641 0.755535 0.604715
0 0.520348 0.606058
0 0.565805 0.622522
0.113725 0.590402 0.58201
0.189563 0.688884 0.568948
0.642039 0.792691 0.584085
0.797864 0.815671 0.592371
0.861769 0.820798 0.595102
0.91664 0.822339 0.608011
0.958663 0.826444 0.622202
0 0.566506 0.640131
0.0398566 0.618723 0.65864
0.128389 0.646601 0.621607
0.213245 0.749035 0.600427
0.65304 0.849744 0.609201
0.789746 0.869123 0.617533
0.860883 0.879973 0.624125
0.916884 0.885512 0.628824
0.958358 0.889128 0.642206
0.00238041 0.617899 0.67599
0.091722 0.669596 0.692683
0.142107 0.700526 0.655726
0.242176 0.809216 0.622446
0.664286 0.900755 0.634073
0.782757 0.915724 0.641855
0.856214 0.925521 0.650294
0.915297 0.93463 0.657221
0.956313 0.941039 0.663249
0 0.0300755 0.11014
0 0.0159152 0.102724
0.049485 0 0.111666
0.100206 0 0.146654
0.170092 0 0.187518
0.279713 0 0.230579
0.340978 0 0.250736
0.382559 0 0.264897
0.423926 0 0.28043
0 0.0727092 0.212177
0 0.0377813 0.170718
0.0383917 0 0.181994
0.146242 0 0.251606
0.305364 0 0.319768
0.472709 0 0.36759
0.537377 0.00329595 0.389807
0.594064 0.00805676 0.410956
0.649195 0.0140078 0.433631
0 0.217411 0.409918
0 0.185595 0.393408
0 0.00698863 0.326009
0.135119 0 0.406073
0.444724 0.00949111 0.468559
0.622278 0.0288548 0.495293
0.682399 0.0362249 0.50988
0.734386 0.0429541 0.525734
0.785443 0.0495918 0.544747
0 0.339773 0.512276
0 0.324804 0.508064
0 0.207538 0.447684
0.088777 0.240909 0.521187
0.551217 0.294362 0.600732
0.733684 0.280552 0.604044
0.788693 0.281468 0.611292
0.837049 0.2804 0.622095
0.883619 0.281071 0.630091
0 0.432181 0.586206
0 0.448814 0.600122
0 0.427344 0.568032
0.0413062 0.48513 0.581842
0.579049 0.60209 0.683024
0.77406 0.622324 0.691661
0.833082 0.623148 0.700679
0.88896 0.624704 0.706157
0.939086 0.628016 0.707881
0 0.489372 0.629587
0 0.526574 0.654307
0 0.533883 0.630961
0.121691 0.61268 0.641093
0.58323 0.732952 0.713634
0.780972 0.765759 0.731746
0.845289 0.766339 0.7337
0.902327 0.764797 0.734051
0.950286 0.766293 0.731136
0 0.521828 0.652949
0 0.567208 0.680385
0 0.589166 0.663096
0.176425 0.68069 0.677913
0.596597 0.790646 0.727947
0.773617 0.824216 0.744808
0.847562 0.833707 0.746746
0.906722 0.83357 0.743313
0.95288 0.834485 0.740017
0 0.562112 0.681331
0 0.610269 0.704601
0.0272526 0.642878 0.692363
0.201755 0.740887 0.704494
0.609155 0.845457 0.73901
0.766308 0.874937 0.75259
0.843671 0.886198 0.754391
0.907927 0.89337 0.753689
0.953765 0.895582 0.749935
0 0.608957 0.710842
0 0.65333 0.727474
0.104234 0.698497 0.720516
0.231662 0.801953 0.72256
0.625589 0.894392 0.746471
0.761959 0.918257 0.757412
0.841428 0.929061 0.759365
0.906203 0.937087 0.761227
0.952605 0.94345 0.761807
0 0.0479744 0.175662
0 0.0240177 0.146181
0.0526436 0 0.131029
0.10135 0 0.168902
0.167895 0 0.215427
0.270451 0 0.264698
0.326375 0 0.285115
0.368063 0 0.298314
0.409628 0 0.310689
0 0.102144 0.300267
0 0.0415503 0.237705
0.0390326 0 0.21117
0.144915 0 0.294133
0.301259 0 0.364096
0.468315 0.00222782 0.415641
0.53254 0.00543221 0.436255
0.588708 0.00965896 0.453849
0.647105 0.0155337 0.471717
0 0.250996 0.457084
0 0.223713 0.448234
0 0 0.366217
0.11722 0 0.45304
0.434058 0 0.517998
0.616953 0.0321202 0.551537
0.67686 0.03888 0.560784
0.730205 0.0452277 0.569329
0.782528 0.0516518 0.577768
0 0.356451 0.542275
0 0.345876 0.544198
0 0.225834 0.493385
0.0209354 0.225589 0.549691
0.530343 0.284489 0.649958
0.725231 0.286 0.663584
0.781826 0.287114 0.663828
0.835508 0.289204 0.66276
0.883986 0.294087 0.66302
0 0.439872 0.606973
0 0.459174 0.6262
0 0.445701 0.608743
0 0.479088 0.6121
0.552163 0.594125 0.726223
0.764126 0.627863 0.744671
0.826246 0.632303 0.741451
0.882933 0.636515 0.739742
0.933944 0.640162 0.740246
0 0.491096 0.643915
0 0.531121 0.672572
0 0.539818 0.6607
0.0748302 0.604807 0.665156
0.561715 0.727886 0.752422
0.772045 0.770291 0.776989
0.838392 0.771801 0.77258
0.896681 0.772015 0.769848
0.945617 0.77232 0.768444
0 0.522728 0.665003
0 0.567391 0.694102
0 0.593606 0.687999
0.151354 0.675822 0.69984
0.582422 0.790112 0.763638
0.763607 0.826276 0.781735
0.842618 0.837324 0.785016
0.901595 0.838605 0.781003
0.949081 0.839689 0.77882
0 0.562432 0.691569
0 0.608499 0.715038
0 0.643595 0.708965
0.201099 0.74197 0.728618
0.595483 0.844572 0.770642
0.75552 0.874296 0.785641
0.837476 0.887968 0.790311
0.904234 0.896559 0.791943
0.950698 0.898421 0.789654
0 0.608804 0.720165
0 0.650416 0.736263
0.0693217 0.697063 0.734417
0.22916 0.800748 0.748196
0.611093 0.893034 0.778698
0.748943 0.916442 0.790967
0.834928 0.929763 0.796674
0.901808 0.938231 0.799237
0.950362 0.945632 0.800702
0 0.0539712 0.200381
0 0.0224308 0.15848
0.0545052 0 0.137789
0.102373 0 0.175418
0.167727 0 0.223346
0.268925 0 0.274556
0.322225 0 0.295766
0.362493 0 0.308736
0.402991 0 0.320867
0 0.112871 0.32401
0 0.0452277 0.263508
0.0371252 0 0.225483
0.146181 0 0.311467
0.305394 0 0.382071
0.47126 0.00395209 0.436591
0.534325 0.00703441 0.457771
0.59057 0.0112764 0.476249
0.649805 0.017319 0.495583
0 0.262089 0.472068
0 0.233722 0.46305
0 0 0.384298
0.109728 0 0.471656
0.432303 0 0.53904
0.616266 0.034287 0.57641
0.674739 0.0407721 0.586206
0.727657 0.047013 0.595209
0.77998 0.0532998 0.603357
0 0.364569 0.55613
0 0.353841 0.557595
0 0.236881 0.513893
0 0.2262 0.566079
0.520348 0.282429 0.674815
0.720928 0.292287 0.695338
0.777966 0.293858 0.695552
0.833356 0.295766 0.695567
0.882399 0.301671 0.694743
0 0.445167 0.617578
0 0.465583 0.638209
0 0.455955 0.629252
0 0.479332 0.630716
0.535012 0.593286 0.750988
0.753567 0.6318 0.774762
0.819867 0.640452 0.775341
0.878141 0.646052 0.773037
0.929656 0.650782 0.771664
0 0.491615 0.650629
0 0.533227 0.682841
0 0.544106 0.676951
0.0406195 0.601404 0.681147
0.543664 0.722103 0.777462
0.755886 0.765194 0.803708
0.831296 0.773251 0.80592
0.89012 0.775647 0.801419
0.939971 0.776104 0.799527
0 0.523644 0.67306
0 0.566873 0.703258
0 0.596078 0.704082
0.126833 0.67306 0.717632
0.565835 0.789456 0.793393
0.751019 0.825193 0.81294
0.835355 0.840925 0.820645
0.895918 0.842069 0.816938
0.944381 0.844312 0.815396
0 0.562203 0.700252
0 0.606912 0.724254
0 0.644678 0.725139
0.192157 0.739895 0.749432
0.580316 0.843397 0.801022
0.742123 0.873518 0.81677
0.829755 0.890517 0.82565
0.900069 0.900313 0.828809
0.947051 0.901488 0.82649
0 0.607767 0.728939
0 0.64715 0.745418
0.0332036 0.69543 0.748089
0.227161 0.8009 0.773022
0.595697 0.890547 0.809323
0.736568 0.914641 0.822538
0.82768 0.930251 0.831708
0.896544 0.939345 0.835187
0.947982 0.946929 0.837476
0 0.0601511 0.222629
0 0.0194247 0.168688
0.0562295 0 0.144045
0.103182 0 0.181659
0.167895 0 0.231952
0.265705 0 0.28368
0.316976 0 0.304967
0.357183 0 0.318685
0.397024 0 0.331197
0 0.124529 0.346441
0 0.0515908 0.290761
0.036408 0 0.240681
0.147692 0 0.328557
0.309773 0 0.401053
0.474754 0.0059205 0.457588
0.53669 0.00895705 0.479545
0.593393 0.0132753 0.499687
0.651225 0.0191043 0.519265
0 0.273091 0.48719
0 0.242603 0.477714
0 0 0.403143
0.102449 0 0.490303
0.42948 0 0.560479
0.614984 0.0366827 0.60148
0.672526 0.0429236 0.611826
0.725414 0.049012 0.620554
0.777279 0.0550698 0.628016
0 0.373831 0.570626
0 0.361822 0.571084
0 0.24918 0.534981
0 0.226062 0.583078
0.51017 0.282261 0.698985
0.713848 0.297414 0.724376
0.773877 0.302602 0.726787
0.829282 0.30486 0.727489
0.88101 0.309575 0.727581
0 0.450507 0.627314
0 0.471061 0.649699
0 0.465248 0.646815
0 0.480568 0.649989
0.517082 0.592126 0.775723
0.738903 0.632364 0.801236
0.813779 0.6477 0.808743
0.87248 0.653483 0.806836
0.925155 0.659007 0.804944
0 0.492485 0.657588
0 0.534173 0.692546
0 0.54757 0.692027
0.0039826 0.596628 0.696788
0.522942 0.716533 0.801663
0.739071 0.759777 0.828611
0.821286 0.775158 0.836164
0.88368 0.778332 0.834257
0.934768 0.778546 0.830549
0 0.524407 0.681407
0 0.566049 0.712093
0 0.597498 0.718883
0.0973373 0.668864 0.734325
0.54548 0.783185 0.817258
0.735531 0.822049 0.839673
0.824475 0.840085 0.850675
0.891234 0.846922 0.850446
0.940475 0.849271 0.846799
0 0.562005 0.708614
0 0.603937 0.732296
0 0.648005 0.741817
0.17203 0.736858 0.767483
0.56405 0.842405 0.830243
0.729641 0.871733 0.846616
0.820462 0.88922 0.856062
0.893553 0.902022 0.862013
0.942428 0.904631 0.860334
0 0.606821 0.736675
0 0.643839 0.753475
0 0.693599 0.761501
0.225101 0.798993 0.7953
0.578622 0.88925 0.837461
0.721828 0.912734 0.851438
0.816999 0.929046 0.861326
0.891524 0.940002 0.867277
0.944717 0.947906 0.870619
