public/images/Fine Arts Cadres /TC_-_EDITING_ESSENTIALS_-_COLOR/TC - DUNKIRK.cube
TITLE "Generated by Resolve"
LUT_3D_SIZE 5
0 0 0
0 0 0
0.330785 0 0
0.660075 0 0
0.984558 0 0
0 0.143038 0
0.111147 0.153079 0
0.602136 0.117952 0
0.941207 0.0271763 0
1 0 0
0 0.615686 0
0 0.641123 0
0.586755 0.634607 0
0.964034 0.620005 0
1 0.612299 0
0 0.942626 0
0 0.935149 0
0.467338 0.919951 0
0.890349 0.9093 0
1 0.908461 0
0 1 0
0 1 0
0.429694 1 0
0.868132 1 0
1 1 0
0 0 0.0170596
0.0844434 0 0.0794842
0.385092 0 0.095613
0.69601 0 0.0948501
1 0 0.0881361
0 0.15198 0.0969253
0.0937667 0.139849 0.130343
0.612573 0.0932021 0.138582
0.952972 0 0.132784
1 0 0.12845
0 0.622263 0
0 0.650919 0
0.59585 0.628367 0
0.964767 0.616846 0
1 0.610819 0
0 0.933547 0
0 0.933639 0
0.478691 0.914565 0
0.898314 0.902754 0
1 0.903853 0
0 1 0
0 1 0
0.440864 1 0
0.875273 1 0
1 1 0
0 0 0.321538
0.0668956 0 0.291325
0.39263 0 0.362264
0.708232 0 0.399664
1 0 0.434485
0 0 0.565866
0 0 0.574121
0.60087 0 0.557855
0.948837 0 0.578347
1 0 0.603784
0 0.669764 0.473579
0 0.641382 0.529778
0.533135 0.581415 0.581262
0.911818 0.572442 0.59968
1 0.568917 0.623102
0 0.948013 0.416434
0 0.895567 0.529381
0.34107 0.893507 0.54432
0.887663 0.850477 0.611246
1 0.856641 0.61738
0 1 0.499779
0 1 0.56849
0.306722 1 0.580194
0.85716 1 0.651118
1 0.997604 0.675654
0 0 0.583047
0 0 0.532174
0.379232 0 0.611887
0.707637 0 0.654124
1 0 0.694514
0 0 0.885451
0 0 0.861357
0.579889 0 0.827161
0.938521 0 0.838666
1 0 0.86305
0 0.633295 0.831357
0 0.582818 0.876387
0.458625 0.516365 0.855177
0.902571 0.518853 0.823056
1 0.506218 0.839887
0 0.943862 0.699535
0 0.906126 0.73753
0.209522 0.863996 0.786496
0.84654 0.836103 0.80798
1 0.833692 0.823041
0 1 0.678813
0 1 0.763714
0.377462 0.991836 0.815717
0.827268 0.984451 0.821775
0.996582 0.97116 0.851881
0 0 0.771038
0 0 0.709117
0.359747 0 0.788815
0.704662 0 0.829694
1 0 0.868452
0 0 1
0 0 1
0.555215 0 0.984222
0.934844 0 0.992798
1 0 1
0 0.599115 1
0 0.538247 1
0.38851 0.470542 0.996155
0.902724 0.439826 0.97615
1 0.4327 0.973251
0 0.920943 0.916854
0 0.886824 0.93344
0 0.84361 0.952773
0.828061 0.807919 0.943679
1 0.808652 0.943801
0 1 0.859419
0 1 0.886854
0 0.987854 0.915282
0.810666 0.966339 0.932067
0.986038 0.960662 0.937682
