public/images/Fine Arts Cadres /TC_-_EDITING_ESSENTIALS_-_COLOR/TC - TRUE DETECTIVE - LOG TO LOOK - 2.cube
TITLE "Generated by Resolve"
LUT_3D_SIZE 33
0.00588998 0.0105287 0.0117342
0.00588998 0.0105287 0.0117342
0.00588998 0.0105287 0.0117342
0.00588998 0.0105287 0.0117342
0.00639353 0.011841 0.0126955
0.0169528 0.0186923 0.0164034
0.0313268 0.0230106 0.0165408
0.0452735 0.0264439 0.0135653
0.0591897 0.0290379 0.0110475
0.0718853 0.0313115 0.00955215
0.0850233 0.0324712 0.00755322
0.0978408 0.0336461 0.00550851
0.111315 0.0335241 0.00343328
0.126513 0.03299 0.00114443
0.146563 0.0315557 0
0.167102 0.0284276 0
0.19176 0.0248112 0
0.224155 0.0191043 0
0.260807 0.0127413 0
0.297459 0.00582895 0
0.333242 0 0
0.363149 0 0
0.382544 0 0
0.394125 0 0
0.408453 0 0
0.421622 0 0
0.434348 0 0
0.448051 0 0
0.461738 0 0
0.475151 0 0
0.490227 0 0.000228885
0.505974 0 0.00367742
0.520562 0 0.00749218
0.00588998 0.0105287 0.0117342
0.00588998 0.0105287 0.0117342
0.00588998 0.0105287 0.0117342
0.00588998 0.0105287 0.0117342
0.00675975 0.012665 0.0132753
0.0198367 0.0197604 0.0168154
0.0338293 0.023743 0.0160983
0.0480354 0.0269322 0.0129244
0.061677 0.0296178 0.0108034
0.0742351 0.0316472 0.00920119
0.0875563 0.0326848 0.00714122
0.100465 0.0338598 0.00512703
0.114321 0.0335393 0.00296025
0.130694 0.0327916 0.000549325
0.150469 0.0308537 0
0.171771 0.0277867 0
0.197391 0.0235752 0
0.231189 0.0179141 0
0.267414 0.0114748 0
0.304479 0.00457771 0
0.339712 0 0
0.368597 0 0
0.383978 0 0
0.396994 0 0
0.410178 0 0
0.424094 0 0
0.436957 0 0
0.45037 0 0
0.463569 0 0
0.477913 0 0
0.493095 0 0.000610361
0.507836 0 0.00445563
0.523308 0 0.00819409
0.00588998 0.0105287 0.0117342
0.00588998 0.0105287 0.0117342
0.00588998 0.0105287 0.0117342
0.00588998 0.0105287 0.0117342
0.00773632 0.0138552 0.0140078
0.0220188 0.0206455 0.0170138
0.0360876 0.0242161 0.0155642
0.0507973 0.0276646 0.0123903
0.0642252 0.0301061 0.0105287
0.0768139 0.0318456 0.00881972
0.090074 0.0328832 0.00675975
0.102953 0.0338293 0.00469978
0.117174 0.0334325 0.00254826
0.134432 0.0326085 1.5259e-05
0.154208 0.0303502 0
0.175952 0.0271153 0
0.203189 0.0226749 0
0.237888 0.0167086 0
0.273274 0.010193 0
0.311055 0.00314336 0
0.345129 0 0
0.372641 0 0
0.386419 0 0
0.399573 0 0
0.412329 0 0
0.426337 0 0
0.439765 0 0
0.452766 0 0
0.466377 0 0
0.480385 0 0
0.495552 0 0.00128176
0.510735 0 0.00494392
0.525643 0 0.00886549
0.00588998 0.0105287 0.0117342
0.00588998 0.0105745 0.0118105
0.00588998 0.0107576 0.0119478
0.00587472 0.0108797 0.0121004
0.00944533 0.0152743 0.0148928
0.0246891 0.0219577 0.0175631
0.0390631 0.0253452 0.0154269
0.0543221 0.0287327 0.012192
0.0683299 0.0314641 0.0105898
0.0816358 0.0330053 0.00860609
0.0949416 0.0345006 0.00646983
0.109361 0.0353246 0.00424201
0.1252 0.0350805 0.0018616
0.145266 0.0344854 0
0.166766 0.0317693 0
0.191791 0.0284276 0
0.224826 0.0234379 0
0.265049 0.016907 0
0.306584 0.0099031 0
0.347616 0.00230411 0
0.383597 0 0
0.41178 0 0
0.425864 0 0
0.442084 0 0
0.457847 0 0
0.473472 0 0
0.489738 0 0
0.5066 0 0
0.524773 0 0
0.541955 0.000381476 0.00381476
0.559716 0.00204471 0.00825513
0.576745 0.0037232 0.0128939
0.594003 0.00560006 0.0175174
0.00616464 0.0162966 0.0173648
0.00616464 0.0165103 0.0175631
0.0061799 0.0167239 0.0177615
0.00619516 0.0168612 0.0178836
0.00920119 0.0219883 0.0201572
0.0303197 0.0291295 0.0223545
0.0487984 0.0328527 0.0190585
0.0681773 0.0361334 0.0150912
0.0835584 0.0394751 0.0119173
0.0975052 0.0424659 0.00920119
0.11371 0.04477 0.00610361
0.132433 0.0456245 0.00311284
0.152941 0.0458381 0.000183108
0.175906 0.0438697 0
0.202396 0.0412451 0
0.238117 0.0363317 0
0.280583 0.0302281 0
0.331151 0.021973 0
0.376577 0.0140078 0
0.418265 0.00671397 0
0.452293 0.000579843 0
0.478126 0.000686656 0
0.492805 0.00143435 0
0.508324 0.00215152 0
0.525505 0.00308232 0
0.542626 0.0041352 0
0.559747 0.00526436 0
0.576989 0.00656138 0
0.594202 0.00798047 0.00386053
0.612024 0.00958267 0.00813306
0.628336 0.0113222 0.0126955
0.644724 0.013489 0.0178225
0.661616 0.016083 0.0227207
0.00700389 0.0232853 0.0233768
0.00703441 0.0235142 0.0235752
0.00706493 0.023682 0.0237125
0.00708019 0.0238346 0.0237888
0.00970474 0.0296941 0.0248417
0.0313878 0.0374762 0.0263371
0.0551156 0.0443427 0.022797
0.0782177 0.0489662 0.0166171
0.0945907 0.0530098 0.0132448
0.111849 0.0568093 0.0100404
0.133303 0.0591592 0.00604257
0.156313 0.0605173 0.00257877
0.179065 0.0599069 0
0.207355 0.0577859 0
0.243381 0.0545663 0
0.288167 0.049073 0
0.33991 0.0415198 0
0.393347 0.0332189 0
0.438941 0.0261082 0
0.478645 0.0188449 0
0.512108 0.0133669 0
0.534752 0.00972 0
0.549645 0.0102541 0
0.566094 0.0114595 0
0.583459 0.0128481 0
0.600473 0.0143435 0
0.617441 0.0159609 0
0.633738 0.0178225 0
0.650584 0.0195468 0.00314336
0.667308 0.0212253 0.00779736
0.684596 0.0231022 0.0128481
0.700771 0.0247807 0.0175326
0.71667 0.0263828 0.0221714
0.00737011 0.0313878 0.0292515
0.00738537 0.0316625 0.0294652
0.00740063 0.0319219 0.0296483
0.00750744 0.0327306 0.0299077
0.00935378 0.0387427 0.0290074
0.0268101 0.0486915 0.0289616
0.0581674 0.0593423 0.0262913
0.0857252 0.0650797 0.0179599
0.105257 0.0694285 0.0149233
0.12781 0.0731975 0.011017
0.153841 0.0762951 0.00639353
0.180026 0.0775921 0.00288396
0.206622 0.0769513 0
0.241733 0.0745861 0
0.286992 0.0703136 0
0.340063 0.0640726 0
0.394934 0.0565347 0
0.447898 0.0486458 0
0.491966 0.0418555 0
0.531472 0.0358892 0
0.564019 0.0305486 0
0.584939 0.0272679 0
0.599039 0.0251011 0
0.614237 0.0231327 0
0.629877 0.0234531 0
0.64596 0.0250095 0
0.661784 0.0264897 0
0.678004 0.0281682 0
0.693141 0.029633 0
0.709361 0.0313726 0.00326543
0.724376 0.0328985 0.00823987
0.740353 0.0346075 0.0129854
0.756268 0.0363012 0.0176394
0.00769055 0.0398413 0.035111
0.00770581 0.0401312 0.0353094
0.00772107 0.0403143 0.0354467
0.00796521 0.0419623 0.0356146
0.00946059 0.0483101 0.0342718
0.0197757 0.0589609 0.0300298
0.0591287 0.0723888 0.0258335
0.0896773 0.0804456 0.0186313
0.113542 0.0860456 0.0162203
0.140948 0.0897536 0.0120546
0.172396 0.0931868 0.00686656
0.200107 0.0936599 0.00363165
0.230884 0.0932479 0.000396735
0.273014 0.0913558 0
0.324437 0.0870375 0
0.380346 0.0815442 0
0.436576 0.0751507 0
0.487999 0.0687877 0
0.532189 0.0627146 0
0.570779 0.0576791 0
0.604349 0.052842 0
0.622568 0.0505226 0
0.637308 0.0490578 0
0.652308 0.0473182 0
0.667247 0.0455787 0
0.682124 0.0438392 0
0.696422 0.0421607 0
0.710719 0.0407416 0
0.725002 0.0400244 0
0.740734 0.0416876 0
0.756298 0.0432288 0
0.771435 0.0448768 0
0.786465 0.0465095 0.00457771
0.00802625 0.0483864 0.041001
0.00802625 0.0486915 0.0412146
0.0080415 0.0488899 0.0413977
0.00836194 0.0514839 0.0413214
0.00944533 0.0575265 0.0395361
0.0138247 0.0685435 0.0309758
0.060502 0.0854505 0.0231022
0.0941634 0.0957351 0.019852
0.122484 0.102312 0.0177768
0.154147 0.106996 0.013611
0.190249 0.111269 0.00830091
0.220615 0.112413 0.0049897
0.256062 0.113085 0.00148013
0.305074 0.111421 0
0.36025 0.108248 0
0.417807 0.104417 0
0.473915 0.100084 0
0.523842 0.0948196 0
0.567651 0.0903639 0
0.607141 0.0861982 0
0.639017 0.0824598 0
0.654353 0.081117 0
0.669276 0.0801404 0
0.683696 0.0792706 0
0.698238 0.0777752 0
0.71194 0.076936 0
0.725978 0.076051 0
0.739437 0.0749676 0
0.753353 0.0741283 0
0.767498 0.0729229 0
0.781979 0.0716716 0
0.796033 0.0705272 0
0.809903 0.0696727 0
0.00843824 0.0579385 0.0485389
0.00843824 0.0581674 0.0487221
0.0084535 0.058381 0.0489052
0.00863661 0.0609751 0.0474556
0.00920119 0.0657664 0.0448005
0.0118868 0.0767834 0.0348974
0.0609445 0.098146 0.0199588
0.0963149 0.109468 0.0203555
0.131441 0.120256 0.0202792
0.165606 0.126909 0.0162051
0.204196 0.132265 0.0111849
0.238178 0.135027 0.00762951
0.280095 0.136736 0.00367742
0.334981 0.136645 0
0.392004 0.135943 0
0.449805 0.133822 0
0.506111 0.131151 0
0.554772 0.128573 0
0.598398 0.125383 0
0.638132 0.122103 0
0.66772 0.119936 0
0.682185 0.119585 0
0.696498 0.118944 0
0.711192 0.118593 0
0.724834 0.118273 0
0.738628 0.117525 0
0.751995 0.117189 0
0.765225 0.116503 0
0.778851 0.116167 0
0.79266 0.115114 0
0.806302 0.114443 0
0.820279 0.114397 0
0.834318 0.11342 0
0.00886549 0.0679332 0.0564889
0.00888075 0.0681621 0.0566873
0.00888075 0.0683757 0.0567941
0.00892653 0.0708629 0.0538033
0.0091249 0.0742809 0.0496681
0.011841 0.0876936 0.0381323
0.0606088 0.110201 0.0197452
0.0977951 0.124041 0.0207065
0.1402 0.139406 0.0241093
0.177661 0.148272 0.0199283
0.217517 0.155856 0.0153506
0.254795 0.160693 0.0116274
0.303288 0.16434 0.00717174
0.361624 0.166262 0.00267033
0.420096 0.166918 0
0.478035 0.167758 0
0.533639 0.166506 0
0.580652 0.165545 0
0.624537 0.163607 0
0.662669 0.162249 0
0.690227 0.161532 0
0.703578 0.161807 0
0.717174 0.161334 0
0.730617 0.161074 0
0.744381 0.161135 0
0.757275 0.161334 0
0.770504 0.161532 0
0.78352 0.160983 0.000137331
0.797055 0.161593 0.00102235
0.810178 0.161501 0.00184634
0.82327 0.16144 0.00273136
0.836484 0.161044 0.00366217
0.849729 0.16112 0.00466926
0.00932326 0.0786145 0.0648356
0.00932326 0.0788281 0.0649577
0.00933852 0.0789654 0.065095
0.00923171 0.0809186 0.0598611
0.009308 0.083772 0.0540322
0.0120546 0.098146 0.0396124
0.0560922 0.121538 0.0191348
0.0993515 0.13901 0.02121
0.146975 0.15758 0.0258488
0.190021 0.171054 0.0250553
0.229847 0.180224 0.0206912
0.269429 0.187762 0.0169985
0.322423 0.1935 0.0121004
0.38352 0.198535 0.00766003
0.443656 0.201236 0.00430304
0.502602 0.2047 0.00234989
0.557382 0.206134 0.00129702
0.60354 0.207782 0.00115969
0.647105 0.207004 0.00129702
0.683726 0.207568 0.00204471
0.709285 0.20766 0.00274662
0.721691 0.208621 0.00328069
0.735271 0.208911 0.00383001
0.748562 0.209552 0.00447089
0.761395 0.210239 0.00514229
0.774487 0.210498 0.00584421
0.787213 0.211841 0.00668345
0.800153 0.212299 0.00746166
0.813291 0.214237 0.00849927
0.825879 0.214374 0.009308
0.838727 0.215259 0.0102846
0.851118 0.215595 0.0112306
0.863844 0.215976 0.0124819
0.00981155 0.0910201 0.0737469
0.00982681 0.0914168 0.0740368
0.00982681 0.0916304 0.0740673
0.00958267 0.092607 0.0659342
0.0096437 0.0958114 0.0580301
0.0123751 0.110948 0.0414282
0.0526284 0.135225 0.0187228
0.0997635 0.156573 0.0217136
0.151339 0.177996 0.0273136
0.202869 0.198001 0.0331273
0.243473 0.209491 0.0287633
0.285115 0.219883 0.0250095
0.341817 0.228 0.0195315
0.403464 0.237018 0.0154421
0.465324 0.244739 0.0125887
0.524773 0.251209 0.0109407
0.57966 0.255756 0.010193
0.625422 0.259861 0.0103609
0.668803 0.26215 0.0108186
0.703777 0.264836 0.0117952
0.726574 0.266987 0.0126802
0.738674 0.268757 0.0133059
0.751919 0.270741 0.0140688
0.764569 0.271717 0.0146944
0.777279 0.273838 0.0155489
0.789868 0.275456 0.0163577
0.802426 0.276539 0.0171511
0.814603 0.279347 0.0182193
0.827222 0.281071 0.0191806
0.839673 0.28278 0.0201724
0.852018 0.28365 0.0213169
0.864363 0.285054 0.0223392
0.876616 0.287083 0.0234226
0.0104677 0.10631 0.0839246
0.0104829 0.106767 0.0842603
0.0104372 0.10695 0.0828412
0.0100557 0.106203 0.0724041
0.010071 0.109834 0.0623484
0.0129397 0.12575 0.0430457
0.047303 0.150744 0.0182803
0.100343 0.176577 0.022385
0.155673 0.201343 0.029099
0.212894 0.225803 0.0384985
0.258091 0.243671 0.0408637
0.303624 0.258396 0.0370642
0.362127 0.27158 0.031754
0.423926 0.284794 0.0279545
0.484932 0.295796 0.0252384
0.545007 0.307317 0.0242161
0.600198 0.316411 0.0239719
0.646784 0.322683 0.0242008
0.688975 0.327123 0.0247044
0.72285 0.332052 0.0258488
0.742763 0.333959 0.0264591
0.754711 0.336263 0.0271916
0.767346 0.338048 0.0278172
0.779553 0.340383 0.0286107
0.792477 0.342702 0.0294499
0.804501 0.344045 0.0301061
0.81651 0.346487 0.0310521
0.82797 0.34902 0.0323033
0.840223 0.351003 0.0331884
0.852689 0.353246 0.034165
0.86453 0.354376 0.0348821
0.875654 0.356695 0.0358282
0.887327 0.358434 0.0367285
0.0113527 0.125216 0.0957504
0.0113832 0.12575 0.0961166
0.0112154 0.125109 0.0923323
0.0107424 0.123171 0.0801556
0.0107576 0.127245 0.0676738
0.0139773 0.144015 0.0447852
0.0428016 0.170657 0.018265
0.0996719 0.202502 0.0235599
0.157717 0.232364 0.0314641
0.219562 0.262303 0.0425269
0.269764 0.285771 0.0534676
0.322896 0.306127 0.0572671
0.383139 0.32401 0.0514687
0.444282 0.341833 0.0480049
0.504204 0.356527 0.0453193
0.563195 0.370367 0.044007
0.618158 0.381399 0.0433967
0.66566 0.388067 0.0428168
0.707332 0.392859 0.04271
0.73994 0.397971 0.0435187
0.757214 0.401572 0.044358
0.769299 0.403067 0.0449531
0.781491 0.406653 0.0459602
0.793973 0.409705 0.0468299
0.805875 0.411246 0.0472725
0.817395 0.413931 0.0480507
0.828779 0.417151 0.049012
0.840574 0.419364 0.0496986
0.852262 0.4215 0.0504158
0.863722 0.423926 0.0511635
0.875135 0.426413 0.0519722
0.886061 0.428428 0.0526589
0.896834 0.431052 0.0535286
0.0126345 0.147921 0.109285
0.012665 0.148455 0.10956
0.012314 0.146517 0.102892
0.0116884 0.142702 0.089128
0.0117189 0.148058 0.0739452
0.0158389 0.167193 0.0486152
0.0390784 0.198886 0.0213321
0.096788 0.235096 0.025391
0.158572 0.270253 0.0348058
0.226459 0.305196 0.0479591
0.278325 0.332769 0.0602579
0.338613 0.360128 0.0762493
0.404166 0.386206 0.0842603
0.464958 0.404959 0.0782483
0.524941 0.422019 0.0742962
0.581476 0.435386 0.0711681
0.635508 0.447486 0.0697185
0.682887 0.454658 0.0677806
0.724193 0.461295 0.0670787
0.756039 0.467552 0.0674144
0.771634 0.470161 0.0675059
0.783566 0.472358 0.0677043
0.795438 0.474556 0.0679332
0.807355 0.477729 0.0685435
0.818814 0.480995 0.0692302
0.830045 0.483772 0.0697948
0.841443 0.487098 0.0705577
0.852201 0.489967 0.0711833
0.863813 0.492515 0.0717021
0.874739 0.494606 0.0720989
0.885298 0.49723 0.072694
0.89601 0.499931 0.0733654
0.905623 0.503761 0.0744182
0.0146334 0.178958 0.12491
0.0146792 0.17969 0.125231
0.0141146 0.176471 0.115236
0.0133211 0.171054 0.0998856
0.013489 0.177874 0.083238
0.0193179 0.198871 0.0561532
0.0368048 0.235889 0.0293736
0.0882124 0.2748 0.0280156
0.156054 0.318395 0.0397345
0.227955 0.358785 0.0549325
0.283238 0.386511 0.0685435
0.350561 0.414939 0.0869306
0.422431 0.444892 0.108949
0.486381 0.468009 0.116472
0.545525 0.485603 0.109651
0.599908 0.499031 0.104097
0.652323 0.511467 0.100359
0.699123 0.520256 0.0970779
0.739605 0.526635 0.0945449
0.770581 0.532174 0.0934462
0.784756 0.534371 0.0929427
0.797024 0.537621 0.0931563
0.808667 0.539391 0.0928206
0.819989 0.542229 0.093019
0.831083 0.54461 0.0930648
0.841642 0.547524 0.0934157
0.852659 0.550484 0.0937819
0.863249 0.553353 0.0941482
0.874113 0.55555 0.0942855
0.884535 0.557824 0.0944839
0.894575 0.561181 0.0951553
0.904082 0.563638 0.0955215
0.913085 0.566659 0.0961471
0.017258 0.21268 0.140597
0.0173037 0.213245 0.140841
0.0163424 0.207263 0.126696
0.0154269 0.201175 0.110811
0.0157015 0.208255 0.0929122
0.023621 0.2318 0.065919
0.0379034 0.276249 0.0434424
0.084596 0.321706 0.0411841
0.154314 0.365545 0.0457771
0.227924 0.4047 0.0619059
0.288548 0.433249 0.0771649
0.360571 0.463188 0.0975052
0.434318 0.492882 0.119127
0.503288 0.520241 0.140032
0.564019 0.540002 0.142702
0.617563 0.553719 0.134936
0.668299 0.566567 0.129641
0.713451 0.575509 0.124834
0.753155 0.581521 0.120623
0.782574 0.587457 0.118883
0.796201 0.589776 0.117998
0.808209 0.592126 0.117433
0.819821 0.595026 0.117266
0.830808 0.596979 0.116747
0.841611 0.599435 0.116564
0.852216 0.60206 0.116503
0.862577 0.605219 0.116762
0.87306 0.608148 0.116915
0.883421 0.610086 0.116655
0.893141 0.613642 0.117235
0.902663 0.616236 0.117418
0.911665 0.618891 0.117708
0.920165 0.622156 0.118318
0.0205386 0.248157 0.15552
0.0205997 0.248844 0.155779
0.0192874 0.24097 0.138338
0.0182345 0.234348 0.121935
0.019501 0.241871 0.104448
0.0292973 0.26923 0.0807813
0.0450141 0.317205 0.0654612
0.0827955 0.367483 0.0572519
0.153903 0.410361 0.0527504
0.227802 0.447364 0.0693523
0.294087 0.476417 0.0865339
0.369802 0.506035 0.107042
0.444892 0.535424 0.128435
0.51545 0.561746 0.149142
0.58117 0.586297 0.169055
0.634272 0.600504 0.162951
0.683436 0.612787 0.155856
0.727031 0.622751 0.1505
0.76495 0.630106 0.146044
0.793606 0.635691 0.143282
0.805982 0.637629 0.14197
0.817456 0.639124 0.140673
0.82887 0.641672 0.140017
0.840024 0.643702 0.139193
0.850614 0.646311 0.138811
0.861295 0.648936 0.138476
0.871473 0.65098 0.137957
0.881605 0.654459 0.138201
0.891249 0.656474 0.137819
0.900526 0.659571 0.138048
0.909514 0.661204 0.137621
0.918029 0.663432 0.137575
0.925841 0.667262 0.138415
0.0240635 0.280674 0.168734
0.0240787 0.280919 0.168627
0.022446 0.271778 0.148821
0.0214084 0.265888 0.131807
0.0243076 0.272999 0.114717
0.035172 0.302525 0.0945602
0.0528115 0.355123 0.0874037
0.0833448 0.406302 0.0721752
0.15906 0.448753 0.066804
0.229435 0.481346 0.0762341
0.300832 0.509911 0.0943923
0.37908 0.539498 0.115053
0.456153 0.568566 0.136522
0.526726 0.594568 0.156909
0.591821 0.618769 0.176349
0.649012 0.637583 0.185885
0.696193 0.648676 0.177127
0.738964 0.657679 0.170169
0.77496 0.66453 0.164935
0.801373 0.669444 0.161593
0.813107 0.671931 0.160433
0.824811 0.673426 0.158785
0.836011 0.675471 0.157626
0.846632 0.677531 0.156664
0.857298 0.679133 0.155505
0.86743 0.681773 0.155062
0.87747 0.683772 0.154345
0.887465 0.684749 0.153124
0.896788 0.686809 0.152636
0.905715 0.689448 0.15256
0.914107 0.691127 0.152087
0.922301 0.693401 0.15198
0.929946 0.695766 0.152026
0.0263828 0.299901 0.176379
0.0260777 0.298344 0.1729
0.0243687 0.288914 0.153735
0.023682 0.285069 0.136889
0.0280613 0.293248 0.12018
0.0401007 0.326162 0.103151
0.0587167 0.379171 0.0991989
0.0878767 0.429175 0.0809491
0.165988 0.469368 0.0737011
0.235264 0.499504 0.0809339
0.309941 0.527901 0.0996262
0.389624 0.558175 0.120638
0.4663 0.586938 0.141894
0.537224 0.612467 0.162188
0.601602 0.635767 0.181247
0.659602 0.654429 0.195056
0.705379 0.665339 0.186175
0.746624 0.673335 0.178576
0.78143 0.680568 0.173571
0.806149 0.685466 0.170367
0.817212 0.686946 0.168627
0.828168 0.688975 0.16733
0.839338 0.691508 0.166354
0.850172 0.69308 0.16495
0.860716 0.694697 0.163699
0.871061 0.697353 0.163134
0.880995 0.698817 0.162036
0.890867 0.700832 0.161303
0.900313 0.702922 0.160723
0.90901 0.705074 0.160357
0.917189 0.706798 0.159869
0.925109 0.708095 0.159228
0.932342 0.710964 0.159564
0.0283055 0.314839 0.18233
0.0276036 0.311116 0.175555
0.0260319 0.302785 0.157534
0.0264591 0.300877 0.14139
0.0314336 0.30956 0.123934
0.0449989 0.347997 0.111238
0.0645457 0.400732 0.108995
0.0940719 0.450584 0.0886091
0.174212 0.489219 0.080354
0.241077 0.516793 0.0858167
0.318227 0.545983 0.104753
0.399512 0.576852 0.126101
0.476509 0.605249 0.14728
0.547265 0.629786 0.167285
0.61088 0.653071 0.186084
0.669474 0.672999 0.203616
0.715206 0.683421 0.196216
0.755383 0.690929 0.188144
0.788296 0.697505 0.182864
0.811215 0.701915 0.179553
0.821118 0.70341 0.177981
0.832441 0.706447 0.177081
0.843046 0.707988 0.175494
0.853819 0.710063 0.174273
0.864256 0.711681 0.172915
0.874495 0.713802 0.171969
0.884611 0.715801 0.171023
0.894316 0.717845 0.17023
0.903532 0.719463 0.169345
0.912322 0.722164 0.169177
0.920302 0.723903 0.168658
0.928023 0.72575 0.168276
0.934997 0.728145 0.168322
0.0305638 0.33135 0.188678
0.0296788 0.327001 0.179706
0.0281224 0.319066 0.162325
0.0296635 0.318166 0.146761
0.0353399 0.328267 0.129503
0.0500343 0.369238 0.119722
0.0704814 0.421454 0.118364
0.101671 0.471183 0.0955673
0.182223 0.508492 0.0866407
0.247318 0.535103 0.0907149
0.326284 0.564858 0.109987
0.409552 0.595071 0.131502
0.486336 0.622568 0.152407
0.557092 0.648096 0.172503
0.619791 0.66894 0.190631
0.678828 0.689632 0.208301
0.725032 0.701442 0.206317
0.764553 0.708492 0.197681
0.7953 0.715343 0.192905
0.816388 0.71928 0.189517
0.825833 0.720806 0.187945
0.836301 0.723323 0.186816
0.846876 0.725383 0.185428
0.857466 0.72697 0.18381
0.867826 0.729076 0.182635
0.877958 0.730602 0.181231
0.887861 0.732052 0.179889
0.897398 0.734035 0.178988
0.906722 0.735607 0.177951
0.915343 0.738186 0.177691
0.923125 0.739879 0.177096
0.930877 0.74168 0.176593
0.937682 0.744457 0.176852
0.0329137 0.347692 0.194858
0.0318151 0.342596 0.183612
0.0305943 0.335103 0.167285
0.0331273 0.335927 0.152544
0.0393988 0.346502 0.134997
0.0555886 0.391241 0.129107
0.0770886 0.442939 0.127642
0.109712 0.491569 0.102327
0.190387 0.528496 0.0932479
0.25391 0.553521 0.0957046
0.335882 0.583093 0.115373
0.418997 0.613748 0.136889
0.496208 0.639872 0.157549
0.566339 0.664515 0.177295
0.629099 0.686122 0.195468
0.688258 0.705394 0.212909
0.735149 0.718425 0.215625
0.772915 0.725917 0.207523
0.802441 0.730999 0.201556
0.821134 0.735759 0.199222
0.830564 0.737697 0.197803
0.840864 0.739651 0.196231
0.850889 0.740658 0.194186
0.861097 0.742672 0.192813
0.871427 0.745663 0.192111
0.881453 0.747143 0.19057
0.891218 0.748608 0.189136
0.900862 0.750591 0.188128
0.909712 0.752178 0.187091
0.91812 0.754284 0.186511
0.925963 0.755993 0.18584
0.933562 0.75874 0.185855
0.940063 0.760113 0.185306
0.0354162 0.364019 0.201129
0.0340581 0.357931 0.187671
0.0341039 0.352834 0.173556
0.0365759 0.35256 0.158007
0.0435187 0.364111 0.140505
0.061265 0.412299 0.138018
0.0838483 0.463096 0.136217
0.11783 0.513893 0.109911
0.195651 0.547951 0.10074
0.261494 0.571908 0.100847
0.345571 0.601678 0.120851
0.429191 0.631144 0.142184
0.506096 0.657923 0.162844
0.57557 0.681697 0.182223
0.638392 0.702846 0.200259
0.697185 0.721386 0.217426
0.744488 0.735454 0.225391
0.781643 0.742702 0.216907
0.809384 0.747967 0.211353
0.825833 0.751324 0.208515
0.834714 0.7523 0.2065
0.84538 0.755199 0.205341
0.855421 0.757641 0.20412
0.865217 0.760113 0.203052
0.875013 0.762158 0.201755
0.884581 0.763134 0.199878
0.89424 0.765057 0.198657
0.904005 0.767056 0.197513
0.912612 0.767697 0.19585
0.920851 0.770291 0.195529
0.928969 0.77203 0.19472
0.936095 0.774304 0.194491
0.942428 0.776165 0.194217
0.0380407 0.380316 0.207477
0.0367285 0.37435 0.192523
0.0379644 0.371283 0.180301
0.0403143 0.369665 0.163851
0.0488289 0.385672 0.148104
0.0670634 0.432959 0.147066
0.0907607 0.485206 0.146471
0.12752 0.536156 0.117067
0.201205 0.566827 0.10779
0.269337 0.590661 0.106111
0.354833 0.619669 0.126131
0.438849 0.648783 0.147417
0.516075 0.675502 0.168063
0.585306 0.698909 0.187259
0.647684 0.719234 0.205005
0.705531 0.737133 0.221775
0.75378 0.752087 0.234943
0.789822 0.759243 0.226413
0.816068 0.763928 0.220645
0.830243 0.767269 0.218372
0.839719 0.768261 0.216052
0.849928 0.771145 0.214923
0.859419 0.772641 0.213107
0.869093 0.775128 0.211963
0.878767 0.777173 0.21059
0.888319 0.779049 0.209201
0.897826 0.781445 0.208225
0.906798 0.782971 0.206867
0.915526 0.7841 0.205371
0.923766 0.785763 0.204379
0.931502 0.788449 0.204181
0.938369 0.789792 0.203372
0.944549 0.792111 0.203357
0.0409705 0.397498 0.214282
0.0405585 0.391455 0.198383
0.0420691 0.389029 0.185931
0.0445716 0.387701 0.169924
0.0542306 0.406668 0.156008
0.0737163 0.455558 0.157168
0.0977646 0.507118 0.156115
0.139086 0.557519 0.123354
0.207462 0.585657 0.114534
0.277409 0.608957 0.111299
0.365515 0.637858 0.131701
0.449165 0.666468 0.152789
0.526162 0.692088 0.173144
0.594888 0.715602 0.192187
0.656931 0.735317 0.209705
0.71339 0.752728 0.226001
0.761547 0.767086 0.240131
0.797574 0.775082 0.235676
0.822782 0.780255 0.230365
0.834607 0.78265 0.228031
0.844434 0.784588 0.226154
0.854475 0.786999 0.224613
0.863935 0.789456 0.223362
0.873426 0.791455 0.221836
0.88304 0.793912 0.220645
0.892073 0.795331 0.218982
0.901015 0.796796 0.217441
0.910124 0.79881 0.216251
0.918425 0.800397 0.215061
0.926223 0.80206 0.214099
0.933974 0.804288 0.213535
0.940673 0.806119 0.213001
0.947005 0.807996 0.212619
0.0438087 0.413901 0.218433
0.0448463 0.409522 0.204608
0.0464942 0.407324 0.192004
0.0493782 0.406714 0.176333
0.0608835 0.431327 0.165713
0.0811322 0.479072 0.168154
0.105531 0.531044 0.166262
0.146136 0.578958 0.130816
0.213413 0.60531 0.121767
