public/images/Fine Arts Cadres /TC_-_EDITING_ESSENTIALS_-_COLOR/TC - MOONRISE KINGDOM.cube
TITLE "Generated by Resolve"
LUT_3D_SIZE 5
0 0.00294499 0.0123293
0.286305 0 0.015198
0.841993 0 0
1 0 0
1 0 0
0 0.217746 0
0.240009 0.20206 0
0.903075 0.0775311 0
1 0 0
1 0 0
0 0.68513 0
0 0.676646 0
0.722118 0.643137 0
1 0.632532 0
1 0.588434 0
0 0.999496 0
0 0.993606 0
0.434058 0.980377 0
1 0.948989 0
1 0.960815 0
0 1 0
0 1 0
0.254246 1 0
0.931884 1 0
1 1 0
0 0 0.206409
0.263081 0 0.183215
0.812604 0 0.164752
1 0 0.137987
1 0 0.1364
0 0.201907 0.138964
0.202152 0.185077 0.124071
0.79762 0.0805219 0.134539
1 0 0.122621
1 0 0.14313
0 0.67921 0
0 0.670481 0
0.688441 0.642344 0
1 0.607202 0
1 0.557809 0
0 0.995712 0
0 0.989715 0
0.42707 0.97438 0
1 0.949676 0
1 0.953429 0
0 1 0
0 1 0
0.241337 1 0
0.912993 1 0
1 1 0
0 0 0.661646
0.213916 0 0.599435
0.791989 0 0.595163
1 0 0.588983
1 0 0.588632
0 0.0117494 0.556863
0.0986954 0 0.593759
0.762478 0 0.560571
1 0 0.554147
1 0 0.553857
0 0.65127 0.47013
0 0.628412 0.470176
0.63592 0.603983 0.435431
1 0.548043 0.482322
1 0.523415 0.507103
0 0.968673 0.330648
0 0.962081 0.332113
0.400732 0.945617 0.323186
0.978256 0.932952 0.133074
1 0.905913 0.136172
0 1 0.221668
0 1 0.2206
0.191241 1 0.205325
0.893248 1 0.148791
1 1 0
0 0 0.9505
0.138277 0 0.883314
0.770443 0 0.880125
1 0 0.876753
1 0 0.877241
0 0 0.864164
0 0 0.898024
0.740353 0 0.852598
1 0 0.84918
1 0 0.84976
0 0.61767 0.748974
0 0.584894 0.770443
0.591531 0.518578 0.803189
1 0.480217 0.785153
1 0.45742 0.789807
0 0.940108 0.715282
0 0.924758 0.714565
0.361166 0.901381 0.711437
0.955795 0.887388 0.652567
1 0.853544 0.72842
0 1 0.664607
0 1 0.66601
0.103502 1 0.661585
0.878523 1 0.653956
1 1 0.48983
0 0 1
0.0764935 0 1
0.758144 0 1
1 0 1
1 0 1
0 0 1
0 0 1
0.72697 0 0.990143
1 0 0.986633
1 0 0.986557
0 0.577935 0.909819
0 0.535058 0.935943
0.554055 0.462699 0.958114
1 0.417288 0.937911
1 0.393408 0.938415
0 0.921416 0.872587
0 0.90663 0.875914
0.234119 0.88014 0.875685
0.9355 0.845777 0.876997
1 0.82504 0.896086
0 1 0.848814
0 1 0.846616
0.0187228 1 0.843809
0.867781 0.998367 0.838254
1 1 0.758099
