public/images/Fine Arts Cadres /TC_-_EDITING_ESSENTIALS_-_COLOR/TC - MOONRISE KINGDOM.cube
TITLE "Generated by Resolve"
LUT_3D_SIZE 33
0 0.00294499 0.0123293
0.0183566 0.00132753 0.0129549
0.0462654 0 0.0136568
0.0778973 0 0.0143282
0.109758 0 0.0149844
0.141756 0 0.0155337
0.181598 0 0.0158389
0.229419 0 0.0157778
0.286305 0 0.015198
0.35317 0 0.013901
0.427237 0 0.0101167
0.503304 0 0.00712596
0.572534 0 0.00390631
0.640589 0 0.000183108
0.708339 0 0
0.775143 0 0
0.841993 0 0
0.90544 0 0
0.965026 0 0
1 0 0
1 0 0
1 0 0
1 0 0
1 0 0
1 0 0
1 0 0
1 0 0
1 0 0
1 0 0
1 0 0
1 0 0
1 0 0
1 0 0
0 0.020325 0.00764477
0.0131685 0.019913 0.00328069
0.0445106 0.0161593 0.00740063
0.0753796 0.0141146 0.00862135
0.106661 0.0121004 0.00949111
0.139025 0.00972 0.010071
0.179187 0.00642405 0.0102846
0.227176 0.00190738 0.0101015
0.284077 0 0.0093843
0.350774 0 0.00793469
0.426886 0 0.00553903
0.502785 0 0.00250248
0.571908 0 0
0.639872 0 0
0.70753 0 0
0.774243 0 0
0.840589 0 0
0.906783 0 0
0.966339 0 0
1 0 0
1 0 0
1 0 0
1 0 0
1 0 0
1 0 0
1 0 0
1 0 0
1 0 0
1 0 0
1 0 0
1 0 0
1 0 0
1 0 0
0 0.0408026 0.00369268
0.00178531 0.0400397 0.00216678
0.0308537 0.0402533 0
0.0690318 0.0371862 0
0.108278 0.0320745 0
0.14284 0.0289006 0.00233463
0.18526 0.0251926 0.00306706
0.234409 0.0203861 0.00332647
0.291936 0.013901 0.00296025
0.358953 0.00497444 0.00172427
0.434348 0 0
0.508476 0 0
0.576913 0 0
0.644221 0 0
0.71133 0 0
0.777554 0 0
0.843885 0 0
0.906798 0 0
0.965957 0 0
1 0 0
1 0 0
1 0 0
1 0 0
1 0 0
1 0 0
1 0 0
1 0 0
1 0 0
1 0 0
1 0 0
1 0 0
1 0 0
1 0 0
0 0.0635843 0
0 0.0625772 0
0.020264 0.061387 0
0.0542611 0.0610819 0
0.0895247 0.0602731 0
0.135866 0.0552987 0
0.191211 0.0477455 0
0.245014 0.0412146 0
0.30518 0.0338445 0
0.376043 0.0238346 0
0.451759 0.0112612 0
0.522805 0 0
0.590097 0 0
0.656031 0 0
0.721843 0 0
0.786877 0 0
0.852247 0 0
0.91426 0 0
0.972656 0 0
1 0 0
1 0 0
1 0 0
1 0 0
1 0 0
1 0 0
1 0 0
1 0 0
1 0 0
1 0 0
1 0 0
1 0 0
1 0 0
1 0 0
0 0.0881361 0
0 0.0871901 0
0.00704967 0.0859693 0
0.0417792 0.0843671 0
0.0798047 0.0834974 0
0.11458 0.0834516 0
0.166583 0.0786603 0
0.235157 0.0700847 0
0.314748 0.0582132 0
0.393332 0.0452277 0
0.468635 0.031632 0
0.537942 0.0175326 0
0.606622 0.00173953 0
0.673014 0 0
0.738476 0 0
0.80267 0 0
0.866804 0 0
0.927581 0 0
0.984741 0 0
1 0 0
1 0 0
1 0 0
1 0 0
1 0 0
1 0 0
1 0 0
1 0 0
1 0 0
1 0 0
1 0 0
1 0 0
1 0 0
1 0 0
0 0.112612 0
0 0.111757 0
0 0.110491 0
0.0251621 0.10959 0
0.0648356 0.10753 0
0.108995 0.106126 0
0.1505 0.105928 0
0.207187 0.10193 0
0.282094 0.0932784 0
0.377096 0.0777142 0
0.475761 0.0580453 0
0.553719 0.0402228 0
0.62298 0.0229038 0
0.688212 0.00541695 0
0.753246 0 0
0.818601 0 0
0.883314 0 0
0.944091 0 0
1 0 0
1 0 0
1 0 0
1 0 0
1 0 0
1 0 0
1 0 0
1 0 0
1 0 0
1 0 0
1 0 0
1 0 0
1 0 0
1 0 0
1 0 0
0 0.141772 0
0 0.140993 0
0 0.139803 0
0.00926223 0.138552 0
0.0420691 0.137865 0
0.0899672 0.135134 0
0.145266 0.132784 0
0.196155 0.132036 0
0.256809 0.128893 0
0.339025 0.120012 0
0.437736 0.104784 0
0.534813 0.0832227 0
0.624018 0.0580148 0
0.701244 0.0349126 0
0.770153 0.0129549 0
0.834501 0 0
0.897719 0 0
0.957763 0 0
1 0 0
1 0 0
1 0 0
1 0 0
1 0 0
1 0 0
1 0 0
1 0 0
1 0 0
1 0 0
1 0 0
1 0 0
1 0 0
1 0 0
1 0 0
0 0.176715 0
0 0.175982 0
0 0.174838 0
0 0.173587 0
0.0194858 0.172549 0
0.0575418 0.171786 0
0.122683 0.168002 0
0.188556 0.164645 0
0.251514 0.162951 0
0.317067 0.160708 0
0.405356 0.151934 0
0.498131 0.138262 0
0.588037 0.119738 0
0.678584 0.0946059 0
0.765499 0.0633707 0
0.842878 0.0337682 0
0.912444 0.00645457 0
0.974258 0 0
1 0 0
1 0 0
1 0 0
1 0 0
1 0 0
1 0 0
1 0 0
1 0 0
1 0 0
1 0 0
1 0 0
1 0 0
1 0 0
1 0 0
1 0 0
0 0.217746 0
0 0.217029 0
0 0.2159 0
0 0.214694 0
0 0.213458 0
0.0249027 0.212787 0
0.0821698 0.211276 0
0.162509 0.206424 0
0.240009 0.20206 0
0.316472 0.199161 0
0.388861 0.197391 0
0.472297 0.190295 0
0.555871 0.178714 0
0.64123 0.16289 0
0.729137 0.141543 0
0.817609 0.11342 0
0.903075 0.0775311 0
0.977371 0.0421912 0
1 0.0130159 0
1 0 0
1 0 0
1 0 0
1 0 0
1 0 0
1 0 0
1 0 0
1 0 0
1 0 0
1 0 0
1 0 0
1 0 0
1 0 0
1 0 0
0 0.265919 0
0 0.265187 0
0 0.264042 0
0 0.262837 0
0 0.261601 0
0 0.260502 0
0.0332494 0.259937 0
0.116533 0.257206 0
0.210132 0.251255 0
0.300389 0.245899 0
0.389624 0.24181 0
0.462028 0.240665 0
0.533196 0.2365 0
0.612299 0.226932 0
0.695186 0.213214 0
0.779797 0.195193 0
0.866789 0.171603 0
0.950164 0.142824 0
1 0.110872 0
1 0.0776074 0
1 0.0516213 0
1 0.0332494 0
1 0.0184329 0
1 0.00619516 0
1 0 0
1 0 0
1 0 0
1 0 0
1 0 0
1 0 0
1 0 0
1 0 0
1 0 0
0 0.321782 0
0 0.321019 0
0 0.31986 0
0 0.318624 0
0 0.317357 0
0 0.316075 0
0 0.315114 0
0.0488594 0.314412 0
0.158755 0.310185 0
0.266514 0.30312 0
0.369131 0.296849 0
0.459495 0.292378 0
0.526925 0.292027 0
0.59263 0.290379 0
0.668269 0.28307 0
0.748455 0.271382 0
0.831327 0.255894 0
0.912032 0.236988 0
0.988632 0.214923 0
1 0.19028 0
1 0.166918 0
1 0.146929 0
1 0.128939 0
1 0.113451 0
1 0.100954 0
1 0.0916457 0
1 0.0839399 0
1 0.0775769 0
1 0.072694 0
1 0.0689555 0
1 0.0660105 0
1 0.0629892 0
1 0.0597086 0
0 0.385 0
0 0.384222 0
0 0.383093 0
0 0.381872 0
0 0.380636 0
0 0.37937 0
0 0.378058 0
0 0.377249 0
0.0762188 0.376043 0
0.210239 0.370291 0
0.331746 0.362387 0
0.435294 0.355825 0
0.51957 0.351568 0
0.588556 0.351095 0
0.651881 0.351278 0
0.723079 0.346563 0
0.801495 0.33698 0
0.878676 0.324498 0
0.953216 0.309651 0
1 0.292576 0
1 0.275166 0
1 0.257816 0
1 0.24094 0
1 0.22475 0
1 0.210605 0
1 0.19939 0
1 0.190433 0
1 0.183536 0
1 0.178393 0
1 0.174456 0
1 0.171328 0
1 0.168521 0
1 0.165759 0
0 0.448493 0
0 0.447761 0
0 0.446662 0
0 0.445518 0
0 0.444343 0
0 0.443122 0
0 0.441749 0
0 0.440604 0
0 0.439841 0
0.128069 0.437705 0
0.275807 0.430762 0
0.398047 0.422797 0
0.493172 0.416617 0
0.577295 0.412284 0
0.648905 0.411139 0
0.711055 0.411978 0
0.778927 0.40943 0
0.850752 0.402441 0
0.922347 0.392645 0
0.990692 0.381109 0
1 0.369162 0
1 0.356893 0
1 0.344488 0
1 0.331289 0
1 0.317968 0
1 0.305364 0
1 0.294301 0
1 0.284566 0
1 0.276631 0
1 0.27039 0
1 0.265415 0
1 0.261219 0
1 0.257649 0
0 0.507912 0
0 0.50721 0
0 0.506188 0
0 0.505104 0
0 0.50399 0
0 0.502876 0
0 0.50161 0
0 0.500221 0
0 0.499153 0
0.0213474 0.498192 0
0.201312 0.49482 0
0.348333 0.487098 0
0.458457 0.479698 0
0.551049 0.473762 0
0.635645 0.469306 0
0.708415 0.467597 0
0.771237 0.468452 0
0.832776 0.46746 0
0.898039 0.462654 0
0.96405 0.455085 0
1 0.446693 0
1 0.437949 0
1 0.428916 0
1 0.419593 0
1 0.40972 0
1 0.399405 0
1 0.389136 0
1 0.379019 0
1 0.36965 0
1 0.36112 0
1 0.353582 0
1 0.347066 0
1 0.341588 0
0 0.567376 0
0 0.566674 0
0 0.565682 0
0 0.564645 0
0 0.563561 0
0 0.562478 0
0 0.561273 0
0 0.559869 0
0 0.558541 0
0 0.557443 0
0.108263 0.555993 0
0.280644 0.551354 0
0.41239 0.543511 0
0.516426 0.5364 0
0.608667 0.53051 0
0.692866 0.525994 0
0.767468 0.523888 0
0.827802 0.524681 0
0.884016 0.524849 0
0.943038 0.522072 0
0.997223 0.517189 0
1 0.511025 0
1 0.504356 0
1 0.497642 0
1 0.490349 0
1 0.482551 0
1 0.474632 0
1 0.466133 0
1 0.457221 0
1 0.448249 0
1 0.439475 0
1 0.431189 0
1 0.423575 0
0 0.627085 0
0 0.626413 0
0 0.625422 0
0 0.624414 0
0 0.623377 0
0 0.622309 0
0 0.621164 0
0 0.619837 0
0 0.618357 0
0 0.617014 0
0 0.615793 0
0.201694 0.613596 0
0.349935 0.608209 0
0.471214 0.600458 0
0.5738 0.593454 0
0.664927 0.587655 0
0.749874 0.583017 0
0.821958 0.580652 0
0.880842 0.580957 0
0.932845 0.58201 0
0.979965 0.581399 0
1 0.578698 0
1 0.574685 0
1 0.569955 0
1 0.564691 0
1 0.559014 0
1 0.553109 0
1 0.546731 0
1 0.53994 0
1 0.532509 0
1 0.52462 0
1 0.516167 0
1 0.507576 0
0 0.68513 0
0 0.684474 0
0 0.683513 0
0 0.682536 0
0 0.681514 0
0 0.680507 0
0 0.679393 0
0 0.678126 0
0 0.676646 0
0 0.675135 0
0 0.673701 0
0.10074 0.672251 0
0.280415 0.669429 0
0.412619 0.663523 0
0.5308 0.655726 0
0.630945 0.64892 0
0.722118 0.643137 0
0.802762 0.638666 0
0.872221 0.636072 0
0.929274 0.636027 0
0.973144 0.6374 0
1 0.638331 0
1 0.637766 0
1 0.635691 0
1 0.632532 0
1 0.628504 0
1 0.624155 0
1 0.619577 0
1 0.614511 0
1 0.608881 0
1 0.602808 0
1 0.595987 0
1 0.588434 0
0 0.738277 0
0 0.737621 0
0 0.736706 0
0 0.735744 0
0 0.734768 0
0 0.733761 0
0 0.732692 0
0 0.731487 0
0 0.730068 0
0 0.72845 0
0 0.726864 0
0 0.725338 0
0.208499 0.723659 0
0.351308 0.72018 0
0.47953 0.713542 0
0.592813 0.705898 0
0.691249 0.699245 0
0.776883 0.693843 0
0.853193 0.68957 0
0.918914 0.687053 0
0.967987 0.686854 0
1 0.688396 0
1 0.690318 0
1 0.691325 0
1 0.690684 0
1 0.688731 0
1 0.685863 0
1 0.682567 0
1 0.678859 0
1 0.674693 0
1 0.670039 0
1 0.664759 0
1 0.658915 0
0 0.787411 0
0 0.78677 0
0 0.785855 0
0 0.784924 0
0 0.783963 0
0 0.782986 0
0 0.781964 0
0 0.780789 0
0 0.779431 0
0 0.777829 0
0 0.77612 0
0 0.774456 0
0.119753 0.772976 0
0.290822 0.770932 0
0.424811 0.766491 0
0.54818 0.759274 0
0.657618 0.751781 0
0.748653 0.745693 0
0.829007 0.740658 0
0.900725 0.736675 0
0.9561 0.734569 0
0.999161 0.734356 0
1 0.736095 0
1 0.738705 0
1 0.740642 0
1 0.741085 0
1 0.740093 0
1 0.738293 0
1 0.735714 0
1 0.732631 0
1 0.729168 0
1 0.72517 0
1 0.720592 0
0 0.833249 0
0 0.832624 0
0 0.831739 0
0 0.830808 0
0 0.829877 0
0 0.828931 0
0 0.827924 0
0 0.826795 0
0 0.825483 0
0 0.823957 0
0 0.822171 0
0 0.820386 0
0 0.818769 0
0.226261 0.817334 0
0.371252 0.814572 0
0.499352 0.809079 0
0.618906 0.801465 0
0.718379 0.794644 0
0.80293 0.789029 0
0.878569 0.784298 0
0.938613 0.781003 0
0.986496 0.779248 0
1 0.779263 0
1 0.781262 0
1 0.7841 0
1 0.786572 0
1 0.787869 0
1 0.787778 0
1 0.786725 0
1 0.784726 0
1 0.782177 0
1 0.779171 0
1 0.775738 0
0 0.87628 0
0 0.875639 0
0 0.874769 0
0 0.873884 0
0 0.872969 0
0 0.872038 0
0 0.871061 0
0 0.869978 0
0 0.868711 0
0 0.867231 0
0 0.865446 0
0 0.863569 0
0 0.86186 0
0.148135 0.860471 0
0.317952 0.858671 0
0.450538 0.854948 0
0.575814 0.848402 0
0.684459 0.841123 0
0.775433 0.834897 0
0.854719 0.829679 0
0.917952 0.825711 0
0.969985 0.822858 0
1 0.821546 0
1 0.821927 0
1 0.823972 0
1 0.827008 0
1 0.829862 0
1 0.831815 0
1 0.832364 0
1 0.8318 0
1 0.830381 0
1 0.828244 0
1 0.825635 0
0 0.909499 0
0 0.908888 0
0 0.908064 0
0 0.90721 0
0 0.90634 0
0 0.90547 0
0 0.904524 0
0 0.903471 0
0 0.902281 0
0 0.900862 0
0 0.899153 0
0 0.897231 0
0 0.895445 0
0.0541238 0.89398 0
0.272282 0.8925 0
0.411917 0.889845 0
0.539254 0.884733 0
0.653361 0.877836 0
0.750805 0.871244 0
0.834379 0.865461 0
0.899855 0.861173 0
0.954467 0.857786 0
0.997345 0.855589 0
1 0.854948 0
1 0.855756 0
1 0.858183 0
1 0.861295 0
1 0.864256 0
1 0.866255 0
1 0.866911 0
1 0.866545 0
1 0.86537 0
1 0.863493 0
0 0.941741 0
0 0.941161 0
0 0.940368 0
0 0.939544 0
0 0.93872 0
0 0.937881 0
0 0.936996 0
0 0.935988 0
0 0.934844 0
0 0.933501 0
0 0.931868 0
0 0.929931 0
0 0.9281 0
0 0.926528 0
0.220768 0.925109 0
0.372915 0.92314 0
0.502358 0.919387 0
0.619333 0.913481 0
0.722774 0.906828 0
0.812009 0.900801 0
0.880537 0.896193 0
0.937407 0.8925 0
0.982834 0.889708 0
1 0.888212 0
1 0.887846 0
1 0.88896 0
1 0.891463 0
1 0.894652 0
1 0.897627 0
1 0.899626 0
1 0.90042 0
1 0.900206 0
1 0.89926 0
0 0.971969 0
0 0.97142 0
0 0.970687 0
0 0.969924 0
0 0.969162 0
0 0.968368 0
0 0.967529 0
0 0.966598 0
0 0.965515 0
0 0.964248 0
0 0.962692 0
0 0.9608 0
0 0.958938 0
0 0.957305 0
0.159686 0.955795 0
0.33373 0.954192 0
0.467079 0.951431 0
0.584741 0.946838 0
0.692241 0.940719 0
0.787503 0.934508 0
0.860243 0.929595 0
0.919753 0.925612 0
0.967391 0.922484 0
1 0.920363 0
1 0.919249 0
1 0.919219 0
1 0.920592 0
1 0.923201 0
1 0.926299 0
1 0.929122 0
1 0.931075 0
1 0.931945 0
1 0.931899 0
0 0.999496 0
0 0.999008 0
0 0.998352 0
0 0.997665 0
0 0.996948 0
0 0.996231 0
0 0.995468 0
0 0.994598 0
0 0.993606 0
0 0.992401 0
0 0.990951 0
0 0.989151 0
0 0.987274 0
0 0.985595 0
0.077348 0.984009 0
0.294347 0.982483 0
0.434058 0.980377 0
0.552117 0.976913 0
0.660822 0.971847 0
0.76112 0.965835 0
0.838712 0.960784 0
0.901869 0.956512 0
0.951644 0.95317 0
0.988495 0.950683 0
1 0.948989 0
1 0.948226 0
1 0.948501 0
1 0.950088 0
1 0.95259 0
1 0.955474 0
1 0.958083 0
1 0.959945 0
1 0.960815 0
0 1 0
0 1 0
0 1 0
0 1 0
0 1 0
0 1 0
0 1 0
0 1 0
0 1 0
0 1 0
0 1 0
0 1 0
0 1 0
0 1 0
0 1 0
0.255039 1 0
0.404013 1 0
0.522881 1 0
0.630884 0.999207 0
0.733364 0.993957 0
0.8159 0.988937 0
0.883452 0.984558 0
0.936172 0.980987 0
0.974716 0.978347 0
1 0.976287 0
1 0.97496 0
1 0.974548 0
1 0.975082 0
1 0.976623 0
1 0.978927 0
1 0.981537 0
1 0.983902 0
1 0.985534 0
0 1 0
0 1 0
0 1 0
0 1 0
0 1 0
0 1 0
0 1 0
0 1 0
0 1 0
0 1 0
0 1 0
0 1 0
0 1 0
0 1 0
0 1 0
0.21532 1 0
0.377127 1 0
0.497765 1 0
0.604639 1 0
0.706767 1 0
0.792538 1 0
0.864607 1 0
0.920989 1 0
0.961868 1 0
0.993957 1 0
1 0.998718 0
1 0.997772 0
1 0.997665 0
1 0.998245 0
1 0.99968 0
1 1 0
1 1 0
1 1 0
0 1 0
0 1 0
0 1 0
0 1 0
0 1 0
0 1 0
0 1 0
0 1 0
0 1 0
