public/images/Fine Arts Cadres /TC_-_EDITING_ESSENTIALS_-_COLOR/TC - MINDHUNTER - LOG TO LOOK - 2.cube
TITLE "Generated by Resolve"
LUT_3D_SIZE 5
0.00631724 0.00857557 0.00885023
0.0751812 0.0200504 0.00502022
0.338689 0.00337224 0.00459297
0.749172 0.0740063 0.119341
0.886275 0.134691 0.195697
0.0124666 0.0749371 0.0437171
0.124346 0.115496 0.0260014
0.572183 0.0948043 0.0235752
0.88365 0.124605 0.121553
0.888228 0.150958 0.15462
0.0975052 0.418784 0.210163
0.135973 0.485969 0.197116
0.647868 0.635264 0.245411
0.942016 0.6495 0.222248
0.94435 0.664973 0.233845
0.2916 0.914885 0.471077
0.299962 0.927352 0.463691
0.603311 0.971038 0.335088
0.985489 0.989715 0.423255
0.99025 0.99025 0.428382
0.356252 0.967697 0.556039
0.359243 0.967834 0.546304
0.598337 0.972824 0.361364
0.991409 0.991409 0.443763
0.992065 0.992065 0.452277
0 0 0.0585031
0.0884413 0.00315862 0.0774395
0.380133 0.00642405 0.103304
0.772625 0.0755932 0.182254
0.886702 0.13312 0.248524
0 0.0894331 0.143755
0.0996872 0.116869 0.116991
0.537301 0.0804456 0.0998398
0.882765 0.113252 0.174289
0.888334 0.146304 0.219745
0.123079 0.49749 0.297047
0.140383 0.520317 0.265003
0.623194 0.646189 0.253483
0.943191 0.649454 0.239368
0.94548 0.662913 0.253391
0.295613 0.930739 0.49546
0.303044 0.942 0.487892
0.551843 0.969177 0.331563
0.983169 0.989746 0.424796
0.990723 0.990723 0.434623
0.354238 0.96762 0.564141
0.356298 0.967712 0.557702
0.519554 0.969985 0.355993
0.984466 0.991196 0.443809
0.992248 0.992233 0.454658
0 0 0.196765
0.0970016 0 0.251179
0.408972 0.0221256 0.387472
0.763516 0.079469 0.445777
0.889632 0.131853 0.487068
0 0.0376287 0.39852
0.067689 0 0.390677
0.544884 0.0556802 0.500938
0.887755 0.11545 0.530571
0.893568 0.150561 0.570169
0 0.478126 0.637201
0.0231174 0.510597 0.601572
0.545907 0.651698 0.592279
0.963455 0.625483 0.569879
0.966171 0.640467 0.587625
0.277836 0.882887 0.710948
0.290623 0.91989 0.71339
0.364355 0.954955 0.567178
0.950896 0.993011 0.48333
0.995285 0.995285 0.494728
0.329351 0.968109 0.764675
0.3308 0.968185 0.760464
0.385962 0.972183 0.689128
0.932998 1 0.649668
1 1 0.692546
0 0 0.406638
0.145144 0 0.454826
0.354238 0 0.539239
0.710063 0.0859541 0.649287
0.892714 0.1337 0.695003
0 0.01149 0.563027
0.149859 0 0.616297
0.512764 0 0.729656
0.889143 0.131121 0.811048
0.898955 0.16231 0.836881
0 0.462364 0.745937
0 0.405127 0.761898
0.54229 0.520958 0.910002
0.962509 0.569116 0.929946
0.967437 0.601022 0.928649
0.0714733 0.736812 0.848569
0.224628 0.856168 0.901152
0.334249 0.902724 0.909667
0.934066 0.991348 0.954559
1 0.998825 0.969116
0.327443 0.966613 0.942321
0.332189 0.970916 0.947463
0.361074 0.973449 0.943114
0.908202 1 0.996963
1 1 1
0.0797894 0 0.590188
0.223804 0 0.695293
0.403662 0 0.733791
0.707362 0.0551308 0.805859
0.897475 0.149569 0.868101
0 0.031693 0.721813
0.215442 0 0.777203
0.571603 0 0.838727
0.847807 0.120348 0.891417
0.901122 0.170779 0.901122
0 0.533806 0.821469
0 0.433356 0.830747
0.576669 0.512886 0.942718
0.946777 0.610361 0.968734
0.973892 0.638804 0.973892
0.014725 0.725933 0.864118
0.201587 0.85948 0.922988
0.34844 0.897856 0.947997
0.936294 0.976699 1
1 0.998413 1
0.255299 0.897215 0.931853
0.32813 0.96083 0.961074
0.341405 0.97203 0.967651
0.849729 1 1
1 1 1
