public/images/Fine Arts Cadres /TC_-_EDITING_ESSENTIALS_-_COLOR/TC - TRUE DETECTIVE - LOG TO LOOK - 2.cube
TITLE "Generated by Resolve"
LUT_3D_SIZE 5
0.00588998 0.0105287 0.0117342
0.0591897 0.0290379 0.0110475
0.19176 0.0248112 0
0.408453 0 0
0.520562 0 0.00749218
0.00802625 0.0483864 0.041001
0.122484 0.102312 0.0177768
0.473915 0.100084 0
0.698238 0.0777752 0
0.809903 0.0696727 0
0.0146334 0.178958 0.12491
0.156054 0.318395 0.0397345
0.652323 0.511467 0.100359
0.831083 0.54461 0.0930648
0.913085 0.566659 0.0961471
0.0354162 0.364019 0.201129
0.195651 0.547951 0.10074
0.744488 0.735454 0.225391
0.875013 0.762158 0.201755
0.942428 0.776165 0.194217
0.0705119 0.509987 0.251331
0.249607 0.699382 0.153399
0.805539 0.857053 0.264012
0.908217 0.885466 0.27895
0.960174 0.89897 0.270375
0.00486763 0.0111543 0.0190433
0.0639658 0.0294957 0.0274968
0.199435 0.0104219 0.0189975
0.40589 0 0.0578012
0.509392 0 0.0947433
0.00567636 0.06421 0.0711223
0.119432 0.115816 0.0688945
0.499352 0.0964065 0.0469825
0.72575 0.055375 0.063035
0.83267 0.045243 0.0947433
0.0319982 0.293797 0.271611
0.0556649 0.373541 0.147982
0.646784 0.551217 0.146365
0.835676 0.572213 0.148211
0.925689 0.589761 0.168551
0.0691691 0.486107 0.398733
0.122133 0.602869 0.258244
0.712551 0.761868 0.238071
0.868574 0.786984 0.240787
0.946868 0.799985 0.245808
0.104036 0.619944 0.476692
0.158663 0.739055 0.344259
0.754604 0.87953 0.274952
0.890288 0.908965 0.306584
0.959304 0.922789 0.310765
0 0.00489815 0.0628214
0.0451057 0 0.0878767
0.176562 0 0.140612
0.362615 0 0.1841
0.453117 0 0.220447
0 0.157733 0.302586
0 0.0509804 0.246082
0.464561 0.0333104 0.340002
0.694957 0.0333104 0.388861
0.798703 0.0471351 0.450233
0 0.412924 0.530297
0 0.404334 0.457481
0.630472 0.607202 0.528634
0.852277 0.607324 0.546471
0.952926 0.614801 0.578897
0 0.520348 0.606058
0.113725 0.590402 0.58201
0.642039 0.792691 0.584085
0.861769 0.820798 0.595102
0.958663 0.826444 0.622202
0.00238041 0.617899 0.67599
0.142107 0.700526 0.655726
0.664286 0.900755 0.634073
0.856214 0.925521 0.650294
0.956313 0.941039 0.663249
0 0.0479744 0.175662
0.0526436 0 0.131029
0.167895 0 0.215427
0.326375 0 0.285115
0.409628 0 0.310689
0 0.250996 0.457084
0 0 0.366217
0.434058 0 0.517998
0.67686 0.03888 0.560784
0.782528 0.0516518 0.577768
0 0.439872 0.606973
0 0.445701 0.608743
0.552163 0.594125 0.726223
0.826246 0.632303 0.741451
0.933944 0.640162 0.740246
0 0.522728 0.665003
0 0.593606 0.687999
0.582422 0.790112 0.763638
0.842618 0.837324 0.785016
0.949081 0.839689 0.77882
0 0.608804 0.720165
0.0693217 0.697063 0.734417
0.611093 0.893034 0.778698
0.834928 0.929763 0.796674
0.950362 0.945632 0.800702
0 0.0601511 0.222629
0.0562295 0 0.144045
0.167895 0 0.231952
0.316976 0 0.304967
0.397024 0 0.331197
0 0.273091 0.48719
0 0 0.403143
0.42948 0 0.560479
0.672526 0.0429236 0.611826
0.777279 0.0550698 0.628016
0 0.450507 0.627314
0 0.465248 0.646815
0.517082 0.592126 0.775723
0.813779 0.6477 0.808743
0.925155 0.659007 0.804944
0 0.524407 0.681407
0 0.597498 0.718883
0.54548 0.783185 0.817258
0.824475 0.840085 0.850675
0.940475 0.849271 0.846799
0 0.606821 0.736675
0 0.693599 0.761501
0.578622 0.88925 0.837461
0.816999 0.929046 0.861326
0.944717 0.947906 0.870619
