public/images/Fine Arts Cadres /TC_-_EDITING_ESSENTIALS_-_COLOR/TC - EXHIBITION_100.cube
TITLE "Generated by Resolve"
LUT_3D_SIZE 5
0.0176242 0.0465858 0.0562448
0.216556 0.0518196 0.0481422
0.684337 0 0
0.795514 0 0
0.79855 0 0
0 0.144091 0.050782
0.196231 0.160098 0.041062
0.739284 0.0769207 0
0.852689 0.0282902 0
0.854383 0.0198825 0
0 0.456779 0
0.0213626 0.49839 0
0.833143 0.617441 0
1 0.593393 0
1 0.579553 0
0 0.599542 0
0 0.639582 0
0.779217 0.820325 0
1 0.848173 0
1 0.845243 0
0 0.621546 0
0.00325017 0.661814 0
0.757153 0.846464 0
1 0.885817 0
1 0.8869 0
0 0.0585641 0.157733
0.209979 0.0565499 0.195346
0.701488 0 0.150622
0.796307 0 0.127337
0.798352 0 0.115129
0 0.155947 0.141588
0.150668 0.167315 0.162722
0.709041 0.110262 0.103075
0.85391 0.0436103 0.0662852
0.86125 0.0271 0.0533303
0 0.467033 0.0960555
0.000595102 0.50103 0.0935836
0.805508 0.625986 0.00299077
1 0.60412 0.000900282
1 0.59028 0
0 0.607126 0.0770733
0 0.645014 0.0598001
0.749447 0.826658 0
1 0.857389 0
1 0.855055 0.00190738
0 0.629068 0.0829938
0.00015259 0.666651 0.066804
0.726238 0.851835 0.00177005
1 0.895354 0.0016022
1 0.89662 0.00115969
0 0.0727245 0.429969
0 0.0569009 0.535103
0.682628 0 0.558862
0.790707 0 0.546548
0.793652 0 0.538918
0 0.182559 0.463844
0 0.206104 0.474784
0.703609 0.123247 0.568658
0.84802 0.0653544 0.547753
0.852369 0.0473335 0.538949
0 0.519738 0.432227
0 0.547601 0.487907
0.719081 0.68014 0.571206
0.998138 0.66479 0.54519
1 0.655131 0.527794
0 0.654841 0.419684
0 0.692164 0.467338
0.627466 0.879576 0.509239
0.99968 0.921553 0.5122
1 0.919341 0.51162
0 0.675471 0.415061
0 0.712306 0.454154
0.605814 0.902937 0.49337
0.997635 0.958373 0.499352
1 0.961059 0.504372
0 0.0803845 0.601373
0 0.0801404 0.634684
0.532662 0 0.705653
0.79881 0 0.695659
0.802396 0 0.69247
0 0.188785 0.654765
0 0.234134 0.651774
0.419989 0.234073 0.758312
0.849393 0.0845197 0.738659
0.856168 0.0704356 0.730709
0 0.552056 0.682689
0 0.567651 0.720241
0.381582 0.70309 0.809567
0.969497 0.656413 0.836103
0.998566 0.655146 0.833082
0 0.686046 0.660868
0 0.714 0.697917
0.454917 0.894316 0.802213
0.967224 0.947311 0.847913
1 0.958236 0.85539
0 0.70515 0.647654
0 0.735805 0.687724
0.452873 0.921904 0.790936
0.958846 0.99704 0.838956
1 0.998627 0.846372
0 0.0897688 0.636149
0 0.0884871 0.648173
0.289052 0.0433509 0.709682
0.801328 0 0.713237
0.806241 0 0.711803
0 0.197787 0.678645
0 0.248234 0.688624
0.245792 0.256352 0.765499
0.848737 0.0948653 0.768856
0.858549 0.0789654 0.76083
0 0.55491 0.737942
0 0.562173 0.781018
0.193439 0.688807 0.839521
0.934859 0.705028 0.902663
0.994339 0.656992 0.886213
0 0.693126 0.736522
0 0.715892 0.762493
0.387671 0.889143 0.865553
0.930251 0.964675 0.924102
1 0.9608 0.936248
0 0.711376 0.723095
0 0.738079 0.752514
0.35761 0.911147 0.850568
0.943954 0.999649 0.923247
0.999969 1 0.930831
