public/images/Fine Arts Cadres /TC_-_EDITING_ESSENTIALS_-_COLOR/TC - OPPENHEIMER - LOOK1 - LOG TO LOOK - STANDARD.cube
TITLE "Generated by Resolve"
LUT_3D_SIZE 5
0.00682078 0.0149538 0.0161593
0.127749 0.0483101 0.0328374
0.552819 0.133669 0.125917
0.685893 0.166186 0.155276
0.685893 0.166186 0.155276
0.055436 0.143694 0.0847944
0.15697 0.187457 0.0777905
0.635111 0.179767 0.149996
0.685893 0.166186 0.155276
0.685893 0.166186 0.155276
0.277836 0.725689 0.280964
0.276814 0.722988 0.280018
0.785977 0.751614 0.32047
0.872312 0.727626 0.322896
0.871458 0.724285 0.321736
0.322713 0.842954 0.325597
0.322713 0.842954 0.325597
0.5402 0.836713 0.330999
0.91046 0.826749 0.366995
0.910536 0.826841 0.367102
0.322713 0.842954 0.325597
0.322713 0.842954 0.325597
0.433814 0.840711 0.327092
0.910155 0.826383 0.366598
0.910536 0.826841 0.367102
0.0129702 0.0181582 0.0821088
0.165026 0.0543374 0.129412
0.583642 0.137942 0.150332
0.695735 0.164416 0.17586
0.695369 0.164385 0.175311
0.0556039 0.142733 0.109056
0.139269 0.183551 0.165011
0.635431 0.152453 0.152834
0.693889 0.16437 0.17145
0.693523 0.164431 0.169818
0.273915 0.715404 0.277272
0.272862 0.712688 0.27628
0.781872 0.745693 0.31812
0.870848 0.721889 0.320928
0.869993 0.718517 0.319768
0.322713 0.842954 0.325597
0.322713 0.842954 0.325597
0.534401 0.836774 0.330694
0.910384 0.826658 0.366903
0.910536 0.826841 0.367102
0.322713 0.842954 0.325597
0.322713 0.842954 0.325597
0.424704 0.841443 0.32694
0.910155 0.826383 0.366598
0.910536 0.826841 0.367102
0.0771954 0.173175 0.341329
0.0782635 0.173892 0.355489
0.580987 0.145937 0.426459
0.636362 0.157916 0.427405
0.636561 0.157931 0.426841
0.0762493 0.170809 0.338384
0.0765087 0.170367 0.345174
0.571298 0.143786 0.424842
0.637369 0.158007 0.424552
0.637568 0.158022 0.423987
0.260105 0.669902 0.477791
0.259297 0.667765 0.477089
0.815381 0.7897 0.699672
0.942 0.787594 0.684337
0.940887 0.782727 0.681773
0.312383 0.809125 0.491737
0.312428 0.809262 0.491386
0.483085 0.873014 0.654078
0.957046 0.932906 0.764965
0.957046 0.932815 0.764248
0.313283 0.812039 0.481743
0.313344 0.812207 0.481209
0.343694 0.840284 0.55967
0.957046 0.930938 0.74844
0.957046 0.930861 0.747906
0.107897 0.247913 0.447852
0.107897 0.247913 0.447852
0.536797 0.143694 0.540612
0.613748 0.160159 0.554711
0.613748 0.160159 0.554711
0.107897 0.247913 0.447852
0.107897 0.247913 0.447852
0.522103 0.140581 0.539193
0.613748 0.160159 0.554711
0.613748 0.160159 0.554711
0.235935 0.592706 0.612146
0.234958 0.590097 0.611383
0.598291 0.683818 0.851926
0.905791 0.700206 0.896193
0.903792 0.693385 0.89456
0.298528 0.760052 0.667643
0.298528 0.760098 0.667506
0.313985 0.79704 0.723018
0.957046 0.957046 0.957046
0.957046 0.957046 0.957046
0.298756 0.760876 0.665339
0.298756 0.760876 0.665339
0.298848 0.761212 0.664378
0.957046 0.957046 0.957046
0.957046 0.957046 0.957046
0.107897 0.247913 0.447852
0.107897 0.247913 0.447852
0.532189 0.142718 0.540185
0.613748 0.160159 0.554711
0.613748 0.160159 0.554711
0.107897 0.247913 0.447852
0.107897 0.247913 0.447852
0.517266 0.139574 0.53872
0.613748 0.160159 0.554711
0.613748 0.160159 0.554711
0.228275 0.572061 0.6056
0.227359 0.569589 0.604776
0.583185 0.657893 0.846021
0.897765 0.672694 0.889433
0.89546 0.664775 0.887282
0.297658 0.756939 0.676387
0.297673 0.756985 0.676249
0.310552 0.787793 0.725917
0.957046 0.957046 0.957046
0.957046 0.957046 0.957046
0.297612 0.756756 0.676936
0.297612 0.756756 0.676936
0.297612 0.756756 0.676936
0.957046 0.957046 0.957046
0.957046 0.957046 0.957046
