public/images/Fine Arts Cadres /TC_-_EDITING_ESSENTIALS_-_COLOR/TC - DUNKIRK.cube
TITLE "Generated by Resolve"
LUT_3D_SIZE 9
0 0 0
0 0 0
0 0 0
0.158129 0.000839246 0
0.330785 0 0
0.489433 0 0
0.660075 0 0
0.826444 0 0
0.984558 0 0
0.00553903 0.0208743 0
0.0212558 0.0293431 0
0.115068 0.0323644 0
0.282887 0.02533 0
0.50573 0 0
0.66305 0 0
0.827634 0 0
0.988525 0 0
1 0 0
0 0.143038 0
0 0.149615 0
0.111147 0.153079 0
0.348409 0.147005 0
0.602136 0.117952 0
0.768917 0.0818036 0
0.941207 0.0271763 0
1 0 0
1 0 0
0 0.372442 0
0 0.386084 0
0 0.396399 0
0.343465 0.397452 0
0.631418 0.390127 0
0.813947 0.378012 0
0.999313 0.358831 0
1 0.341146 0
1 0.331151 0
0 0.615686 0
0 0.628717 0
0 0.641123 0
0.200229 0.642817 0
0.586755 0.634607 0
0.782422 0.628519 0
0.964034 0.620005 0
1 0.613962 0
1 0.612299 0
0 0.798489 0
0 0.808682 0
0 0.810468 0
0 0.805371 0
0.521157 0.795392 0
0.733547 0.789227 0
0.918807 0.784833 0
1 0.78201 0
1 0.781888 0
0 0.942626 0
0 0.940856 0
0 0.935149 0
0 0.927367 0
0.467338 0.919951 0
0.699275 0.913436 0
0.890349 0.9093 0
1 0.907866 0
1 0.908461 0
0 1 0
0 1 0
0 1 0
0 1 0
0.428504 1 0
0.677455 1 0
0.871702 1 0
0.981674 1 0
1 1 0
0 1 0
0 1 0
0 1 0
0 1 0
0.429694 1 0
0.682139 1 0
0.868132 1 0
0.970382 1 0
1 1 0
0 0 0
0 0 0
0.0682994 0 0.0191196
0.19028 0 0.0158846
0.364446 0 0.0200809
0.518563 0 0.0182956
0.680903 0 0.0143282
0.841047 0 0.00798047
0.997116 0 0
0 0.032578 0.0129244
0.0210575 0.0321813 0.0219577
0.117098 0.0317082 0.0265812
0.289677 0.0213931 0.0302739
0.5149 0 0.025742
0.672312 0 0.0189822
0.839429 0 0.0103914
1 0 0
1 0 0
0 0.141131 0.017319
0 0.14844 0.0171511
0.112139 0.149172 0.0218051
0.359777 0.141466 0.0136568
0.616129 0.109377 0.00276188
0.782452 0.0700847 0
0.953872 0.0148623 0
1 0 0
1 0 0
0 0.381552 0
0 0.39237 0
0 0.399588 0
0.351339 0.397742 0
0.641993 0.390051 0
0.827283 0.376577 0
1 0.356542 0
1 0.339681 0
1 0.33077 0
0 0.624887 0
0 0.636912 0
0 0.646403 0
0.205707 0.643824 0
0.592844 0.634394 0
0.786526 0.628733 0
0.965698 0.620783 0
1 0.615412 0
1 0.614176 0
0 0.80795 0
0 0.81294 0
0 0.812146 0
0 0.804685 0
0.529381 0.794766 0
0.740154 0.789151 0
0.923018 0.78558 0
1 0.783322 0
1 0.783429 0
0 0.944854 0
0 0.94081 0
0 0.934066 0
0 0.926955 0
0.477485 0.919539 0
0.70782 0.913039 0
0.895933 0.909316 0
1 0.908492 0
1 0.909483 0
0 1 0
0 1 0
0 1 0
0 1 0
0.440696 1 0
0.687037 1 0
0.878111 1 0
0.983948 1 0
1 1 0
0 1 0
0 1 0
0 1 0
0 1 0
0.442634 1 0
0.692531 1 0
0.874266 1 0
0.973022 1 0
1 1 0
0 0 0.0170596
0.024033 0 0.0653239
0.0844434 0 0.0794842
0.209873 0 0.0910658
0.385092 0 0.095613
0.536065 0 0.0959182
0.69601 0 0.0948501
0.854948 0 0.092134
1 0 0.0881361
0 0.0193179 0.114092
0.00349432 0.0164645 0.115251
0.113512 0.0151827 0.112108
0.291173 0.00434882 0.120729
0.519371 0 0.124483
0.677699 0 0.124849
0.84332 0 0.123873
1 0 0.121691
1 0 0.121508
0 0.15198 0.0969253
0 0.149111 0.111818
0.0937667 0.139849 0.130343
0.355947 0.127977 0.136355
0.612573 0.0932021 0.138582
0.779828 0.0514076 0.136797
0.952972 0 0.132784
1 0 0.128206
1 0 0.12845
0 0.385794 0.0556191
0 0.388235 0.0720531
0 0.405097 0.0573129
0.354742 0.389761 0.0820478
0.648722 0.382528 0.0483406
0.834989 0.36791 0.0331121
1 0.348409 0.0201114
1 0.333318 0.0146792
1 0.326162 0.0182498
0 0.622263 0
0 0.633066 0
0 0.650919 0
0.195605 0.640864 0
0.59585 0.628367 0
0.786786 0.624048 0
0.964767 0.616846 0
1 0.611811 0
1 0.610819 0
0 0.802533 0
0 0.81268 0
0 0.813703 0
0 0.801648 0
0.531624 0.789776 0
0.743954 0.783429 0
0.924269 0.781003 0
1 0.778988 0
1 0.778912 0
0 0.933547 0
0 0.942229 0
0 0.933639 0
0 0.924254 0
0.478691 0.914565 0
0.711315 0.906523 0
0.898314 0.902754 0
1 0.902678 0
1 0.903853 0
0 1 0
0 1 0
0 1 0
0 1 0
0.440482 1 0
0.689937 1 0
0.88011 0.995178 0
0.983246 0.994278 0
1 0.995087 0
0 1 0
0 1 0
0 1 0
0 1 0
0.440864 1 0
0.694499 1 0
0.875273 1 0
0.972137 1 0
1 1 0
0 0 0.17879
0 0 0.166888
0.0855116 0 0.17818
0.210864 0 0.200275
0.391501 0 0.218387
0.54464 0 0.22797
0.705898 0 0.238315
0.86566 0 0.248844
1 0 0.259861
0 0 0.296513
0 0 0.278294
0.0953384 0 0.259068
0.289281 0 0.279225
0.522881 0 0.295628
0.681971 0 0.30573
0.848524 0 0.317327
1 0 0.329122
1 0 0.342031
0 0.0990768 0.327291
0 0.0700236 0.363348
0.0315557 0.0526436 0.363104
0.345998 0.043534 0.345861
0.610422 0 0.358709
0.775769 0 0.36733
0.948638 0 0.376989
1 0 0.386816
1 0 0.398917
0 0.421805 0.26627
0 0.413275 0.297841
0 0.399313 0.327932
0.304189 0.369894 0.363378
0.618631 0.357259 0.370901
0.80415 0.342809 0.379065
0.985916 0.323827 0.385657
1 0.307729 0.393744
1 0.300298 0.404547
0 0.657176 0.211872
0 0.643442 0.271992
0 0.627863 0.311742
0.010956 0.637064 0.300908
0.590097 0.598917 0.356817
0.778088 0.598718 0.3467
0.956497 0.592096 0.35169
1 0.58761 0.361822
1 0.587396 0.374731
0 0.813245 0.195056
0 0.79733 0.246891
0 0.787717 0.282246
0 0.795377 0.272343
0.514199 0.77023 0.332403
0.741115 0.757885 0.351644
0.918746 0.758221 0.341619
1 0.756268 0.347677
1 0.755932 0.362768
0 0.929122 0.175479
0 0.914641 0.231235
0 0.906264 0.278538
0 0.916197 0.256031
0.453498 0.897536 0.314687
0.702922 0.884504 0.35256
0.894316 0.879179 0.357275
1 0.880522 0.356451
1 0.881758 0.368185
0 1 0.188602
0 1 0.23801
0 0.997955 0.290715
0 1 0.2607
0.408103 0.991653 0.317998
0.678752 0.981353 0.355978
0.873838 0.970581 0.396048
0.977279 0.97081 0.391196
1 0.97203 0.398383
0 1 0.228443
0 1 0.276402
0 1 0.331334
0 1 0.297047
0.404501 1 0.350683
0.681208 1 0.386999
0.868345 1 0.42652
0.966644 1 0.452766
1 1 0.455467
0 0 0.321538
0 0 0.282765
0.0668956 0 0.291325
0.203586 0 0.330541
0.39263 0 0.362264
0.545174 0 0.381506
0.708232 0 0.399664
0.869352 0 0.41706
1 0 0.434485
0 0 0.483543
0 0 0.46099
0.0463264 0 0.431067
0.275975 0 0.454414
0.518456 0 0.475624
0.677211 0 0.488731
0.848676 0 0.503975
1 0 0.517952
1 0 0.533257
0 0 0.565866
0 0 0.595621
0 0 0.574121
0.326757 0 0.550622
0.60087 0 0.557855
0.779065 0 0.570291
0.948837 0 0.578347
1 0 0.589441
1 0 0.603784
0 0.39263 0.541878
0 0.3729 0.578592
0 0.341527 0.613504
0.225727 0.301717 0.614771
0.608179 0.288151 0.595972
0.811017 0.253788 0.604425
0.982147 0.241047 0.608011
1 0.223774 0.6159
1 0.216678 0.625956
0 0.669764 0.473579
0 0.660899 0.5037
0 0.641382 0.529778
0 0.614008 0.560265
0.533135 0.581415 0.581262
0.727504 0.578546 0.588647
0.911818 0.572442 0.59968
1 0.568292 0.610498
1 0.568917 0.623102
0 0.845304 0.416999
0 0.822644 0.457618
0 0.791257 0.508598
0 0.759213 0.560479
0.451728 0.758541 0.56202
0.716228 0.735988 0.588113
0.907652 0.729305 0.593744
1 0.728634 0.599985
1 0.729625 0.610758
0 0.948013 0.416434
0 0.919448 0.47866
0 0.895567 0.529381
0 0.879652 0.564385
0.34107 0.893507 0.54432
0.678218 0.863798 0.5953
0.887663 0.850477 0.611246
0.994247 0.85478 0.607752
1 0.856641 0.61738
0 1 0.457511
0 0.992889 0.507134
0 0.982101 0.542916
0 0.970764 0.579019
0.299413 0.980301 0.555413
0.649668 0.962753 0.595331
0.863615 0.945983 0.635599
0.970092 0.945663 0.63299
1 0.947814 0.6365
0 1 0.499779
0 1 0.536797
0 1 0.56849
0 1 0.609201
0.306722 1 0.580194
0.65098 1 0.614511
0.85716 1 0.651118
0.959289 0.996536 0.672633
1 0.997604 0.675654
0 0 0.456413
0 0 0.406409
0.0360266 0 0.412711
0.188525 0 0.458076
0.387961 0 0.491478
0.545281 0 0.512093
0.707332 0 0.533059
0.869947 0 0.552697
1 0 0.571038
0 0 0.629145
0 0 0.607553
0 0 0.563973
0.255818 0 0.59266
0.511574 0 0.615442
0.676555 0 0.629633
0.842969 0 0.644038
1 0 0.660212
1 0 0.675074
0 0 0.740673
0 0 0.759716
0 0 0.729931
0.288869 0 0.697993
0.592691 0 0.706859
0.766125 0 0.713161
0.943832 0 0.72314
1 0 0.735027
1 0 0.749294
0 0.333989 0.737774
0 0.29987 0.773785
0 0.251301 0.803296
0.134524 0.213443 0.784649
0.599527 0.168124 0.763165
0.789822 0.172366 0.753231
0.986816 0.0942245 0.760586
1 0.0941482 0.760815
1 0.0959945 0.76582
0 0.655604 0.6813
0 0.640879 0.712551
0 0.615351 0.736416
0 0.576913 0.762249
0.493523 0.546395 0.745449
0.721279 0.54432 0.732265
0.92459 0.527291 0.739864
1 0.531929 0.744945
1 0.535393 0.754574
0 0.841749 0.61622
0 0.820935 0.63859
0 0.795758 0.659602
0 0.76939 0.686717
0.345373 0.746517 0.708247
0.677394 0.725185 0.719509
0.867887 0.722469 0.726238
1 0.719783 0.73402
1 0.720424 0.746807
0 0.951888 0.57142
0 0.930694 0.601297
0 0.9084 0.635157
0 0.877363 0.686809
0.390021 0.857832 0.711315
0.633539 0.861662 0.703731
0.869673 0.840131 0.72755
0.986496 0.838376 0.732738
1 0.841474 0.739345
0 1 0.569604
0 0.99585 0.613199
0 0.977768 0.660838
0 0.960555 0.696864
0.397925 0.947219 0.720134
0.593683 0.959197 0.69482
0.851423 0.932616 0.746868
0.965255 0.929213 0.748867
1 0.932433 0.749676
0 1 0.605035
0 1 0.65008
0 1 0.685222
0 1 0.714183
0.387808 1 0.728573
0.608972 1 0.712093
0.846708 0.99147 0.751904
0.954559 0.982528 0.773236
1 0.983322 0.776196
0 0 0.583047
0 0 0.529168
0 0 0.532174
0.166552 0 0.577539
0.379232 0 0.611887
0.541588 0 0.632715
0.707637 0 0.654124
0.868711 0 0.674556
1 0 0.694514
0 0 0.759838
0 0 0.739818
0 0 0.695399
0.229114 0 0.71574
0.500786 0 0.738766
0.671427 0 0.752941
0.843168 0 0.767544
1 0 0.781399
1 0 0.797833
0 0 0.885451
0 0 0.89366
0 0 0.861357
0.234852 0 0.823377
0.579889 0 0.827161
0.760769 0 0.832822
0.938521 0 0.838666
1 0 0.851469
1 0 0.86305
0 0.258412 0.885954
0 0.210941 0.913115
0 0.144259 0.930495
0.0226444 0.0989395 0.904311
0.580392 0.0107576 0.876616
0.785855 0 0.867628
0.964431 0.0106355 0.857923
1 0 0.864302
1 0 0.862684
0 0.633295 0.831357
0 0.613214 0.85864
0 0.582818 0.876387
0 0.539696 0.888975
0.458625 0.516365 0.855177
0.721431 0.497627 0.844144
0.902571 0.518853 0.823056
1 0.495476 0.835904
1 0.506218 0.839887
0 0.832593 0.761563
0 0.809842 0.776974
0 0.783581 0.790188
0 0.754849 0.810239
0.278218 0.725795 0.828153
0.660319 0.707881 0.815839
0.88069 0.696483 0.817273
0.998886 0.699458 0.824125
1 0.704158 0.832639
0 0.943862 0.699535
0 0.924681 0.717647
0 0.906126 0.73753
0 0.884688 0.764111
0.209522 0.863996 0.786496
0.604303 0.845716 0.807157
0.84654 0.836103 0.80798
0.971893 0.833051 0.81503
1 0.833692 0.823041
0 1 0.669352
0 0.994888 0.6963
0 0.98027 0.728649
0 0.957778 0.776593
0.321721 0.941314 0.800717
0.646174 0.929061 0.815579
0.823285 0.930739 0.813169
0.956649 0.919493 0.827604
1 0.920043 0.832944
0 1 0.678813
0 1 0.719692
0 1 0.763714
0 1 0.797909
0.377462 0.991836 0.815717
0.637705 0.989029 0.81622
0.827268 0.984451 0.821775
0.947005 0.971054 0.850416
0.996582 0.97116 0.851881
0 0 0.692866
0 0 0.637324
0 0 0.634409
0.141741 0 0.674495
0.369787 0 0.707668
0.537163 0 0.727672
0.706554 0 0.748028
0.870497 0 0.767712
1 0 0.78648
0 0 0.858701
0 0 0.838834
0 0 0.793851
0.200916 0 0.805951
0.491249 0 0.827832
0.666438 0 0.841398
0.841703 0 0.855543
1 0 0.868574
1 0 0.882994
0 0 0.972152
0 0 0.973434
0 0 0.946197
0.18352 0 0.912367
0.568566 0 0.912688
0.754696 0 0.918502
0.937285 0 0.924483
1 0 0.932158
1 0 0.947265
0 0.190494 0.976272
0 0.130373 0.994034
0 0.0356146 1
0 0 0.984466
0.551873 0 0.960571
0.77734 0 0.952636
0.964324 0 0.945205
1 0 0.93698
1 0 0.94197
0 0.611749 0.939635
0 0.588571 0.958328
0 0.555367 0.968856
0 0.510521 0.971618
0.423194 0.488823 0.940932
0.708156 0.46128 0.929381
0.904524 0.474922 0.913909
1 0.46537 0.913481
1 0.471351 0.916182
0 0.81854 0.881346
0 0.794903 0.893004
0 0.767376 0.902373
0 0.735302 0.916808
0.218997 0.703166 0.925109
0.634928 0.688746 0.905394
0.863096 0.678798 0.900206
1 0.663676 0.904021
1 0.681193 0.903319
0 0.93225 0.823514
0 0.914488 0.8365
0 0.896254 0.850553
0 0.874784 0.868467
0 0.854444 0.882475
0.54583 0.836759 0.892348
0.834318 0.819348 0.89131
0.966018 0.81767 0.892699
1 0.826627 0.896986
0 0.996033 0.782925
0 0.985504 0.800427
0 0.973938 0.818235
0 0.959304 0.84152
0.0383917 0.94345 0.86096
0.563592 0.929137 0.877607
0.816831 0.919326 0.88304
0.943893 0.914412 0.887297
1 0.913603 0.89276
0 1 0.76875
0 1 0.793286
0 1 0.82182
0 0.999496 0.859693
0.301305 0.98529 0.878447
0.633265 0.976669 0.886427
0.819226 0.975402 0.883146
0.935683 0.965042 0.901762
0.992203 0.963607 0.903059
0 0 0.771038
0 0 0.722057
0 0 0.709117
0.113863 0 0.754849
0.359747 0 0.788815
0.532189 0 0.809155
0.704662 0 0.829694
0.870985 0 0.849531
1 0 0.868452
0 0 0.93846
0 0 0.922988
0 0 0.882963
0.164446 0 0.889052
0.480293 0 0.909819
0.660319 0 0.922347
0.839124 0 0.934661
1 0 0.946029
1 0 0.956863
0 0 1
0 0 1
0 0 1
0.147662 0 0.974258
0.555215 0 0.984222
0.747662 0 0.988464
0.934844 0 0.992798
1 0 0.998581
1 0 1
0 0.135149 1
0 0.0562753 1
0 0 1
0 0 1
0.516396 0 1
0.767803 0 1
0.960571 0 1
1 0 0.99765
1 0 0.994858
0 0.599115 1
0 0.573526 1
0 0.538247 1
0 0.492454 1
0.38851 0.470542 0.996155
0.682475 0.43682 0.986969
0.902724 0.439826 0.97615
1 0.460258 0.967208
1 0.4327 0.973251
0 0.809171 0.95993
0 0.784039 0.9673
0 0.755276 0.973083
0 0.720913 0.981186
0.16965 0.688991 0.981537
0.610101 0.675746 0.965011
0.862196 0.653529 0.961547
0.986282 0.676493 0.948211
1 0.654932 0.95671
0 0.920943 0.916854
0 0.903975 0.924514
0 0.886824 0.93344
0 0.86569 0.944701
0 0.84361 0.952773
0.518532 0.824292 0.955337
0.828061 0.807919 0.943679
0.953719 0.817975 0.935866
1 0.808652 0.943801
0 0.984649 0.882399
0 0.975219 0.893446
0 0.965103 0.903899
0 0.952743 0.915923
0 0.938338 0.922896
0.48159 0.927489 0.928038
0.783902 0.914076 0.934081
0.936996 0.906996 0.934188
0.995636 0.909438 0.937789
0 1 0.859419
0 1 0.873274
0 1 0.886854
0 1 0.903288
0 0.987854 0.915282
0.55494 0.976455 0.925429
0.810666 0.966339 0.932067
0.92694 0.962158 0.935546
0.986038 0.960662 0.937682
