public/images/Fine Arts Cadres /TC_-_EDITING_ESSENTIALS_-_COLOR/TC - STRANGER THINGS - LOG TO LOOK - 2.cube
TITLE "Generated by Resolve"
LUT_3D_SIZE 33
0.0061799 0.00952163 0.0102083
0.0061799 0.00952163 0.0102083
0.0061799 0.00952163 0.0102083
0.0061799 0.00952163 0.0102083
0.0149081 0.0144808 0.0126955
0.0381476 0.0195468 0.0108949
0.0602731 0.0242618 0.00906386
0.08336 0.0258335 0.00653086
0.107607 0.0259709 0.0039826
0.1337 0.0237583 0.00117494
0.168826 0.019913 0
0.212848 0.0138705 0
0.268025 0.00619516 0
0.32813 0.0010071 0
0.388556 0.00367742 0.00265507
0.437873 0.00830091 0.0142214
0.482002 0.0138094 0.0263676
0.514839 0.0186007 0.0368048
0.548684 0.0242008 0.047013
0.58439 0.0309453 0.0577096
0.619028 0.0372931 0.0678721
0.65275 0.0434882 0.0775464
0.685191 0.0494698 0.0866712
0.717723 0.0554665 0.0956893
0.749844 0.0614176 0.104494
0.780362 0.0670634 0.11281
0.810071 0.0725872 0.120729
0.837232 0.0776379 0.127932
0.862882 0.082414 0.134707
0.878553 0.0880293 0.142168
0.879652 0.0946517 0.150378
0.880613 0.100404 0.157519
0.881407 0.105196 0.163424
0.0061799 0.00952163 0.0102083
0.0061799 0.00952163 0.0102083
0.0061799 0.00952163 0.0102083
0.0061799 0.00952163 0.0102083
0.0125887 0.0137179 0.0124971
0.036408 0.0190738 0.011017
0.0589609 0.0241245 0.00920119
0.0828107 0.0258335 0.0065919
0.108736 0.025864 0.00384527
0.135485 0.0235904 0.000991836
0.169757 0.019791 0
0.210147 0.0143435 0
0.260899 0.00720226 0
0.319097 0.000762951 0
0.379416 0.00315862 0.000976577
0.430533 0.00750744 0.0122683
0.475212 0.0128786 0.0244297
0.509041 0.0177157 0.0350042
0.542687 0.0231479 0.0452583
0.57847 0.0298619 0.0559701
0.612848 0.0361639 0.066041
0.646189 0.0422675 0.0757458
0.679149 0.0483406 0.0850538
0.712032 0.0544289 0.0941176
0.744213 0.0603799 0.102953
0.774823 0.066041 0.11133
0.80444 0.0715343 0.119249
0.831846 0.0766308 0.126513
0.857969 0.0814984 0.133394
0.878294 0.0864118 0.1402
0.879408 0.0931716 0.148592
0.880415 0.0992294 0.156054
0.881239 0.104189 0.162142
0.0061799 0.00952163 0.0102083
0.0061799 0.00952163 0.0102083
0.0061799 0.00952163 0.0102083
0.0061799 0.00952163 0.0102083
0.0137026 0.0140841 0.0126192
0.0392004 0.0198215 0.0108034
0.0623636 0.0244907 0.00888075
0.0856489 0.0258335 0.00627146
0.109285 0.0258183 0.00378424
0.134752 0.0236667 0.00106813
0.168017 0.0199741 0
0.206546 0.0148165 0
0.255573 0.00793469 0
0.312718 0.000595102 0
0.372717 0.0027924 0
0.425177 0.0069276 0.0110018
0.470069 0.0122072 0.0229801
0.505699 0.0172122 0.033875
0.538766 0.0224918 0.0440375
0.57406 0.0290532 0.0546273
0.608469 0.0353552 0.064744
0.641993 0.0415045 0.0744793
0.674922 0.0475624 0.0838788
0.70721 0.0535286 0.0927901
0.73872 0.0593576 0.101503
0.770108 0.065156 0.110048
0.799527 0.070634 0.117922
0.826932 0.0757153 0.1252
0.852979 0.0805676 0.132067
0.877653 0.0851606 0.138567
0.879194 0.0918746 0.14696
0.880201 0.0979019 0.154421
0.881071 0.103136 0.160876
0.0068513 0.0132906 0.0131838
0.00686656 0.01355 0.0133822
0.0068513 0.0132906 0.0131838
0.00669871 0.0122683 0.0123751
0.0106661 0.0145418 0.0130007
0.0371862 0.0197299 0.0111696
0.0583658 0.0240482 0.00926223
0.0807507 0.0258335 0.00683604
0.104677 0.0259251 0.00424201
0.130098 0.0240787 0.00154116
0.16318 0.0206912 0
0.202152 0.0153506 0
0.251637 0.00846876 0
0.310842 0.000549325 0
0.372717 0.0027924 0
0.427497 0.007187 0.0115206
0.471641 0.0124056 0.0234684
0.506188 0.0172885 0.0340734
0.539345 0.0225986 0.0441749
0.573449 0.0289464 0.0544747
0.607416 0.0351568 0.0644694
0.640345 0.0412146 0.0739757
0.672404 0.0471046 0.0831311
0.70399 0.0529335 0.0919203
0.734951 0.0586557 0.100435
0.765805 0.0643626 0.108873
0.794903 0.0697642 0.116701
0.822644 0.0749218 0.124071
0.848432 0.0797131 0.130892
0.873243 0.0843366 0.137407
0.878981 0.0905928 0.145403
0.880018 0.0968185 0.153079
0.880903 0.102129 0.159655
0.00779736 0.0249485 0.0216068
0.00772107 0.0240787 0.021088
0.00766003 0.0231327 0.0205081
0.00753796 0.0217594 0.0195315
0.00759899 0.0214542 0.0190433
0.0357519 0.0297551 0.0175937
0.0696727 0.033875 0.0124819
0.0932631 0.0360723 0.00885023
0.119936 0.0366827 0.00512703
0.149111 0.0343023 0.0018616
0.185824 0.0298924 0
0.230304 0.023682 0
0.287938 0.0154269 0
0.352865 0.00582895 0
0.415976 0.00823987 0.00149538
0.471672 0.0133364 0.0150454
0.516426 0.0197604 0.0289464
0.549905 0.0253147 0.0401007
0.585016 0.0319219 0.0512703
0.620127 0.0383154 0.0619516
0.655344 0.0447547 0.072343
0.688548 0.0508431 0.082002
0.721187 0.0568551 0.0912642
0.754574 0.063035 0.10045
0.786465 0.068925 0.109209
0.818341 0.0748302 0.117861
0.846922 0.0801556 0.125429
0.872572 0.0849317 0.132143
0.879088 0.091722 0.140673
0.880217 0.0984817 0.148852
0.881132 0.104005 0.155352
0.88188 0.108537 0.160647
0.882567 0.112749 0.165484
0.00872816 0.0373083 0.0288701
0.00866712 0.0363622 0.028336
0.00857557 0.0352331 0.0276799
0.0084535 0.0335851 0.0267338
0.0083772 0.0327001 0.0261997
0.0178225 0.0408942 0.0218051
0.067216 0.0500343 0.016846
0.103273 0.0528725 0.0121309
0.139467 0.0538949 0.00680552
0.175158 0.0514534 0.00300603
0.2177 0.0468452 0
0.272786 0.0399939 0
0.340352 0.031281 0
0.409751 0.0218051 0
0.471794 0.0189059 0.000534066
0.529381 0.0255131 0.0168307
0.577218 0.0324254 0.0325628
0.612116 0.0386206 0.0450599
0.648066 0.0450599 0.0571145
0.683497 0.0514534 0.0686046
0.717983 0.0576944 0.0793622
0.750912 0.0636912 0.0893568
0.783093 0.0695506 0.0988937
0.81474 0.0753338 0.108156
0.844663 0.0808423 0.116655
0.872541 0.0859693 0.124544
0.879164 0.0927749 0.133364
0.880247 0.099321 0.141619
0.881163 0.10486 0.148486
0.881941 0.109499 0.15404
0.882612 0.113588 0.15877
0.883207 0.117205 0.162783
0.883741 0.120409 0.166415
0.00970474 0.0501717 0.0361334
0.0096437 0.0493782 0.0356909
0.00956741 0.048249 0.0350652
0.00944533 0.0467536 0.034226
0.0093843 0.0459449 0.0337682
0.0114595 0.0514382 0.0293736
0.0482643 0.0668956 0.0195621
0.0989548 0.0753185 0.018265
0.149142 0.0771344 0.0112154
0.196185 0.074876 0.00608835
0.247578 0.0701152 0.00238041
0.312581 0.0631266 0
0.382773 0.0551156 0
0.451606 0.0466621 0
0.512276 0.0389258 0.000808728
0.568154 0.0383307 0.0107576
0.619181 0.0452277 0.0289921
0.655756 0.050309 0.0416266
0.691264 0.0553292 0.0533455
0.726497 0.0612192 0.0654307
0.759854 0.0671702 0.0768749
0.792004 0.0729381 0.0874037
0.823331 0.078584 0.0974136
0.853361 0.0840162 0.106813
0.878416 0.0893416 0.115541
0.879698 0.0969863 0.125963
0.880735 0.103212 0.134325
0.88159 0.108232 0.140902
0.882307 0.112596 0.146578
0.882979 0.116609 0.15169
0.883543 0.120027 0.155795
0.884016 0.122866 0.159243
0.884428 0.125292 0.16202
0.0107576 0.06392 0.0440528
0.0106966 0.063035 0.0435035
0.010605 0.0618448 0.0428168
0.0104677 0.0602121 0.0417945
0.0104219 0.0594797 0.0413519
0.0114595 0.0636301 0.0384222
0.0248875 0.0795758 0.0201419
0.0899062 0.0952316 0.0224308
0.139635 0.101152 0.0185702
0.201068 0.0998245 0.0109407
0.264698 0.0940566 0.00604257
0.342184 0.0866712 0.00296025
0.415274 0.0789044 0.00231937
0.48455 0.0711376 0.00370794
0.544762 0.0641337 0.00653086
0.599466 0.057847 0.0104219
0.648219 0.0559243 0.0200504
0.68484 0.0608682 0.0340581
0.720256 0.0657359 0.0468452
0.755062 0.0706035 0.0587778
0.789136 0.0754406 0.0700236
0.821195 0.0800793 0.0805371
0.851041 0.0854047 0.0908522
0.878386 0.0903944 0.100145
0.879667 0.0980087 0.111437
0.880781 0.10454 0.120897
0.881636 0.109682 0.128145
0.882368 0.11397 0.134295
0.883055 0.118059 0.139803
0.883635 0.121492 0.144427
0.884092 0.1243 0.148013
0.884489 0.126619 0.150881
0.884794 0.128435 0.153079
0.0119478 0.0789349 0.0532235
0.0118715 0.0779889 0.0526436
0.0117647 0.0767376 0.0518654
0.0116274 0.0749218 0.0507362
0.0115663 0.0740978 0.050248
0.0118868 0.0762036 0.0472877
0.0149233 0.0871595 0.0338598
0.0774243 0.110231 0.0229801
0.132921 0.125124 0.0263828
0.192737 0.129992 0.0192569
0.260365 0.126085 0.0129702
0.35317 0.117815 0.00852979
0.437324 0.109483 0.00793469
0.511055 0.10193 0.00993362
0.573953 0.0952773 0.0134737
0.628962 0.0890059 0.0178683
0.676356 0.0837568 0.0229801
0.709285 0.0800183 0.0265202
0.740826 0.0765545 0.0306096
0.774853 0.081117 0.0440223
0.80798 0.0855879 0.0565347
0.838712 0.0899062 0.0672618
0.867628 0.0938888 0.0773632
0.878996 0.0996567 0.0883803
0.880293 0.105791 0.0986496
0.881346 0.110964 0.107042
0.8822 0.115114 0.113619
0.882933 0.118929 0.119783
0.883528 0.122469 0.125063
0.884047 0.12549 0.129519
0.884459 0.127916 0.132753
0.884764 0.129793 0.135058
0.885023 0.131334 0.137011
0.0132143 0.0952926 0.0628367
0.0131228 0.0942245 0.0621958
0.0130007 0.0927138 0.0612802
0.0128328 0.090547 0.0599832
0.0127565 0.089601 0.0594339
0.0127565 0.0900587 0.0568704
0.0141146 0.0978866 0.0453956
0.061326 0.124697 0.0231479
0.12398 0.145739 0.0293736
0.186603 0.159625 0.0299382
0.248096 0.16289 0.023621
0.33991 0.159274 0.0176242
0.439399 0.150744 0.0156863
0.524056 0.142412 0.0176699
0.593042 0.135424 0.0216526
0.651621 0.129366 0.0266728
0.699458 0.123629 0.0316777
0.731624 0.120287 0.0350347
0.76141 0.116487 0.038117
0.791867 0.112932 0.0413672
0.82031 0.109697 0.0444343
0.848142 0.106798 0.0475319
0.873137 0.104372 0.0508431
0.878309 0.110246 0.0637675
0.879561 0.115831 0.0743267
0.880552 0.120378 0.0825208
0.881437 0.124254 0.0899977
0.8822 0.127703 0.0963455
0.882856 0.130648 0.101701
0.883391 0.133104 0.106157
0.883787 0.135103 0.109133
0.884077 0.136675 0.111299
0.884337 0.138079 0.1131
0.0150607 0.115938 0.0741436
0.0149081 0.114275 0.0733043
0.0146944 0.11194 0.0721141
0.0143893 0.108583 0.0704204
0.0142672 0.107149 0.069688
0.0141299 0.105882 0.0681773
0.0144045 0.110536 0.0551308
0.0346838 0.135973 0.0224155
0.107591 0.163836 0.0296025
0.180117 0.187823 0.0409705
0.242267 0.198627 0.0370184
0.318975 0.202075 0.030518
0.419059 0.199557 0.026688
0.51696 0.192126 0.0273594
0.59884 0.184237 0.0312963
0.664866 0.177127 0.0368048
0.716152 0.171511 0.0415045
0.749813 0.16733 0.0446632
0.780011 0.163867 0.0476539
0.808911 0.160876 0.0506142
0.836347 0.157702 0.0534066
0.861799 0.154543 0.0560311
0.882048 0.152941 0.0590219
0.882475 0.153628 0.06421
0.882734 0.153338 0.0683604
0.88307 0.154299 0.0719921
0.883253 0.153933 0.0751049
0.883482 0.154376 0.0779431
0.883635 0.154299 0.0802625
0.883772 0.154391 0.0822003
0.88394 0.154986 0.0837568
0.884077 0.155489 0.085008
0.884199 0.155962 0.0861219
0.0178683 0.142794 0.0882887
0.0176394 0.14078 0.0872511
0.0173037 0.137789 0.0857099
0.0168765 0.133776 0.0833753
0.0166629 0.131884 0.0823835
0.0164645 0.129946 0.0813764
0.0163577 0.131762 0.0661936
0.0234684 0.15317 0.0374304
0.0852369 0.184634 0.0298314
0.164431 0.214435 0.042237
0.240665 0.238544 0.0573892
0.310094 0.248142 0.0493172
0.400305 0.253452 0.0437629
0.495613 0.252338 0.0423133
0.589136 0.245182 0.0445716
0.665721 0.236133 0.0491035
0.724727 0.228611 0.0532845
0.762585 0.22298 0.0561532
0.793225 0.21915 0.0587778
0.822461 0.215885 0.0614481
0.849638 0.212451 0.0639353
0.873945 0.210025 0.066331
0.888212 0.209522 0.0696117
0.888548 0.209751 0.0741436
0.888884 0.210468 0.0780499
0.889113 0.210452 0.0813153
0.889403 0.211383 0.0843671
0.889555 0.211109 0.0869154
0.889738 0.211536 0.0890974
0.889845 0.211261 0.090837
0.890013 0.211948 0.0923629
0.890105 0.2121 0.0935225
0.890227 0.212573 0.0945907
0.0224002 0.178592 0.105379
0.0219883 0.175692 0.104005
0.0214542 0.171695 0.102144
0.0207065 0.16614 0.0994888
0.0203555 0.163409 0.0981765
0.0200504 0.160983 0.0970474
0.0195621 0.159655 0.081529
0.0242618 0.175051 0.0585336
0.0608988 0.20853 0.030808
0.14522 0.245945 0.0445716
0.230091 0.277913 0.0630961
0.307836 0.301106 0.0801099
0.393179 0.312734 0.0705882
0.47892 0.320729 0.0675364
0.569543 0.322576 0.0679026
0.653574 0.315694 0.0690318
0.723934 0.30663 0.0713207
0.770291 0.298207 0.073106
0.803021 0.292073 0.0747234
0.832929 0.287419 0.0766155
0.860243 0.284199 0.078706
0.884092 0.281483 0.0806287
0.896071 0.280522 0.0836652
0.896391 0.280964 0.0877089
0.896681 0.281498 0.0910811
0.896986 0.282506 0.0941939
0.897276 0.283421 0.0970016
0.897475 0.283833 0.0994278
0.897627 0.284062 0.101381
0.897826 0.284779 0.103105
0.897963 0.285283 0.104494
0.89807 0.285557 0.105623
0.898238 0.286442 0.106752
0.0294041 0.223316 0.125719
0.0286717 0.219074 0.123873
0.0277256 0.213474 0.121416
0.0265507 0.20621 0.118181
0.0259861 0.202701 0.116564
0.0254978 0.199557 0.115145
0.024567 0.195224 0.101503
0.0280766 0.205051 0.0798352
0.0476234 0.244312 0.0449836
0.11899 0.284794 0.0485695
0.214252 0.326253 0.0704051
0.294911 0.354009 0.092607
0.391409 0.380911 0.115084
0.472313 0.392706 0.105669
0.554864 0.39971 0.100832
0.634897 0.400214 0.0982986
0.711833 0.393149 0.0966812
0.771588 0.383673 0.0962997
0.80708 0.374594 0.0958572
0.838788 0.368521 0.0964981
0.867521 0.363928 0.097612
0.891707 0.360601 0.0988479
0.905028 0.359625 0.101198
0.905303 0.35993 0.104799
0.905562 0.360601 0.10779
0.905867 0.36173 0.110628
0.906081 0.362173 0.113024
0.906386 0.363668 0.115328
0.906554 0.364187 0.117128
0.906706 0.364691 0.118608
0.906874 0.365423 0.119921
0.907012 0.36611 0.121065
0.907118 0.366537 0.122042
0.0403449 0.279133 0.150637
0.039353 0.274525 0.148562
0.0380102 0.268208 0.145693
0.0361944 0.259464 0.141787
0.0352636 0.254826 0.139712
0.0344701 0.250767 0.137911
0.0329442 0.243793 0.126177
0.0360113 0.248051 0.106737
0.0529488 0.284627 0.0812085
0.0992142 0.336065 0.0700236
0.188098 0.37821 0.0793469
0.276753 0.409033 0.102785
0.378347 0.438666 0.130632
0.471702 0.463584 0.153353
0.549554 0.473732 0.142214
0.624109 0.478294 0.135058
0.695964 0.476783 0.129747
0.761791 0.471412 0.126421
0.805142 0.461143 0.123217
0.83946 0.452949 0.121553
0.870375 0.446372 0.120928
0.896178 0.441779 0.120974
0.914336 0.439689 0.121935
0.914534 0.439689 0.12491
0.914794 0.440528 0.127535
0.915038 0.441306 0.129961
0.915297 0.44239 0.132204
0.915465 0.442863 0.133989
0.915694 0.443961 0.135668
0.915831 0.44448 0.13695
0.916014 0.445457 0.138155
0.916136 0.446067 0.139147
0.91632 0.447135 0.1402
0.0573281 0.344518 0.180255
0.0555581 0.33872 0.177539
0.0532998 0.331182 0.173999
0.0502327 0.320653 0.1691
0.0486458 0.314717 0.166415
0.0474403 0.309819 0.164263
0.0458228 0.301732 0.154833
0.0476997 0.298619 0.136049
0.0635843 0.330282 0.11902
0.0937972 0.388495 0.110719
0.164096 0.431739 0.100435
0.254871 0.462226 0.113436
0.359594 0.492515 0.139971
0.460044 0.520592 0.167681
0.548898 0.542977 0.190066
0.61944 0.550805 0.177966
0.686107 0.554177 0.169451
0.749844 0.553231 0.162905
0.800366 0.54667 0.15729
0.836271 0.538109 0.152895
0.869169 0.529564 0.149538
0.897017 0.523461 0.147738
0.919234 0.519921 0.147097
0.923964 0.518517 0.148516
0.924102 0.518639 0.150484
0.924315 0.519387 0.152483
0.924514 0.520104 0.154269
0.924697 0.520897 0.15584
0.924849 0.521508 0.157153
0.924971 0.522057 0.158221
0.925155 0.523232 0.159335
0.925231 0.523476 0.160082
0.925292 0.523583 0.160739
0.0786603 0.407538 0.21033
0.0767376 0.402274 0.207828
0.0742046 0.395285 0.204486
0.0706035 0.385061 0.199588
0.0687419 0.379614 0.196948
0.0670024 0.374517 0.194507
0.0652018 0.367315 0.18764
0.0653086 0.360067 0.170169
0.0785077 0.381476 0.15491
0.106874 0.436164 0.154879
0.147387 0.486427 0.133425
0.229038 0.512947 0.124147
0.336049 0.543038 0.14905
0.442878 0.572213 0.176471
0.536294 0.595834 0.201999
0.619303 0.615747 0.22385
0.682124 0.6215 0.211353
0.742046 0.623957 0.201984
0.793271 0.622461 0.19472
0.830365 0.616449 0.188434
0.864042 0.609552 0.1832
0.894316 0.602655 0.179049
0.918822 0.597894 0.176593
0.93341 0.59498 0.175677
0.93341 0.594186 0.176715
0.933532 0.594461 0.178088
0.933715 0.595392 0.179538
0.933883 0.596216 0.180789
0.93402 0.596826 0.181811
0.934035 0.596597 0.182391
0.934173 0.597467 0.183261
0.934295 0.598077 0.183978
0.934371 0.59852 0.184588
0.0984512 0.459571 0.235447
0.0969558 0.455543 0.233478
0.0948196 0.449882 0.230732
0.0919814 0.442313 0.22707
0.0903334 0.437919 0.224979
0.0887312 0.433661 0.222919
0.0867933 0.427695 0.218448
0.0862287 0.42031 0.203464
0.0957961 0.432898 0.188571
0.120195 0.480674 0.189487
0.149645 0.532662 0.178271
0.2168 0.565927 0.155383
0.310948 0.588495 0.157656
0.423331 0.617945 0.184466
0.521477 0.643381 0.210025
0.608515 0.664698 0.233967
0.683009 0.6822 0.254887
0.739483 0.686351 0.242252
0.789822 0.688396 0.233265
0.827253 0.686168 0.226062
0.858351 0.681331 0.219532
0.888869 0.675547 0.213581
0.915648 0.670253 0.209033
0.936629 0.666056 0.205905
0.942351 0.664317 0.205249
0.942351 0.664057 0.205783
0.942336 0.663539 0.206195
0.942351 0.663386 0.206699
0.942428 0.663706 0.207324
0.94258 0.664698 0.208133
0.942672 0.665248 0.208698
0.942657 0.664942 0.208911
0.942672 0.664927 0.209201
0.11667 0.508293 0.259297
0.114839 0.50338 0.256855
0.112673 0.497581 0.254017
0.10959 0.489342 0.249943
0.107912 0.48484 0.247761
0.10634 0.480613 0.24567
0.104448 0.475486 0.24303
0.104463 0.470237 0.230243
0.11046 0.476219 0.216083
0.130938 0.515633 0.215
0.158328 0.567391 0.213626
0.205188 0.608194 0.180285
0.284749 0.625605 0.165026
0.401999 0.656062 0.190982
0.504341 0.682155 0.216297
0.595758 0.704921 0.240482
0.673213 0.723064 0.26186
0.739422 0.738155 0.28014
0.788022 0.742184 0.269215
0.826474 0.743236 0.261219
0.854826 0.741634 0.254887
0.883192 0.738231 0.248386
0.910353 0.73463 0.242802
0.93312 0.730816 0.23827
0.950652 0.727214 0.234791
0.950591 0.726818 0.234485
0.950607 0.726909 0.234562
0.95053 0.726345 0.234424
0.950469 0.725719 0.234287
0.9505 0.725948 0.234531
0.950545 0.726207 0.234791
0.950591 0.726513 0.23508
0.950484 0.725551 0.234791
0.135668 0.559228 0.28426
0.133623 0.55375 0.28159
0.131197 0.547234 0.278401
0.127779 0.538064 0.273869
0.125978 0.533242 0.271504
0.124178 0.52842 0.269139
0.122286 0.523354 0.266682
0.122255 0.519051 0.256321
0.125673 0.520211 0.242786
0.141649 0.549584 0.23856
0.167697 0.601434 0.243168
0.199115 0.646738 0.207736
0.272206 0.66508 0.190875
0.380148 0.688106 0.196399
0.486839 0.71429 0.221393
0.582132 0.737362 0.245533
0.662379 0.755398 0.266789
0.7308 0.770138 0.285649
0.788037 0.78175 0.298299
0.82504 0.783398 0.288914
0.852628 0.7832 0.282124
0.878813 0.782849 0.276417
0.904585 0.780835 0.270497
0.927962 0.778775 0.265614
0.947036 0.777096 0.262043
0.957214 0.775753 0.259709
0.957275 0.776577 0.259541
0.957351 0.777279 0.259541
0.957336 0.77731 0.259358
0.957412 0.777905 0.259541
0.957427 0.778058 0.259556
0.957366 0.77763 0.259342
0.957336 0.77734 0.259205
0.154513 0.609918 0.309316
0.152773 0.605234 0.306996
0.150286 0.598535 0.30367
0.146609 0.588617 0.298772
0.144457 0.582849 0.295888
0.142519 0.57763 0.293324
0.140581 0.572427 0.290761
0.141039 0.570367 0.283345
0.142824 0.568566 0.270604
0.154513 0.588464 0.263767
0.177966 0.636332 0.270268
0.207843 0.682322 0.247425
0.259342 0.704189 0.214939
0.3561 0.719997 0.201968
0.468574 0.746456 0.226841
0.566461 0.768093 0.250202
0.650416 0.78648 0.271595
0.721782 0.801358 0.290578
0.78233 0.814252 0.307393
0.826688 0.822217 0.317235
0.854063 0.82295 0.309636
0.877699 0.822751 0.303334
0.90132 0.822065 0.297429
0.923598 0.820462 0.291844
0.942992 0.818921 0.287343
0.959152 0.816327 0.283131
0.962661 0.815549 0.281163
0.962631 0.815808 0.2804
0.962509 0.815213 0.2795
0.962386 0.814435 0.278706
0.962386 0.814618 0.278553
0.962325 0.814191 0.278172
0.962219 0.813519 0.277714
0.173022 0.6598 0.334157
0.171084 0.654566 0.331548
0.16849 0.647623 0.32813
0.164752 0.637507 0.323095
0.162646 0.631861 0.320256
0.160555 0.6262 0.317418
0.158633 0.621027 0.314839
0.159197 0.619974 0.309407
0.160357 0.617594 0.298207
0.167742 0.62771 0.288472
0.188647 0.670863 0.294972
0.216648 0.716594 0.281285
0.246372 0.742336 0.237308
0.337499 0.754803 0.217823
0.449012 0.777661 0.232258
0.550896 0.798978 0.255329
0.638407 0.817472 0.276753
0.712535 0.832822 0.295857
0.775387 0.845014 0.312596
0.823087 0.854414 0.32575
0.856703 0.860014 0.335012
0.878828 0.860777 0.330526
0.900877 0.860685 0.324239
0.921477 0.859739 0.318379
0.940093 0.858351 0.313176
0.956069 0.856947 0.308934
0.968185 0.854566 0.304738
0.968002 0.854093 0.302907
0.967773 0.852964 0.301137
0.96759 0.851987 0.299855
0.967483 0.851453 0.299062
0.967391 0.851026 0.298482
0.967163 0.84947 0.297353
0.191272 0.708904 0.358404
0.18938 0.703822 0.355886
0.186587 0.696284 0.352148
0.182956 0.686519 0.347341
0.180789 0.680674 0.344472
0.178683 0.675013 0.341665
0.176501 0.669169 0.338796
0.176852 0.668132 0.334539
0.177981 0.666636 0.325429
0.181582 0.668101 0.3131
0.199802 0.70576 0.318624
0.225925 0.750622 0.31136
0.249317 0.777523 0.271717
0.325139 0.792081 0.241794
0.428931 0.807874 0.237751
0.534569 0.829557 0.260624
0.625559 0.847242 0.281773
0.702815 0.862135 0.300862
0.768292 0.874464 0.317754
0.818402 0.883223 0.330999
0.854276 0.889143 0.340642
0.879393 0.893065 0.347478
0.902251 0.895811 0.349966
0.921599 0.89543 0.343847
0.938994 0.89427 0.338231
0.954177 0.8934 0.333791
0.968261 0.891417 0.329122
0.973205 0.890303 0.325917
0.972915 0.889052 0.32343
0.972625 0.887495 0.321324
0.972381 0.886259 0.319768
0.972152 0.884855 0.318364
0.971908 0.883375 0.317082
0.209033 0.756817 0.382315
0.207141 0.75172 0.379751
0.204471 0.744488 0.37612
0.200626 0.734096 0.370932
0.198215 0.727596 0.367681
0.196139 0.722026 0.36492
0.194171 0.716701 0.36228
0.194385 0.715846 0.359152
0.195773 0.715862 0.352331
0.19704 0.712474 0.339284
0.212039 0.742657 0.342184
0.235248 0.784298 0.339696
0.258503 0.812207 0.306645
0.312032 0.828504 0.264317
0.406989 0.837324 0.243122
0.518074 0.857923 0.265629
0.61294 0.875593 0.286778
0.693263 0.890074 0.305821
0.760571 0.901442 0.322438
0.813275 0.910079 0.335927
0.851545 0.916243 0.345983
0.877195 0.920027 0.352773
0.901122 0.92372 0.359243
0.922484 0.926818 0.365042
0.939727 0.927306 0.362387
0.954086 0.926711 0.357671
0.967041 0.925139 0.352926
0.978027 0.923095 0.348287
0.977752 0.922179 0.345434
0.977432 0.920821 0.342901
0.97705 0.918654 0.340322
0.976715 0.916762 0.338323
0.97644 0.915099 0.33666
0.22707 0.8056 0.406851
0.224933 0.799802 0.403906
0.221836 0.791424 0.399695
0.217914 0.780835 0.394385
0.215503 0.774304 0.391089
0.213382 0.768551 0.388205
0.211078 0.762341 0.385077
0.211017 0.761135 0.382559
0.213123 0.763806 0.378393
0.212802 0.757244 0.36527
0.224735 0.780194 0.365393
0.245045 0.817884 0.365728
0.267903 0.846296 0.337865
0.298726 0.863172 0.285008
0.393454 0.86981 0.261509
0.500359 0.884489 0.270253
0.599741 0.901396 0.291249
0.683253 0.914717 0.310094
0.752972 0.925734 0.326726
0.807935 0.93434 0.340398
0.848142 0.9402 0.350622
0.875441 0.943618 0.35758
0.898939 0.946975 0.36376
0.92018 0.949554 0.369329
0.938628 0.952239 0.374334
0.954742 0.954528 0.378607
0.967071 0.953704 0.374075
0.978943 0.95227 0.369467
0.982055 0.951141 0.365881
0.981735 0.94992 0.362905
0.981369 0.94818 0.360235
0.980972 0.945953 0.357641
0.980652 0.944137 0.355596
0.245121 0.854536 0.431617
0.243 0.848783 0.428717
0.240238 0.841306 0.424918
0.236118 0.830106 0.419242
0.2336 0.823301 0.415778
0.231006 0.816266 0.412222
0.228656 0.809903 0.409003
0.227604 0.806287 0.40589
0.230488 0.811673 0.404242
0.229816 0.80499 0.392218
0.238041 0.81912 0.388937
0.255238 0.85124 0.389776
0.277241 0.879149 0.36582
0.297353 0.894667 0.314336
0.382116 0.901518 0.2822
0.482399 0.909285 0.274586
0.586954 0.924788 0.295369
0.673014 0.937362 0.313985
0.744976 0.947662 0.33051
0.803159 0.955535 0.344411
0.844678 0.960723 0.354574
0.874083 0.964538 0.36199
0.897444 0.967193 0.367895
0.918379 0.96994 0.373358
0.936584 0.972229 0.378119
0.952026 0.974441 0.382284
0.965881 0.975921 0.385931
0.979034 0.976822 0.388067
0.985702 0.975265 0.383749
0.985473 0.974853 0.380987
0.985077 0.973022 0.377859
0.984741 0.971466 0.375418
0.984344 0.969192 0.372793
0.261631 0.899336 0.454444
0.259663 0.894011 0.451728
0.256962 0.886671 0.44799
0.253178 0.876417 0.442756
0.250706 0.869688 0.439338
0.248447 0.863569 0.43621
0.246098 0.85716 0.432959
0.244999 0.853727 0.430396
0.247745 0.859159 0.429664
0.24715 0.853346 0.419196
0.252064 0.859663 0.41297
0.265797 0.884779 0.412818
0.286091 0.909758 0.390677
0.304006 0.923033 0.347463
0.370001 0.929915 0.300526
0.463996 0.931304 0.278325
0.572381 0.945327 0.298604
