public/images/Fine Arts Cadres /TC_-_EDITING_ESSENTIALS_-_COLOR/TC - OPPENHEIMER - LOOK1 - LOG TO LOOK - STANDARD.cube
TITLE "Generated by Resolve"
LUT_3D_SIZE 9
0.00682078 0.0149538 0.0161593
0.00682078 0.0149538 0.0161593
0.127749 0.0483101 0.0328374
0.338201 0.0814679 0.0781415
0.552819 0.133669 0.125917
0.685893 0.166186 0.155276
0.685893 0.166186 0.155276
0.685893 0.166186 0.155276
0.685893 0.166186 0.155276
0.0175326 0.0446784 0.0348211
0.0166934 0.0424659 0.0334173
0.136873 0.0704814 0.0401312
0.333257 0.080354 0.0771038
0.549691 0.132906 0.1252
0.685893 0.166186 0.155276
0.685893 0.166186 0.155276
0.685893 0.166186 0.155276
0.685893 0.166186 0.155276
0.055436 0.143694 0.0847944
0.0547036 0.141802 0.0838178
0.15697 0.187457 0.0777905
0.436545 0.198917 0.117556
0.635111 0.179767 0.149996
0.710811 0.171679 0.16257
0.685893 0.166186 0.155276
0.685893 0.166186 0.155276
0.685893 0.166186 0.155276
0.151415 0.394781 0.17525
0.150912 0.393469 0.174884
0.149828 0.390631 0.17409
0.506661 0.505745 0.213291
0.754147 0.488563 0.238392
0.824781 0.487663 0.248707
0.821149 0.46215 0.241856
0.819974 0.454017 0.239719
0.819623 0.451545 0.239063
0.277836 0.725689 0.280964
0.277424 0.724605 0.280598
0.276814 0.722988 0.280018
0.302968 0.733547 0.281529
0.785977 0.751614 0.32047
0.873381 0.734798 0.325216
0.872312 0.727626 0.322896
0.871672 0.725078 0.322026
0.871458 0.724285 0.321736
0.322683 0.842893 0.325322
0.322683 0.842893 0.325322
0.322683 0.842893 0.325307
0.322683 0.842893 0.325277
0.696376 0.837339 0.341344
0.908385 0.824155 0.364324
0.910384 0.826658 0.366903
0.910384 0.826658 0.366903
0.91046 0.826749 0.366995
0.322713 0.842954 0.325597
0.322713 0.842954 0.325597
0.322713 0.842954 0.325597
0.322713 0.842954 0.325597
0.5402 0.836713 0.330999
0.909789 0.82591 0.366125
0.91046 0.826749 0.366995
0.910536 0.826841 0.367102
0.910536 0.826841 0.367102
0.322713 0.842954 0.325597
0.322713 0.842954 0.325597
0.322713 0.842954 0.325597
0.322713 0.842954 0.325597
0.462791 0.838529 0.327642
0.906538 0.825772 0.363943
0.910231 0.826474 0.366705
0.910536 0.826841 0.367102
0.910536 0.826841 0.367102
0.322713 0.842954 0.325597
0.322713 0.842954 0.325597
0.322713 0.842954 0.325597
0.322713 0.842954 0.325597
0.433814 0.840711 0.327092
0.902876 0.82565 0.361776
0.910155 0.826383 0.366598
0.910536 0.826841 0.367102
0.910536 0.826841 0.367102
0.00746166 0.0157778 0.0294652
0.0101778 0.0181582 0.0363928
0.141329 0.0509041 0.0421149
0.347631 0.0831617 0.0817121
0.558053 0.134829 0.127382
0.685893 0.166186 0.155276
0.685893 0.166186 0.155276
0.685893 0.166186 0.155276
0.685893 0.166186 0.155276
0.0142367 0.035935 0.0301213
0.01355 0.0332036 0.0373846
0.132174 0.0613718 0.0409705
0.338979 0.0813916 0.0789807
0.553353 0.133791 0.126024
0.685893 0.166186 0.155276
0.685893 0.166186 0.155276
0.685893 0.166186 0.155276
0.685893 0.166186 0.155276
0.0528725 0.137041 0.0813916
0.0520943 0.135012 0.0803388
0.153399 0.179522 0.0751354
0.428946 0.188266 0.114015
0.626047 0.170169 0.146685
0.697429 0.16875 0.158602
0.685893 0.166186 0.155276
0.685893 0.166186 0.155276
0.685893 0.166186 0.155276
0.149493 0.389761 0.173816
0.148989 0.388449 0.173419
0.147829 0.385412 0.172473
0.503609 0.500343 0.211246
0.752087 0.483238 0.236683
0.823987 0.482155 0.247211
0.820294 0.456275 0.240314
0.819104 0.447959 0.238132
0.818753 0.445487 0.237491
0.2766 0.722438 0.279805
0.276295 0.72163 0.279515
0.275563 0.719738 0.278843
0.299168 0.730419 0.280262
0.78468 0.749798 0.319738
0.872908 0.732906 0.324575
0.871885 0.725887 0.322301
0.871199 0.723308 0.321416
0.871015 0.72253 0.321141
0.322683 0.842893 0.325307
0.322683 0.842893 0.325307
0.322683 0.842893 0.325307
0.322683 0.842893 0.325277
0.695232 0.837308 0.341253
0.908385 0.824155 0.364324
0.910384 0.826658 0.366903
0.91046 0.826749 0.366995
0.91046 0.826749 0.366995
0.322713 0.842954 0.325597
0.322713 0.842954 0.325597
0.322713 0.842954 0.325597
0.322713 0.842954 0.325597
0.538491 0.836759 0.330922
0.909789 0.82591 0.366125
0.91046 0.826749 0.366995
0.910536 0.826841 0.367102
0.910536 0.826841 0.367102
0.322713 0.842954 0.325597
0.322713 0.842954 0.325597
0.322713 0.842954 0.325597
0.322713 0.842954 0.325597
0.459831 0.838758 0.327596
0.906188 0.825757 0.363714
0.910231 0.826474 0.366705
0.910536 0.826841 0.367102
0.910536 0.826841 0.367102
0.322713 0.842954 0.325597
0.322713 0.842954 0.325597
0.322713 0.842954 0.325597
0.322713 0.842954 0.325597
0.430945 0.84094 0.327031
0.902525 0.82565 0.361578
0.910155 0.826383 0.366598
0.910536 0.826841 0.367102
0.910536 0.826841 0.367102
0.0129702 0.0181582 0.0821088
0.0147555 0.017792 0.101213
0.165026 0.0543374 0.129412
0.370413 0.0885328 0.117037
0.583642 0.137942 0.150332
0.69662 0.164523 0.176989
0.695735 0.164416 0.17586
0.69546 0.164401 0.175448
0.695369 0.164385 0.175311
0.0144656 0.027451 0.0768139
0.0137179 0.0188449 0.0882124
0.148241 0.0528115 0.123644
0.362814 0.0866865 0.111437
0.579095 0.136858 0.14789
0.696056 0.164462 0.176257
0.695171 0.16437 0.174945
0.694881 0.164355 0.17438
0.694804 0.164355 0.174182
0.0556039 0.142733 0.109056
0.0547036 0.140398 0.107576
0.139269 0.183551 0.165011
0.440192 0.17145 0.137682
0.635431 0.152453 0.152834
0.69482 0.164355 0.174243
0.693889 0.16437 0.17145
0.693614 0.164401 0.170306
0.693523 0.164431 0.169818
0.149844 0.390188 0.188464
0.149172 0.388449 0.187564
0.147814 0.384924 0.185626
0.502632 0.495674 0.209827
0.751919 0.476905 0.235355
0.824109 0.471824 0.244709
0.818433 0.443275 0.236912
0.817182 0.434531 0.234653
0.816785 0.431922 0.233967
0.273915 0.715404 0.277272
0.273594 0.714595 0.276997
0.272862 0.712688 0.27628
0.292119 0.723735 0.277577
0.781872 0.745693 0.31812
0.87187 0.729061 0.323232
0.870848 0.721889 0.320928
0.870161 0.71931 0.320043
0.869993 0.718517 0.319768
0.322683 0.842893 0.325277
0.322683 0.842893 0.325277
0.322683 0.842893 0.325277
0.322683 0.842878 0.325231
0.692576 0.837186 0.340993
0.908309 0.824063 0.364218
0.91046 0.826749 0.366995
0.91046 0.826749 0.366995
0.91046 0.826749 0.366995
0.322713 0.842954 0.325597
0.322713 0.842954 0.325597
0.322713 0.842954 0.325597
0.322713 0.842954 0.325597
0.534401 0.836774 0.330694
0.909789 0.82591 0.366125
0.910384 0.826658 0.366903
0.910536 0.826841 0.367102
0.910536 0.826841 0.367102
0.322713 0.842954 0.325597
0.322713 0.842954 0.325597
0.322713 0.842954 0.325597
0.322713 0.842954 0.325597
0.453849 0.83917 0.327443
0.90547 0.825742 0.363272
0.910231 0.826474 0.366705
0.910536 0.826841 0.367102
0.910536 0.826841 0.367102
0.322713 0.842954 0.325597
0.322713 0.842954 0.325597
0.322713 0.842954 0.325597
0.322713 0.842954 0.325597
0.424704 0.841443 0.32694
0.901701 0.825589 0.361105
0.910155 0.826383 0.366598
0.910536 0.826841 0.367102
0.910536 0.826841 0.367102
0.0283665 0.0443275 0.190555
0.02916 0.0449226 0.198947
0.0577249 0.0368353 0.237995
0.392203 0.0995041 0.303517
0.59202 0.143023 0.29427
0.675761 0.162158 0.30074
0.676722 0.162264 0.296696
0.677012 0.16231 0.295445
0.677073 0.16231 0.295171
0.0277867 0.04271 0.188312
0.0278782 0.0425879 0.190051
0.0365911 0.0354009 0.230152
0.385809 0.098024 0.300999
0.589181 0.142306 0.291524
0.676356 0.162234 0.298222
0.677302 0.162341 0.294194
0.677607 0.162371 0.292958
0.677699 0.162387 0.292531
0.0578012 0.133333 0.232242
0.0560006 0.128328 0.229511
0.0582895 0.12874 0.2654
0.372122 0.0948501 0.295872
0.582422 0.140597 0.285359
0.677668 0.162387 0.292668
0.678614 0.162493 0.288701
0.67892 0.162539 0.287465
0.679011 0.162539 0.287053
0.162921 0.418265 0.319127
0.162493 0.417121 0.318746
0.161395 0.414252 0.317693
0.515984 0.508919 0.453773
0.780011 0.479133 0.410819
0.881178 0.464714 0.402014
0.872618 0.428336 0.387655
0.869703 0.416327 0.383185
0.868894 0.413001 0.381933
0.267613 0.696742 0.340398
0.267369 0.696132 0.340017
0.266804 0.694636 0.339239
0.275669 0.709453 0.38613
0.818402 0.777096 0.372976
0.925933 0.768277 0.41117
0.922713 0.758953 0.404532
0.921462 0.755383 0.401907
0.92105 0.754253 0.401053
0.320485 0.836301 0.352346
0.320516 0.836378 0.352056
0.320577 0.836576 0.351278
0.320806 0.837278 0.348684
0.682795 0.862242 0.366934
0.926726 0.851835 0.395392
0.923842 0.846952 0.389548
0.922393 0.844465 0.386664
0.92195 0.843702 0.385794
0.322713 0.842954 0.325597
0.322713 0.842954 0.325597
0.322713 0.842954 0.325597
0.322713 0.842954 0.325597
0.519066 0.836957 0.329946
0.909789 0.82591 0.366125
0.910384 0.826658 0.366903
0.910536 0.826841 0.367102
0.910536 0.826841 0.367102
0.322713 0.842954 0.325597
0.322713 0.842954 0.325597
0.322713 0.842954 0.325597
0.322713 0.842954 0.325597
0.429831 0.841047 0.327031
0.902403 0.82562 0.361486
0.910155 0.826383 0.366598
0.910536 0.826841 0.367102
0.910536 0.826841 0.367102
0.322713 0.842954 0.325597
0.322713 0.842954 0.325597
0.322713 0.842954 0.325597
0.322713 0.842954 0.325597
0.402884 0.84332 0.326696
0.898619 0.825559 0.359548
0.910094 0.826276 0.366506
0.910536 0.826841 0.367102
0.910536 0.826841 0.367102
0.0771954 0.173175 0.341329
0.0771954 0.173175 0.341329
0.0782635 0.173892 0.355489
0.332174 0.0941939 0.410315
0.580987 0.145937 0.426459
0.635889 0.15787 0.428611
0.636362 0.157916 0.427405
0.63653 0.157931 0.426947
0.636561 0.157931 0.426841
0.0769207 0.172473 0.340444
0.0768902 0.172412 0.340337
0.0777447 0.172793 0.35285
0.322805 0.0922103 0.407462
0.578073 0.145281 0.425895
0.636164 0.1579 0.427939
0.636683 0.157946 0.42649
0.636851 0.157961 0.426032
0.636881 0.157961 0.425925
0.0762493 0.170809 0.338384
0.0762341 0.170748 0.338277
0.0765087 0.170367 0.345174
0.301045 0.0876478 0.40087
0.571298 0.143786 0.424842
0.636851 0.157961 0.426032
0.637369 0.158007 0.424552
0.637522 0.158022 0.424094
0.637568 0.158022 0.423987
0.163363 0.406912 0.455741
0.162921 0.405707 0.455268
0.161868 0.402899 0.454154
0.269627 0.395666 0.579538
0.762417 0.343999 0.598688
0.819516 0.339208 0.585931
0.785229 0.278386 0.553429
0.772183 0.256123 0.540444
0.768322 0.249699 0.53669
0.260105 0.669902 0.477791
0.259846 0.6692 0.477546
0.259297 0.667765 0.477089
0.256718 0.65951 0.496956
0.815381 0.7897 0.699672
0.944274 0.797589 0.689921
0.942 0.787594 0.684337
0.941176 0.783963 0.68246
0.940887 0.782727 0.681773
0.308965 0.798932 0.513191
0.30898 0.798978 0.513008
0.308995 0.799054 0.512627
0.309071 0.799329 0.51133
0.683833 0.900481 0.766079
0.957046 0.936477 0.794034
0.957046 0.937514 0.801114
0.957046 0.937423 0.800488
0.957046 0.937377 0.800168
0.312383 0.809125 0.491737
0.312383 0.809125 0.491737
0.312428 0.809262 0.491386
0.312551 0.809644 0.490166
0.483085 0.873014 0.654078
0.957046 0.933288 0.768185
0.957046 0.932906 0.764965
0.957046 0.93286 0.764614
0.957046 0.932815 0.764248
0.3131 0.811429 0.483879
0.313115 0.81149 0.483894
0.313146 0.811566 0.483528
0.313222 0.811826 0.48246
0.360815 0.848875 0.581506
0.957046 0.940398 0.755718
0.957046 0.93138 0.752224
0.957046 0.931365 0.752041
0.957046 0.931319 0.75169
0.313283 0.812039 0.481743
0.313298 0.81207 0.481559
0.313344 0.812207 0.481209
0.31342 0.812467 0.480125
0.343694 0.840284 0.55967
0.95349 0.940597 0.751873
0.957046 0.930938 0.74844
0.957046 0.930907 0.748257
0.957046 0.930861 0.747906
0.101747 0.233127 0.425589
0.101747 0.233127 0.425589
0.10193 0.232746 0.43125
0.210132 0.0770275 0.453681
0.542153 0.142016 0.499626
0.600397 0.154284 0.505089
0.600565 0.154284 0.504326
0.600626 0.154269 0.504036
0.600641 0.154269 0.503944
0.10161 0.232792 0.425086
0.10161 0.232792 0.425086
0.101686 0.232654 0.427482
0.199222 0.0751507 0.450248
0.538827 0.141329 0.499352
0.600488 0.154284 0.504616
0.600687 0.154269 0.503746
0.600748 0.154269 0.503456
0.600763 0.154269 0.503365
0.101305 0.23209 0.424018
0.101305 0.23209 0.424018
0.101289 0.232029 0.423926
0.173693 0.0709239 0.441993
0.530938 0.139681 0.498558
0.600748 0.154269 0.503456
0.600931 0.154253 0.502586
0.601022 0.154253 0.502205
0.601038 0.154253 0.502113
0.126452 0.299748 0.466667
0.1252 0.296437 0.464561
0.122423 0.289052 0.459907
0.0781872 0.120287 0.465537
0.501274 0.133593 0.495933
0.60177 0.154208 0.498756
0.601938 0.154192 0.497993
0.602014 0.154192 0.497704
0.602029 0.154192 0.497612
0.249149 0.631907 0.585199
0.24892 0.631296 0.584955
0.248402 0.629877 0.584726
0.246418 0.624552 0.583581
0.69984 0.746639 0.821622
0.928466 0.762539 0.835966
0.92575 0.751369 0.829297
0.924392 0.746212 0.827527
0.924056 0.744884 0.826993
0.301854 0.77229 0.628367
0.301854 0.77229 0.628367
0.301869 0.772335 0.628229
0.301915 0.772519 0.627619
0.62002 0.892195 0.820691
0.957046 0.953841 0.925261
0.957046 0.953063 0.917739
0.957046 0.953017 0.917266
0.957046 0.952987 0.917021
0.302174 0.773449 0.624475
0.302174 0.773449 0.624475
0.30219 0.773495 0.624323
0.30222 0.773632 0.623865
0.347707 0.834577 0.7122
0.957046 0.953582 0.910872
0.957046 0.952102 0.909148
0.957046 0.952193 0.910002
0.957046 0.952193 0.910002
0.302419 0.77435 0.621469
0.302419 0.77435 0.621469
0.302434 0.774395 0.621332
0.302464 0.774533 0.620874
0.313832 0.801755 0.658808
0.946792 0.957046 0.906416
0.957046 0.95169 0.905623
0.957046 0.951736 0.905989
0.957046 0.95172 0.905867
0.302495 0.774624 0.620584
0.302495 0.774624 0.620584
0.30251 0.774655 0.620432
0.302541 0.774792 0.619974
0.308721 0.789761 0.643122
0.942123 0.957046 0.904707
0.957046 0.951568 0.90454
0.957046 0.951583 0.904662
0.957046 0.951598 0.904768
0.107897 0.247913 0.447852
0.107897 0.247913 0.447852
0.107897 0.247913 0.447852
0.164599 0.0771801 0.486397
0.536797 0.143694 0.540612
0.613748 0.160159 0.554711
0.613748 0.160159 0.554711
0.613748 0.160159 0.554711
0.613748 0.160159 0.554711
0.107897 0.247913 0.447852
0.107897 0.247913 0.447852
0.107897 0.247913 0.447852
0.152468 0.0757458 0.483467
0.532189 0.142718 0.540185
0.613748 0.160159 0.554711
0.613748 0.160159 0.554711
0.613748 0.160159 0.554711
0.613748 0.160159 0.554711
0.107897 0.247913 0.447852
0.107897 0.247913 0.447852
0.107897 0.247913 0.447852
0.119722 0.0721447 0.474037
0.522103 0.140581 0.539193
0.613748 0.160159 0.554711
0.613748 0.160159 0.554711
0.613748 0.160159 0.554711
0.613748 0.160159 0.554711
0.107897 0.247913 0.447852
0.107897 0.247913 0.447852
0.107897 0.247913 0.447852
0.106569 0.240818 0.466926
0.482353 0.132372 0.536019
0.613489 0.160082 0.554147
0.613748 0.160159 0.554711
0.613748 0.160159 0.554711
0.613748 0.160159 0.554711
0.235935 0.592706 0.612146
0.235599 0.591821 0.611917
0.234958 0.590097 0.611383
0.232471 0.583368 0.609216
0.598291 0.683818 0.851926
0.910231 0.715434 0.900282
0.905791 0.700206 0.896193
0.904234 0.694881 0.89482
0.903792 0.693385 0.89456
0.298054 0.758404 0.672282
0.298054 0.758404 0.672282
0.29807 0.75845 0.672145
0.2981 0.758541 0.67187
0.495933 0.871031 0.840177
0.957046 0.957046 0.957046
0.957046 0.957046 0.957046
0.957046 0.957046 0.957046
0.957046 0.957046 0.957046
0.298528 0.760052 0.667643
0.298528 0.760052 0.667643
0.298528 0.760098 0.667506
0.298573 0.760235 0.667109
0.313985 0.79704 0.723018
0.956115 0.957046 0.950744
0.957046 0.957046 0.957046
0.957046 0.957046 0.957046
0.957046 0.957046 0.957046
0.29868 0.760632 0.66601
0.298695 0.760678 0.665873
0.298695 0.760678 0.665873
0.298726 0.760769 0.665599
0.298177 0.758785 0.671199
0.950515 0.957046 0.944656
0.957046 0.957046 0.957046
0.957046 0.957046 0.957046
0.957046 0.957046 0.957046
0.298756 0.760876 0.665339
0.298756 0.760876 0.665339
0.298756 0.760876 0.665339
0.298787 0.761013 0.664927
0.298848 0.761212 0.664378
0.947097 0.957046 0.942412
0.957046 0.957046 0.957046
0.957046 0.957046 0.957046
0.957046 0.957046 0.957046
0.107897 0.247913 0.447852
0.107897 0.247913 0.447852
0.107897 0.247913 0.447852
0.155093 0.0759899 0.483879
0.533272 0.142947 0.540337
0.613748 0.160159 0.554711
0.613748 0.160159 0.554711
0.613748 0.160159 0.554711
0.613748 0.160159 0.554711
0.107897 0.247913 0.447852
0.107897 0.247913 0.447852
0.107897 0.247913 0.447852
0.141802 0.0745098 0.480552
0.528679 0.141985 0.539895
0.613748 0.160159 0.554711
0.613748 0.160159 0.554711
0.613748 0.160159 0.554711
0.613748 0.160159 0.554711
0.107897 0.247913 0.447852
0.107897 0.247913 0.447852
0.107897 0.247913 0.447852
0.107881 0.0709544 0.4701
0.518471 0.139834 0.538888
0.613748 0.160159 0.554711
0.613748 0.160159 0.554711
0.613748 0.160159 0.554711
0.613748 0.160159 0.554711
0.107897 0.247913 0.447852
0.107897 0.247913 0.447852
0.107897 0.247913 0.447852
0.106859 0.241642 0.467155
0.478264 0.131533 0.53547
0.613489 0.160082 0.554147
0.613748 0.160159 0.554711
0.613748 0.160159 0.554711
0.613748 0.160159 0.554711
0.229969 0.576638 0.607126
0.229725 0.575967 0.606882
0.229023 0.574075 0.606287
0.226566 0.567483 0.603998
0.586557 0.663752 0.847425
0.904585 0.696086 0.895354
0.899641 0.679118 0.890944
0.897917 0.673213 0.889403
0.897368 0.671351 0.889036
0.297795 0.757427 0.675013
0.297795 0.757427 0.675013
0.29778 0.757382 0.675151
0.29778 0.757382 0.675151
0.468132 0.866331 0.839628
0.957046 0.957046 0.957046
0.957046 0.957046 0.957046
0.957046 0.957046 0.957046
0.957046 0.957046 0.957046
0.297658 0.756939 0.676387
0.297658 0.756939 0.676387
0.297658 0.756939 0.676387
0.297673 0.756985 0.676249
0.311269 0.789532 0.727825
0.957046 0.957046 0.957031
0.957046 0.957046 0.957046
0.957046 0.957046 0.957046
0.957046 0.957046 0.957046
0.297612 0.756756 0.676936
0.297612 0.756756 0.676936
0.297612 0.756756 0.676936
0.297627 0.756848 0.676661
0.297612 0.756802 0.676799
0.948318 0.957046 0.949477
0.957046 0.957046 0.957046
0.957046 0.957046 0.957046
0.957046 0.957046 0.957046
0.297642 0.756893 0.676524
0.297642 0.756893 0.676524
0.297658 0.756939 0.676387
0.297688 0.757046 0.676112
0.297734 0.757229 0.675563
0.941085 0.957046 0.945251
0.957046 0.957046 0.957046
0.957046 0.957046 0.957046
0.957046 0.957046 0.957046
0.107897 0.247913 0.447852
0.107897 0.247913 0.447852
0.107897 0.247913 0.447852
0.152377 0.0757305 0.483421
0.532189 0.142718 0.540185
0.613748 0.160159 0.554711
0.613748 0.160159 0.554711
0.613748 0.160159 0.554711
0.613748 0.160159 0.554711
0.107897 0.247913 0.447852
0.107897 0.247913 0.447852
0.107897 0.247913 0.447852
0.13814 0.0740826 0.479362
0.527596 0.141741 0.539742
0.613748 0.160159 0.554711
0.613748 0.160159 0.554711
0.613748 0.160159 0.554711
0.613748 0.160159 0.554711
0.107897 0.247913 0.447852
0.107897 0.247913 0.447852
0.107897 0.247913 0.447852
0.104112 0.0709239 0.469291
0.517266 0.139574 0.53872
0.613748 0.160159 0.554711
0.613748 0.160159 0.554711
0.613748 0.160159 0.554711
0.613748 0.160159 0.554711
0.107897 0.247913 0.447852
0.107897 0.247913 0.447852
0.107897 0.247913 0.447852
0.106935 0.241871 0.467216
0.47689 0.131243 0.535286
0.613489 0.160082 0.554147
0.613748 0.160159 0.554711
0.613748 0.160159 0.554711
0.613748 0.160159 0.554711
0.228275 0.572061 0.6056
0.227955 0.571206 0.605356
0.227359 0.569589 0.604776
0.224872 0.562921 0.602396
0.583185 0.657893 0.846021
0.902861 0.690166 0.893812
0.897765 0.672694 0.889433
0.895979 0.66659 0.887831
0.89546 0.664775 0.887282
0.29778 0.757382 0.675151
0.29778 0.757382 0.675151
0.29778 0.757382 0.675151
0.29778 0.757382 0.675151
0.462409 0.865385 0.838376
0.957046 0.957046 0.957046
0.957046 0.957046 0.957046
0.957046 0.957046 0.957046
0.957046 0.957046 0.957046
0.297658 0.756939 0.676387
0.297658 0.756939 0.676387
0.297673 0.756985 0.676249
0.297673 0.756985 0.676249
0.310552 0.787793 0.725917
0.956725 0.957046 0.95668
0.957046 0.957046 0.957046
0.957046 0.957046 0.957046
0.957046 0.957046 0.957046
0.297612 0.756756 0.676936
0.297612 0.756756 0.676936
0.297612 0.756756 0.676936
0.297612 0.756756 0.676936
0.297612 0.756756 0.676936
0.944854 0.957046 0.947997
0.957046 0.957046 0.957046
0.957046 0.957046 0.957046
0.957046 0.957046 0.957046
0.297612 0.756756 0.676936
0.297612 0.756756 0.676936
0.297612 0.756756 0.676936
0.297612 0.756756 0.676936
0.297612 0.756756 0.676936
0.933379 0.957046 0.942153
0.957046 0.957046 0.957046
0.957046 0.957046 0.957046
0.957046 0.957046 0.957046
