public/images/Fine Arts Cadres /TC_-_EDITING_ESSENTIALS_-_COLOR/TC - OPPENHEIMER - LOOK2 - LOG TO LOOK - STANDARD.cube
TITLE "Generated by Resolve"
LUT_3D_SIZE 5
0.00682078 0.0149538 0.0161593
0.0315099 0.0246738 0.0204623
0.411963 0.0994736 0.0943008
0.55021 0.133028 0.125322
0.55021 0.133028 0.125322
0.0275578 0.070985 0.0486152
0.0307164 0.0769818 0.050721
0.452537 0.110277 0.104082
0.55021 0.133028 0.125322
0.55021 0.133028 0.125322
0.215976 0.563821 0.227085
0.215045 0.561364 0.22623
0.694087 0.68368 0.290303
0.878416 0.671672 0.310903
0.877577 0.667735 0.309682
0.322621 0.842664 0.327855
0.322621 0.842664 0.327855
0.449363 0.849195 0.339483
0.943053 0.879271 0.4495
0.943145 0.87953 0.450614
0.322621 0.842664 0.327855
0.322621 0.842664 0.327855
0.355261 0.851637 0.332631
0.942809 0.87863 0.446586
0.943145 0.87953 0.450614
0.00816358 0.016556 0.0390631
0.0267796 0.026688 0.0636606
0.428763 0.102312 0.101381
0.564294 0.135836 0.130159
0.563256 0.135851 0.129183
0.0242313 0.0617838 0.0510872
0.0268254 0.0659342 0.071107
0.437217 0.104082 0.103975
0.560403 0.1355 0.127611
0.559731 0.135332 0.127459
0.212406 0.554467 0.223774
0.211368 0.551751 0.222858
0.688746 0.676478 0.287465
0.876875 0.6645 0.30869
0.875959 0.660258 0.307378
0.322621 0.842664 0.327855
0.322621 0.842664 0.327855
0.442145 0.849287 0.338857
0.943038 0.879225 0.449271
0.943145 0.87953 0.450614
0.322621 0.842664 0.327855
0.322621 0.842664 0.327855
0.349142 0.851835 0.33225
0.942794 0.878584 0.446357
0.943145 0.87953 0.450614
0.0343786 0.057908 0.223285
0.0428168 0.0807813 0.252338
0.386313 0.103059 0.382574
0.556695 0.13846 0.379553
0.556893 0.138476 0.378958
0.0335699 0.0556954 0.220356
0.0368963 0.0647746 0.232197
0.377874 0.101137 0.379126
0.558297 0.138659 0.376196
0.558694 0.138705 0.375479
0.216953 0.556924 0.426123
0.216114 0.554711 0.425299
0.71017 0.703029 0.635691
0.924132 0.704845 0.616678
0.923003 0.699443 0.614069
0.312093 0.809735 0.464424
0.312108 0.809812 0.464073
0.362661 0.8495 0.58883
0.957046 0.933928 0.773556
0.957046 0.934005 0.774273
0.312627 0.811521 0.456718
0.312657 0.811597 0.456382
0.3234 0.827955 0.518242
0.957046 0.932326 0.760128
0.957046 0.932662 0.762997
0.0760662 0.168276 0.349126
0.0760662 0.168276 0.349126
0.269627 0.0840467 0.429007
0.469139 0.126177 0.482109
0.469139 0.126177 0.482109
0.0760662 0.168276 0.349126
0.0760662 0.168276 0.349126
0.257939 0.0817426 0.425513
0.469139 0.126177 0.482109
0.469139 0.126177 0.482109
0.198688 0.494804 0.555383
0.19794 0.492821 0.554467
0.428855 0.579782 0.741848
0.887861 0.627436 0.827375
0.883467 0.617075 0.824308
0.299336 0.762951 0.659495
0.299367 0.763043 0.65922
0.309224 0.786542 0.699306
0.957046 0.955978 0.945556
0.957046 0.956039 0.946166
0.299596 0.763867 0.656901
0.299596 0.763867 0.656901
0.299687 0.764233 0.65568
0.957046 0.955688 0.942702
0.957046 0.956069 0.946471
0.0760662 0.168276 0.349126
0.0760662 0.168276 0.349126
0.265965 0.0833143 0.427909
0.469139 0.126177 0.482109
0.469139 0.126177 0.482109
0.0760662 0.168276 0.349126
0.0760662 0.168276 0.349126
0.254124 0.0809949 0.424353
0.469139 0.126177 0.482109
0.469139 0.126177 0.482109
0.192737 0.478935 0.547951
0.191943 0.476814 0.54696
0.402792 0.549874 0.730999
0.87013 0.585138 0.814664
0.864836 0.57261 0.810773
0.298405 0.759655 0.668742
0.298405 0.759655 0.668742
0.302617 0.768475 0.699901
0.957046 0.957046 0.956954
0.957046 0.957046 0.957046
0.298344 0.759411 0.669413
0.298344 0.759411 0.669413
0.298344 0.759411 0.669413
0.957046 0.957046 0.957046
0.957046 0.957046 0.957046
