public/images/Fine Arts Cadres /TC_-_EDITING_ESSENTIALS_-_COLOR/TC - MINDHUNTER - LOG TO LOOK - 2.cube
TITLE "Generated by Resolve"
LUT_3D_SIZE 33
0.00631724 0.00857557 0.00885023
0.00631724 0.00857557 0.00885023
0.00631724 0.00857557 0.00885023
0.00631724 0.00857557 0.00885023
0.0148318 0.0115206 0.00959792
0.0304112 0.0144045 0.00929274
0.04448 0.0174105 0.00794995
0.0596933 0.0196841 0.00654612
0.0751812 0.0200504 0.00502022
0.0919509 0.0195926 0.00341802
0.110567 0.0183566 0.00178531
0.131106 0.0160678 4.57771e-05
0.154421 0.0131991 0
0.187015 0.00892653 0
0.22681 0.00383001 0
0.277455 0.000717174 0
0.338689 0.00337224 0.00459297
0.399359 0.00926223 0.0179751
0.458793 0.0172427 0.034287
0.516365 0.0270695 0.0520638
0.569253 0.0378271 0.0678111
0.613169 0.0466468 0.0806439
0.658457 0.0557412 0.0936599
0.704143 0.0649271 0.106645
0.749172 0.0740063 0.119341
0.79443 0.0831464 0.131838
0.836774 0.0916915 0.143481
0.874174 0.0992599 0.153643
0.882002 0.108949 0.165377
0.883391 0.117388 0.175402
0.884489 0.123995 0.183276
0.885466 0.129839 0.190204
0.886275 0.134691 0.195697
0.00631724 0.00857557 0.00885023
0.00631724 0.00857557 0.00885023
0.00631724 0.00857557 0.00885023
0.00631724 0.00857557 0.00885023
0.0158389 0.0116884 0.00953689
0.0314183 0.0146334 0.00918593
0.045594 0.0176394 0.00784314
0.0607462 0.0196994 0.00643931
0.0763867 0.0200656 0.00489815
0.0931411 0.0195163 0.00331121
0.111971 0.018265 0.00166323
0.132586 0.0158846 0
0.156466 0.0129244 0
0.18941 0.00862135 0
0.229847 0.00344854 0
0.281254 0.000808728 0
0.342779 0.00369268 0.00540169
0.402655 0.0096437 0.0187839
0.462409 0.0178073 0.0353857
0.519081 0.0275883 0.0528725
0.571878 0.0383612 0.0685893
0.615763 0.0471656 0.0813916
0.661143 0.0562753 0.0944381
0.70634 0.0653697 0.107271
0.751369 0.0744488 0.119951
0.796551 0.0835737 0.132418
0.838743 0.0920882 0.14403
0.875502 0.0995346 0.154009
0.882063 0.109316 0.16582
0.883436 0.117662 0.175738
0.884535 0.124239 0.183551
0.885496 0.130053 0.190448
0.88629 0.134813 0.195819
0.00631724 0.00857557 0.00885023
0.00631724 0.00857557 0.00885023
0.00631724 0.00857557 0.00885023
0.00643931 0.0087892 0.0089723
0.0196536 0.0122835 0.00929274
0.0345922 0.0153353 0.00888075
0.0487678 0.0182803 0.00756847
0.0638895 0.019791 0.00613413
0.0793469 0.0201267 0.00460822
0.0963302 0.0193179 0.00302129
0.115557 0.0180056 0.00137331
0.136202 0.0154421 0
0.161242 0.0122988 0
0.195041 0.00790417 0
0.236652 0.00256352 0
0.289372 0.00102235 0
0.3514 0.00442512 0.00712596
0.410742 0.0106203 0.0208438
0.47013 0.019028 0.0380102
0.526696 0.0290532 0.0551614
0.577981 0.0395819 0.0703746
0.621378 0.0482948 0.0830091
0.666926 0.0574502 0.0960861
0.712489 0.0666209 0.10901
0.757107 0.0756085 0.121538
0.802029 0.0846723 0.133928
0.843442 0.0930495 0.145312
0.879728 0.100389 0.155138
0.882246 0.110414 0.167117
0.883589 0.118563 0.176806
0.884657 0.125017 0.184482
0.885603 0.130663 0.191165
0.886366 0.135286 0.196338
0.00631724 0.00857557 0.00885023
0.00631724 0.00857557 0.00885023
0.00631724 0.00857557 0.00885023
0.00642405 0.00875868 0.00895705
0.0207523 0.0124514 0.00923171
0.0369726 0.0158541 0.00865187
0.0525063 0.019028 0.00723278
0.0681468 0.0198825 0.00572213
0.0841993 0.0200809 0.0041352
0.101396 0.0189822 0.00257877
0.120699 0.0173648 0.000915541
0.141955 0.0147402 0
0.168734 0.0113069 0
0.203357 0.00683604 0
0.246891 0.0012665 0
0.301732 0.00143435 0
0.363699 0.00552377 0.00972
0.422522 0.0121157 0.0239567
0.48101 0.020798 0.0413367
0.5364 0.0312505 0.0580911
0.585824 0.0411536 0.0726787
0.629572 0.0499428 0.0853895
0.674937 0.0590524 0.0983597
0.719951 0.0681163 0.111116
0.765042 0.0772106 0.12372
0.809125 0.0861067 0.135882
0.850004 0.094377 0.147112
0.880858 0.102098 0.157198
0.88249 0.11191 0.168902
0.883772 0.1196 0.178058
0.884825 0.125948 0.18558
0.88574 0.131456 0.192096
0.886473 0.135897 0.196994
0.00697337 0.0140536 0.0124361
0.00695811 0.0139315 0.0123598
0.00694286 0.0137331 0.0122377
0.0069276 0.0135805 0.0121309
0.0199283 0.018555 0.0119478
0.0389258 0.0211795 0.0104524
0.057023 0.0244907 0.00901808
0.0748455 0.0256046 0.00706493
0.0928511 0.0260471 0.00512703
0.113161 0.0253605 0.00311284
0.13547 0.0236515 0.00114443
0.160189 0.021088 0
0.192905 0.0174868 0
0.232822 0.013077 0
0.28336 0.00732433 0
0.343938 0.0061799 0
0.407309 0.0111849 0.0111391
0.467353 0.0195926 0.0277104
0.525628 0.0299077 0.046479
0.580957 0.0411994 0.0635996
0.628458 0.0506752 0.0778668
0.672999 0.0596017 0.0909895
0.719524 0.0689403 0.104433
0.765072 0.0780804 0.11751
0.809964 0.0870985 0.13022
0.852125 0.0955978 0.14197
0.881117 0.104112 0.153277
0.88275 0.11397 0.165133
0.884001 0.121538 0.174166
0.885054 0.127871 0.181613
0.885969 0.133364 0.1879
0.886671 0.137606 0.19266
0.88716 0.140597 0.195499
0.00814832 0.0265965 0.0201572
0.00813306 0.0264439 0.0200656
0.0081178 0.026276 0.0199893
0.00808728 0.0260319 0.0198672
0.0151675 0.0310369 0.0158389
0.0420386 0.0345312 0.0139315
0.0650797 0.0375525 0.0133211
0.0860151 0.0394141 0.0108492
0.107134 0.04094 0.00822461
0.133104 0.041001 0.00517281
0.16173 0.0393072 0.00260929
0.193332 0.0365454 0.000549325
0.235431 0.032166 0
0.286213 0.0271 0
0.346334 0.0210117 0
0.407019 0.0162966 0
0.469825 0.0235752 0.0143587
0.531868 0.0332036 0.0332189
0.589044 0.0444343 0.0527504
0.641596 0.0548257 0.06981
0.686183 0.0636606 0.083772
0.730617 0.0725109 0.0972915
0.775784 0.081529 0.110811
0.818967 0.090135 0.12369
0.859831 0.0983291 0.1355
0.881544 0.107439 0.147768
0.883162 0.117128 0.159823
0.884337 0.124132 0.168444
0.885359 0.130358 0.175952
0.886198 0.135363 0.181796
0.886839 0.1393 0.18613
0.887297 0.142031 0.188937
0.887648 0.144167 0.190707
0.00953689 0.042237 0.0279698
0.00952163 0.0420539 0.0278782
0.00950637 0.0417792 0.0277409
0.00947585 0.0415198 0.0276036
0.0115816 0.0453803 0.0219577
0.0330358 0.0531167 0.016434
0.0654459 0.059617 0.0177462
0.0896162 0.0623636 0.0158541
0.114168 0.0648051 0.0132448
0.144366 0.065568 0.00972
0.177661 0.0643015 0.00665293
0.214847 0.0616312 0.00428779
0.265049 0.057145 0.002121
0.325078 0.0517586 0.00106813
0.389136 0.0458686 0.00170901
0.452232 0.0407874 0.00421149
0.511727 0.0371099 0.00946059
0.575891 0.0471046 0.0310521
0.633448 0.0563668 0.0505684
0.685405 0.0653849 0.0676432
0.728099 0.0737621 0.082063
0.772519 0.0825208 0.0965438
0.816098 0.0911269 0.110475
0.856474 0.0991226 0.123018
0.881468 0.107912 0.135714
0.883101 0.117693 0.148455
0.884321 0.125002 0.157855
0.885359 0.131197 0.165637
0.886229 0.136385 0.172045
0.88687 0.140215 0.176638
0.887327 0.142962 0.179721
0.887678 0.145098 0.181933
0.887938 0.146715 0.183246
0.0109712 0.0582742 0.0357214
0.010956 0.0580911 0.0356298
0.0109407 0.0578317 0.0355077
0.0109102 0.057557 0.0353857
0.0125582 0.0619211 0.0305943
0.0210117 0.0703593 0.018265
0.0602121 0.0794385 0.0201267
0.0917983 0.0864271 0.0215152
0.119921 0.0899977 0.0189364
0.153246 0.0911116 0.0150149
0.190677 0.0903487 0.011429
0.232136 0.0880446 0.00880446
0.287633 0.0836347 0.0065919
0.353338 0.0782177 0.0059205
0.420523 0.0724956 0.00729381
0.485634 0.0670481 0.0106203
0.547402 0.0620584 0.0155947
0.60795 0.0587167 0.0237736
0.666362 0.0679179 0.045594
0.717388 0.0760662 0.0632944
0.761639 0.083299 0.0777752
0.806409 0.0909438 0.0924239
0.847547 0.0990005 0.106416
0.881071 0.106661 0.119005
0.882811 0.116945 0.133242
0.884123 0.124834 0.143862
0.885191 0.131212 0.152361
0.886091 0.136538 0.159243
0.886778 0.140673 0.164553
0.887266 0.143542 0.16788
0.887648 0.145846 0.170413
0.887907 0.147524 0.171923
0.888106 0.148745 0.17261
0.0124666 0.0749371 0.0437171
0.0124361 0.0746471 0.0435645
0.0124208 0.0744488 0.043473
0.0123903 0.0741588 0.0433356
0.01355 0.0787213 0.0389105
0.0164492 0.0860456 0.0268559
0.0520027 0.0977646 0.0211643
0.0896315 0.107713 0.0243381
0.124346 0.115496 0.0260014
0.160189 0.117998 0.0217899
0.20087 0.118654 0.017792
0.245197 0.117449 0.0148775
0.30454 0.113985 0.0125734
0.372305 0.109621 0.0121767
0.441352 0.10454 0.0139925
0.508904 0.0995041 0.0179294
0.572183 0.0948043 0.0235752
0.633875 0.0902266 0.0310521
0.689204 0.0862287 0.037995
0.738109 0.0871595 0.0491035
0.783185 0.0942702 0.0656138
0.82797 0.101366 0.0814221
0.868147 0.107866 0.0949111
0.882017 0.116396 0.109148
0.88365 0.124605 0.121553
0.884901 0.130999 0.131014
0.885863 0.136645 0.13901
0.886625 0.141176 0.145281
0.88716 0.144427 0.149493
0.887556 0.146807 0.152087
0.887877 0.148714 0.154131
0.88809 0.150057 0.154726
0.888228 0.150958 0.15462
0.0140536 0.0926528 0.0523232
0.0140383 0.0924392 0.0522164
0.0140078 0.0921492 0.0520638
0.0139773 0.0918441 0.0519112
0.0146792 0.0962387 0.0475471
0.0166171 0.103487 0.0381628
0.0411841 0.116915 0.0220645
0.0831617 0.130037 0.0260014
0.123934 0.142123 0.0310369
0.164736 0.150057 0.0325017
0.208255 0.153124 0.0276951
0.255085 0.153628 0.0241093
0.316655 0.151934 0.0213931
0.385687 0.149432 0.0210117
0.455222 0.145785 0.0229496
0.523827 0.14168 0.0271611
0.588663 0.137865 0.0332341
0.651347 0.133577 0.0406958
0.707454 0.129717 0.047425
0.754818 0.126513 0.0532845
0.79765 0.123659 0.0586709
0.838621 0.120531 0.0638437
0.875364 0.11902 0.0696117
0.881498 0.127871 0.0859388
0.88304 0.135058 0.0982834
0.884306 0.141054 0.108354
0.885298 0.145815 0.116243
0.886046 0.149416 0.122118
0.886519 0.152026 0.125475
0.886885 0.154116 0.12781
0.887144 0.155795 0.129183
0.887266 0.157015 0.129335
0.887282 0.158038 0.128252
0.0161135 0.112428 0.0620279
0.016083 0.112184 0.0619059
0.0160372 0.111803 0.0617227
0.0159915 0.111437 0.0615396
0.0165103 0.115511 0.0568093
0.0179446 0.123186 0.0480964
0.0301518 0.13814 0.0238651
0.0738537 0.15375 0.0276951
0.118303 0.16878 0.0336614
0.164706 0.182071 0.0413977
0.213672 0.191455 0.0425269
0.26247 0.194629 0.0376135
0.32575 0.195453 0.0338903
0.39588 0.195163 0.0330205
0.465888 0.193744 0.0348821
0.534813 0.191379 0.0391089
0.600092 0.188754 0.0454566
0.663371 0.185321 0.0521553
0.720073 0.182193 0.0585336
0.768078 0.179065 0.0640879
0.810742 0.176287 0.0691691
0.851637 0.173342 0.0740826
0.885145 0.171221 0.0786755
0.885817 0.172778 0.086244
0.886305 0.173785 0.0919356
0.886732 0.174853 0.0967727
0.887098 0.175891 0.100572
0.887327 0.176379 0.103288
0.887602 0.177768 0.105348
0.887846 0.17911 0.106996
0.888151 0.181308 0.10837
0.888487 0.18407 0.109407
0.888762 0.18645 0.11014
0.0191196 0.137316 0.0738537
0.0190738 0.13695 0.0736858
0.0189975 0.1364 0.0734417
0.0189212 0.135851 0.0731975
0.0193332 0.139376 0.068101
0.0205386 0.146777 0.0591897
0.0291142 0.165301 0.0363622
0.062501 0.18088 0.0300145
0.109422 0.199069 0.0370184
0.159426 0.215747 0.0459144
0.21619 0.232517 0.0579995
0.26891 0.241917 0.0588235
0.333318 0.246006 0.0528267
0.404211 0.248936 0.050782
0.474845 0.249744 0.0518502
0.544076 0.250095 0.0561227
0.609277 0.249348 0.0614328
0.672602 0.246784 0.0670634
0.729519 0.24477 0.0728008
0.77821 0.242222 0.0778821
0.820325 0.239612 0.082414
0.860945 0.236667 0.0868544
0.892195 0.235264 0.0913558
0.892805 0.236561 0.0983444
0.893294 0.237797 0.103838
0.89369 0.238636 0.1084
0.894011 0.239445 0.11194
0.894194 0.239643 0.114321
0.894484 0.241245 0.11635
0.894697 0.242329 0.117891
0.895018 0.244663 0.119219
0.895354 0.247456 0.120241
0.895811 0.251331 0.121279
0.024033 0.171191 0.0898146
0.0239567 0.170748 0.0896162
0.0238499 0.170092 0.0892958
0.023743 0.169421 0.0889906
0.024155 0.172503 0.0839399
0.0260166 0.179889 0.0742657
0.0348669 0.200259 0.0564889
0.054963 0.219593 0.0404974
0.0960708 0.237827 0.0423133
0.149981 0.258259 0.0526894
0.211719 0.278859 0.0665904
0.271534 0.295537 0.0820478
0.340887 0.307866 0.0853437
0.412268 0.314733 0.0803388
0.483009 0.319127 0.079408
0.5523 0.322286 0.0813611
0.617685 0.324514 0.085008
0.680674 0.323995 0.0890059
0.737758 0.32369 0.0936294
0.786648 0.321645 0.0976577
0.827893 0.32047 0.101534
0.867979 0.317739 0.10515
0.901289 0.316274 0.108736
0.901915 0.318196 0.115267
0.902403 0.319539 0.120378
0.902831 0.320928 0.124743
0.903136 0.321752 0.128038
0.903365 0.322423 0.130297
0.903563 0.323247 0.132128
0.903792 0.324544 0.133669
0.904082 0.32665 0.134936
0.904387 0.328969 0.135912
0.904982 0.334112 0.137331
0.0319829 0.215579 0.110216
0.0317998 0.214679 0.109804
0.0316777 0.214084 0.109514
0.0314488 0.212894 0.10898
0.0318303 0.215167 0.104723
0.0348821 0.22266 0.0964828
0.0443122 0.244022 0.0837262
0.056611 0.267994 0.0654612
0.0874189 0.28983 0.0610208
0.135683 0.310109 0.0629587
0.203021 0.335195 0.0792554
0.265766 0.354223 0.0962234
0.342809 0.37438 0.117769
0.420066 0.389639 0.124666
0.490486 0.395666 0.117525
0.559899 0.400153 0.114977
0.62536 0.402884 0.115084
0.687938 0.403693 0.116579
0.745159 0.404608 0.119417
0.793866 0.403326 0.121965
0.834348 0.402884 0.124773
0.873823 0.400916 0.127413
0.907271 0.400015 0.130129
0.911498 0.401602 0.135424
0.912016 0.403616 0.14023
0.912428 0.405097 0.144213
0.912718 0.405921 0.147173
0.912978 0.407111 0.149386
0.913207 0.408103 0.151141
0.91339 0.409033 0.152514
0.913619 0.410513 0.153658
0.913771 0.411612 0.154391
0.914458 0.417395 0.156115
0.0451362 0.270787 0.136339
0.0449226 0.270008 0.135973
0.0446021 0.268833 0.135409
0.0442817 0.267674 0.134844
0.0452277 0.269337 0.131991
0.0486305 0.276188 0.124636
0.0589456 0.297719 0.11696
0.0732128 0.324849 0.108385
0.0898451 0.352789 0.0990768
0.128878 0.37554 0.0941329
0.190478 0.396567 0.0959029
0.256596 0.415869 0.112093
0.336736 0.436316 0.132662
0.422126 0.457618 0.156374
0.498329 0.471427 0.164141
0.567407 0.476951 0.155535
0.632776 0.48043 0.151217
0.694865 0.48304 0.149798
0.751675 0.484749 0.150118
0.800549 0.484855 0.151019
0.840146 0.484703 0.152331
0.87863 0.483604 0.15378
0.911269 0.483482 0.155627
0.92137 0.484993 0.159396
0.921935 0.487678 0.163729
0.922393 0.489876 0.167422
0.922728 0.491264 0.170138
0.922972 0.492454 0.172122
0.92314 0.493141 0.173632
0.923293 0.493751 0.174807
0.923491 0.495125 0.175891
0.92369 0.496513 0.176699
0.924331 0.501732 0.17847
0.0678569 0.342535 0.171633
0.0673686 0.341161 0.170947
0.0670481 0.340246 0.170489
0.0665599 0.338872 0.169802
0.0670329 0.33904 0.167391
0.0708629 0.345373 0.161288
0.0819409 0.365591 0.157107
0.0970474 0.391943 0.15346
0.112551 0.419654 0.151431
0.129549 0.445686 0.136156
0.182666 0.46569 0.127993
0.242924 0.480171 0.129366
0.326528 0.500603 0.148882
0.41532 0.521859 0.171557
0.49926 0.540963 0.194507
0.575051 0.555535 0.205798
0.639841 0.559686 0.195499
0.701396 0.56231 0.18941
0.758312 0.564355 0.186358
0.807004 0.565118 0.184924
0.84593 0.565454 0.184558
0.883375 0.565713 0.184833
0.915328 0.565881 0.185489
0.931517 0.567773 0.187732
0.932052 0.570581 0.191318
0.932555 0.573404 0.194583
0.932845 0.574777 0.196841
0.933135 0.576486 0.198688
0.933318 0.577325 0.200015
0.933471 0.578119 0.201083
0.933639 0.579309 0.202029
0.933745 0.579889 0.202548
0.934432 0.585428 0.204639
0.0975052 0.418784 0.210163
0.09691 0.417273 0.209384
0.0965133 0.416266 0.208881
0.0959182 0.414755 0.208103
0.0960861 0.414496 0.206424
0.0996109 0.419654 0.20116
0.108705 0.43563 0.197681
0.121355 0.458534 0.195392
0.135973 0.485969 0.197116
0.151751 0.511925 0.190051
0.179583 0.536034 0.166384
0.233921 0.54728 0.157717
0.31371 0.563638 0.165545
0.406409 0.58468 0.187304
0.49337 0.603784 0.2094
0.57499 0.621973 0.231708
0.647868 0.635264 0.245411
0.708415 0.638437 0.234089
0.765148 0.64126 0.227298
0.813596 0.641962 0.222782
0.851896 0.643046 0.220691
0.888243 0.643854 0.219379
0.919234 0.644541 0.218814
0.941482 0.646113 0.219303
0.942016 0.6495 0.222248
0.94255 0.652888 0.225055
0.942916 0.655131 0.227115
0.943252 0.657282 0.228809
0.94342 0.658244 0.229892
0.943572 0.659144 0.230823
0.943648 0.659602 0.231373
0.943694 0.659861 0.231693
0.94435 0.664973 0.233845
0.126726 0.492973 0.248417
0.126329 0.491966 0.247898
0.12575 0.490471 0.24712
0.125353 0.489479 0.246601
0.1252 0.488701 0.245365
0.128099 0.492851 0.240742
0.135302 0.505547 0.23772
0.145708 0.5243 0.235431
0.159487 0.550988 0.239033
0.174212 0.576776 0.236896
0.192279 0.601236 0.216022
0.232502 0.615641 0.195331
0.298268 0.624628 0.182177
0.395422 0.64535 0.203113
0.485252 0.664256 0.224369
0.570108 0.68249 0.246128
0.646662 0.69781 0.266712
0.716167 0.711284 0.28365
0.772152 0.714031 0.271931
0.820417 0.715557 0.264363
0.858259 0.716243 0.259709
0.893507 0.717296 0.256641
0.923537 0.718715 0.254932
0.946929 0.719951 0.254032
0.951736 0.723705 0.255924
0.952285 0.727626 0.258274
0.952667 0.73022 0.259937
0.953002 0.732662 0.261433
0.953109 0.733288 0.262058
0.953262 0.734264 0.262806
0.953307 0.734554 0.263127
0.953307 0.734508 0.263203
0.953964 0.739406 0.265492
0.15349 0.561135 0.283787
0.153109 0.560128 0.283268
0.152712 0.559136 0.28275
0.152316 0.558145 0.282231
0.152117 0.557473 0.281621
0.155459 0.563272 0.278996
0.161044 0.572946 0.276097
0.169528 0.588037 0.273671
0.18204 0.612619 0.277562
0.195468 0.636881 0.277653
0.212284 0.660914 0.263523
0.229587 0.678157 0.228687
0.294408 0.687022 0.216846
0.381704 0.700206 0.217563
0.475837 0.719387 0.238437
0.563226 0.736873 0.259419
0.641932 0.752331 0.27953
0.713771 0.766094 0.298802
0.779202 0.778988 0.317128
0.82742 0.780865 0.305943
0.864744 0.781674 0.298909
0.89897 0.782834 0.293996
0.928038 0.784283 0.290883
0.950545 0.786099 0.289296
0.960494 0.788556 0.289265
0.961028 0.792615 0.29102
0.961395 0.795392 0.292287
0.961746 0.798016 0.293568
0.961929 0.799344 0.29424
0.962066 0.800397 0.29482
0.962112 0.800763 0.295033
0.962097 0.800641 0.294987
0.962676 0.804944 0.297169
0.176028 0.618692 0.314015
0.175647 0.617716 0.313497
0.17525 0.616724 0.312978
0.174868 0.615732 0.312459
0.174289 0.614252 0.311681
0.178058 0.621515 0.31075
0.182895 0.630106 0.308629
0.189487 0.641245 0.305272
0.200504 0.66273 0.308324
0.213062 0.686198 0.310063
0.22855 0.708934 0.29958
0.2448 0.726711 0.271382
0.291218 0.737926 0.245258
0.3682 0.744732 0.22945
0.465354 0.763531 0.249729
0.556161 0.780911 0.27042
0.636423 0.796017 0.289998
0.709651 0.809979 0.308934
0.776471 0.822354 0.326925
0.833173 0.832761 0.34255
0.870069 0.834119 0.333608
0.903426 0.835325 0.327016
0.931746 0.836713 0.322591
0.953658 0.838499 0.320089
0.967666 0.840146 0.318563
0.968139 0.844099 0.319677
0.968475 0.84686 0.320516
0.968811 0.84947 0.321538
0.968994 0.850904 0.322042
0.969116 0.851942 0.322438
0.969177 0.852399 0.322591
0.969162 0.852323 0.322484
0.969635 0.855726 0.324315
0.199863 0.679667 0.346105
0.199649 0.679133 0.34583
0.199237 0.67808 0.345266
0.198825 0.677012 0.344717
0.198215 0.675425 0.343877
0.201617 0.682231 0.343725
0.205814 0.689845 0.342184
0.21088 0.697795 0.338247
0.220371 0.716106 0.340368
0.231846 0.737926 0.342779
0.246036 0.759304 0.334997
0.261509 0.776684 0.311589
0.287007 0.789227 0.273228
0.36257 0.795117 0.256046
0.454063 0.80798 0.261402
0.54699 0.82501 0.281498
0.630198 0.839551 0.30071
0.705058 0.852918 0.319173
0.77348 0.865125 0.336904
0.831662 0.875242 0.352514
0.875151 0.882795 0.364569
0.908858 0.88481 0.360616
0.936278 0.885878 0.354681
0.957504 0.887327 0.35108
0.974548 0.888426 0.348272
0.974899 0.891798 0.348455
0.975158 0.894224 0.348684
0.975418 0.896483 0.349248
0.975586 0.897871 0.349508
0.975692 0.898863 0.349706
0.975753 0.899397 0.349783
0.975738 0.899382 0.349645
0.976074 0.901793 0.350988
0.223392 0.739971 0.378103
0.223194 0.739452 0.377829
0.222782 0.738415 0.377264
0.222385 0.737377 0.376715
0.221775 0.735821 0.375891
0.22504 0.742611 0.376547
0.22887 0.749844 0.375784
0.232319 0.754269 0.370886
0.240253 0.769238 0.371847
0.250675 0.789303 0.374517
0.263584 0.809155 0.36878
0.278294 0.826032 0.348898
0.294011 0.838895 0.310109
0.359609 0.845472 0.284627
0.441321 0.850813 0.27277
0.53782 0.867002 0.292348
0.623209 0.880537 0.310964
0.700343 0.893202 0.329076
0.770489 0.904677 0.346441
0.829786 0.914214 0.361715
0.873808 0.920928 0.373358
0.91165 0.92723 0.383734
0.941314 0.930831 0.386114
0.961822 0.931914 0.381399
0.979614 0.932296 0.377325
0.981125 0.93489 0.376349
0.981231 0.936431 0.375616
0.981399 0.938125 0.37557
0.981521 0.939315 0.375509
0.981598 0.940185 0.375479
0.981659 0.940734 0.375448
0.981659 0.940795 0.37528
0.981857 0.942275 0.376104
0.247288 0.80119 0.410544
0.246876 0.800122 0.409995
0.246464 0.799069 0.40943
0.246052 0.798016 0.408865
0.245426 0.796429 0.408026
0.248325 0.802609 0.409033
0.252293 0.810605 0.409522
0.254658 0.812863 0.404303
0.260838 0.823941 0.403906
0.269764 0.841001 0.405951
0.281224 0.858549 0.401099
0.294759 0.873655 0.383093
0.308812 0.884596 0.350011
0.355642 0.892103 0.310613
0.431983 0.892836 0.288701
0.527718 0.905226 0.302251
0.616541 0.918013 0.320577
0.695598 0.929229 0.338094
0.767056 0.93962 0.354971
0.828107 0.948425 0.370047
0.873106 0.954559 0.381476
0.910811 0.960174 0.391424
0.941802 0.965011 0.399832
0.965454 0.969177 0.406455
0.983398 0.969726 0.403662
0.986526 0.971496 0.401511
0.986542 0.972595 0.400107
0.986618 0.973709 0.399451
0.986664 0.974578 0.398978
0.986709 0.97525 0.398688
0.986755 0.975723 0.39852
0.986755 0.975845 0.398337
0.986847 0.976562 0.398657
0.270344 0.860319 0.441993
0.269963 0.859327 0.441474
0.269566 0.858351 0.44094
0.269184 0.857359 0.440421
0.268605 0.855879 0.439628
0.271015 0.861067 0.44062
0.274784 0.868955 0.441794
0.276783 0.870726 0.437079
0.281239 0.877974 0.435248
0.288075 0.890227 0.435447
0.297734 0.90457 0.430716
0.309911 0.917311 0.413703
0.322423 0.926146 0.384298
0.351156 0.933639 0.33344
0.429007 0.932784 0.312169
0.518166 0.938293 0.310918
0.609537 0.949493 0.328618
0.691096 0.959426 0.345754
0.764416 0.968582 0.362249
0.826825 0.97641 0.37705
0.872908 0.982101 0.388388
0.910277 0.985412 0.397879
0.941131 0.987015 0.406012
0.96495 0.988266 0.412497
0.985275 0.989319 0.417975
0.9897 0.989685 0.421073
0.989532 0.989532 0.418997
0.989441 0.989441 0.4177
0.989364 0.989364 0.416754
0.989319 0.989319 0.416098
0.989288 0.989288 0.415686
0.989258 0.989258 0.41532
0.989258 0.989258 0.415366
0.2916 0.914885 0.471077
0.291249 0.913985 0.470588
0.290898 0.913085 0.470115
0.290547 0.912169 0.469627
0.290181 0.911254 0.469139
0.291981 0.915068 0.46981
0.295186 0.921813 0.47097
0.29688 0.923171 0.466651
0.299962 0.927352 0.463691
0.304875 0.935164 0.462028
0.312444 0.945312 0.456596
0.323033 0.95491 0.439597
0.334081 0.961395 0.412192
0.350301 0.964492 0.355688
0.42565 0.965286 0.331228
0.508629 0.964691 0.317708
0.603311 0.971038 0.335088
0.687053 0.974914 0.35198
0.762402 0.978515 0.368383
0.826886 0.981659 0.383307
0.873762 0.983993 0.394583
0.911147 0.985885 0.403876
0.941909 0.987457 0.411749
0.965347 0.988678 0.41796
0.985489 0.989715 0.423255
0.990158 0.990158 0.427222
0.990356 0.990356 0.429892
0.990478 0.990478 0.431434
0.990387 0.990387 0.430182
0.990326 0.990311 0.429328
0.99028 0.99028 0.428763
0.99025 0.99025 0.428504
0.99025 0.99025 0.428382
0.309529 0.960891 0.495552
0.309255 0.960189 0.495186
0.30898 0.959503 0.49482
0.308705 0.958801 0.494453
0.308431 0.958099 0.494072
0.309606 0.960449 0.494285
0.312215 0.962905 0.494972
0.313787 0.962997 0.491264
0.316075 0.963149 0.487938
0.319387 0.963409 0.484596
0.325231 0.963851 0.478447
0.334234 0.964431 0.460945
0.344015 0.964965 0.435203
0.35874 0.965606 0.382864
0.422599 0.966354 0.346975
0.500099 0.966995 0.323613
0.597955 0.971298 0.340871
0.683619 0.975219 0.357641
0.760708 0.978866 0.373907
0.826719 0.982071 0.3888
0.875105 0.984451 0.400183
0.912474 0.986328 0.409293
0.942641 0.987854 0.416815
0.965988 0.989044 0.422827
0.985977 0.990082 0.427955
0.990509 0.990509 0.431754
0.990692 0.990692 0.434272
0.990814 0.990814 0.435935
0.990921 0.990921 0.437293
0.990997 0.990997 0.43827
0.991058 0.991043 0.438987
0.991089 0.991089 0.43946
0.991119 0.991104 0.43978
0.323812 0.964202 0.514565
0.32369 0.964187 0.514412
0.323461 0.964172 0.514092
0.323125 0.964126 0.513634
0.322896 0.964111 0.513329
0.323644 0.964172 0.513252
0.325689 0.964355 0.513344
0.327214 0.964446 0.510292
0.328771 0.964538 0.506554
0.331029 0.964691 0.502251
0.335409 0.964996 0.495598
0.343328 0.965484 0.478157
0.352224 0.965957 0.454078
0.365866 0.966552 0.405585
0.419211 0.967254 0.360616
0.495033 0.967575 0.333608
0.59266 0.971496 0.345861
0.680507 0.975479 0.362478
