public/images/Fine Arts Cadres /TC_-_EDITING_ESSENTIALS_-_COLOR/TC - EXHIBITION_100.cube
TITLE "Generated by Resolve"
LUT_3D_SIZE 9
0.0176242 0.0465858 0.0562448
0.0867781 0.0496529 0.0536049
0.216556 0.0518196 0.0481422
0.464195 0.00227359 0.0113527
0.684337 0 0
0.772976 0 0
0.795514 0 0
0.798596 0 0
0.79855 0 0
0.00773632 0.0779583 0.052369
0.0759289 0.0814221 0.0512856
0.218769 0.0876326 0.0456245
0.494057 0.0320745 0.00410468
0.710124 0 0
0.790066 0 0
0.809339 0 0
0.812497 0 0
0.811872 0 0
0 0.144091 0.050782
0.0472419 0.146868 0.0497902
0.196231 0.160098 0.041062
0.48188 0.157549 0
0.739284 0.0769207 0
0.832593 0.0404669 0
0.852689 0.0282902 0
0.854841 0.0232548 0
0.854383 0.0198825 0
0 0.283207 0.0386969
0 0.289906 0.034638
0.14049 0.315648 0.00794995
0.482063 0.351415 0
0.789395 0.343313 0
0.917418 0.318608 0
0.946136 0.302174 0
0.950408 0.290227 0
0.949889 0.283177 0
0 0.456779 0
0 0.464805 0
0.0213626 0.49839 0
0.458366 0.577966 0
0.833143 0.617441 0
0.994659 0.607492 0
1 0.593393 0
1 0.584466 0
1 0.579553 0
0 0.558587 0
0 0.567788 0
0.00807202 0.600839 0
0.408103 0.698161 0
0.811902 0.769512 0
0.996307 0.78201 0
1 0.777951 0
1 0.773144 0
1 0.770153 0
0 0.599542 0
0 0.608087 0
0 0.639582 0
0.349798 0.734707 0
0.779217 0.820325 0
0.998642 0.845884 0
1 0.848173 0
1 0.846693 0
1 0.845243 0
0 0.614542 0
0 0.624277 0
0 0.654612 0
0.332021 0.748425 0
0.762203 0.838788 0
0.984421 0.869154 0
1 0.875029 0
1 0.875242 0
1 0.874601 0
0 0.621546 0
0 0.631022 0
0.00325017 0.661814 0
0.329778 0.754925 0
0.757153 0.846464 0
0.980011 0.878553 0
1 0.885817 0
1 0.886839 0
1 0.8869 0
0.000228885 0.0506752 0.0899825
0.0782177 0.052079 0.0975052
0.227237 0.052491 0.0920577
0.498772 0 0.0588693
0.705562 0 0.0089723
0.780224 0 4.57771e-05
0.796689 0 0
0.798856 0 0
0.798764 0 0
0.000320439 0.0809033 0.0846876
0.0583963 0.0835279 0.0889601
0.200519 0.089662 0.0835584
0.454505 0.0505684 0.0523079
0.689555 0 0.000289921
0.785199 0 0
0.809766 0 0
0.813581 0 0
0.813443 0 1.5259e-05
0 0.146777 0.0800793
0.0271305 0.149538 0.0810254
0.184039 0.162097 0.0748455
0.472297 0.161364 0.0276799
0.734478 0.0821088 0.000259403
0.830472 0.0432593 0
0.853513 0.0351415 0
0.858503 0.0295872 0
0.859327 0.0248569 0
0 0.286519 0.0664683
0 0.291569 0.0636149
0.1093 0.316167 0.041886
0.469154 0.353445 0.00015259
0.782544 0.346929 0
0.915526 0.321996 0
0.946349 0.306233 0
0.951034 0.293996 0
0.951614 0.288792 0
0 0.459464 0.000259403
0 0.467033 0.00703441
0.0125734 0.49865 0.000747692
0.442374 0.578653 0
0.82295 0.620356 0
0.992477 0.610803 0
1 0.597818 0
1 0.588113 0
1 0.582895 0
0 0.561303 0.00105287
0 0.570123 3.0518e-05
0.00456245 0.601968 0
0.388312 0.6972 0
0.800641 0.770748 0
0.994888 0.784314 0
1 0.780713 0
1 0.775677 0
1 0.772473 0
0 0.601541 0.0113222
0 0.609964 0.00660716
0 0.640391 0.000823987
0.324834 0.733547 0
0.768215 0.821241 0
0.995987 0.847868 0
1 0.850599 0
1 0.849073 0
1 0.847745 0
0 0.616678 0.0147555
0 0.626307 0.0130312
0 0.655467 0.000335698
0.312108 0.747143 0
0.750774 0.839017 0
0.980255 0.870787 0
1 0.876951 0
1 0.87747 0
1 0.877028 0
0 0.62359 0.016434
0 0.632715 0.0148165
0.00175479 0.662486 0.002533
0.308751 0.753811 0
0.746487 0.846845 0
0.976303 0.879896 0
1 0.887709 0
1 0.889158 0
1 0.88922 0
0 0.0585641 0.157733
0.00724804 0.0610666 0.198901
0.209979 0.0565499 0.195346
0.484169 0 0.178592
0.701488 0 0.150622
0.780209 0 0.13785
0.796307 0 0.127337
0.798505 0 0.119295
0.798352 0 0.115129
0 0.0871138 0.160098
0.00201419 0.0923323 0.16025
0.190555 0.0942702 0.178561
0.471061 0.0390936 0.165377
0.705318 0 0.135042
0.78912 0 0.122408
0.809293 0 0.114015
0.812284 0 0.104173
0.811902 0 0.094728
0 0.155947 0.141588
0 0.157153 0.152438
0.150668 0.167315 0.162722
0.439139 0.17229 0.145647
0.709041 0.110262 0.103075
0.823804 0.0563516 0.0769207
0.85391 0.0436103 0.0662852
0.860792 0.0347601 0.0588083
0.86125 0.0271 0.0533303
0 0.295933 0.133867
0 0.299763 0.142702
0.0580911 0.320272 0.141863
0.443656 0.35816 0.0953841
0.770291 0.353506 0.0393378
0.909499 0.329244 0.027039
0.943114 0.31426 0.0298009
0.95079 0.307713 0.0315709
0.953979 0.307317 0.0303655
0 0.467033 0.0960555
0 0.474113 0.0975204
0.000595102 0.50103 0.0935836
0.407065 0.582788 0.019089
0.805508 0.625986 0.00299077
0.986877 0.617105 0.00140383
1 0.60412 0.000900282
1 0.595102 1.5259e-05
1 0.59028 0
0 0.567681 0.0754864
0 0.576425 0.0684367
0.00047303 0.606104 0.0649424
0.343236 0.699001 0.0111543
0.781994 0.776349 0
0.992279 0.791409 0
1 0.787381 0
1 0.782666 0
1 0.780331 0
0 0.607126 0.0770733
0 0.615488 0.0632639
0 0.645014 0.0598001
0.273045 0.734585 0.0159762
0.749447 0.826658 0
0.990692 0.855512 0
1 0.857389 0
1 0.856016 0.00115969
1 0.855055 0.00190738
0 0.621958 0.0786755
0 0.632105 0.0730144
0 0.660105 0.0667582
0.258946 0.747372 0.0120241
0.730755 0.843702 0
0.972747 0.877882 3.0518e-05
1 0.884306 0.00077821
1 0.884779 0.00128176
1 0.884367 0.00108339
0 0.629068 0.0829938
0 0.638331 0.0785687
0.00015259 0.666651 0.066804
0.240391 0.753826 0.00477607
0.726238 0.851835 0.00177005
0.968826 0.886778 0.000198367
1 0.895354 0.0016022
1 0.896696 0.00184634
1 0.89662 0.00115969
0 0.0695659 0.277623
0 0.0693065 0.336095
0.044358 0.0600137 0.407416
0.466728 0 0.382086
0.692103 0 0.369192
0.775265 0 0.360418
0.793133 0 0.351705
0.796033 0 0.34435
0.795941 0 0.339757
0 0.0993362 0.326436
0 0.105959 0.289281
0.00921645 0.106386 0.361395
0.452445 0.0424964 0.370047
0.696086 0 0.356176
0.786023 0 0.345937
0.808042 0 0.338293
0.810712 0 0.331395
0.810071 0 0.327611
0 0.17055 0.265538
0 0.170199 0.301793
0.0176089 0.185 0.307073
0.431189 0.180728 0.351644
0.718059 0.115633 0.342306
0.825849 0.0589609 0.333455
0.851453 0.0447852 0.325475
0.856489 0.0364843 0.31783
0.857466 0.0316472 0.3093
0 0.319448 0.255436
0 0.320989 0.277501
0.00158694 0.334539 0.302632
0.39115 0.374807 0.333013
0.738079 0.377432 0.315099
0.895354 0.357443 0.298161
0.938811 0.344411 0.286854
0.949386 0.336309 0.276341
0.953475 0.334005 0.268101
0 0.487877 0.251637
0 0.494926 0.273259
0 0.519844 0.292668
0.305394 0.599344 0.294484
0.769772 0.646937 0.256397
0.971984 0.637217 0.227115
0.999924 0.623774 0.223484
1 0.616602 0.221241
1 0.615198 0.225498
0 0.58761 0.247868
0 0.596841 0.262119
0 0.624826 0.269795
0.20763 0.710445 0.262455
0.739834 0.797482 0.179355
0.980835 0.81294 0.168475
1 0.807889 0.168826
1 0.803357 0.167605
1 0.800381 0.166934
0 0.625727 0.241123
0 0.635096 0.253071
0 0.663325 0.259403
0.168383 0.745327 0.246967
0.704097 0.845487 0.159228
0.966217 0.876066 0.146746
1 0.878859 0.151522
1 0.877394 0.155489
1 0.876097 0.157824
0 0.640772 0.235401
0 0.650767 0.2477
0 0.677516 0.253468
0.135393 0.75555 0.238392
0.686275 0.861524 0.141604
0.95111 0.897246 0.13228
1 0.904967 0.145342
1 0.905745 0.153765
1 0.905638 0.15729
0 0.646632 0.233997
0 0.656535 0.245731
0 0.68397 0.250645
0.128405 0.760449 0.239231
0.682979 0.869474 0.140093
0.943954 0.906767 0.139635
1 0.916579 0.148257
1 0.918303 0.154894
1 0.918578 0.158999
0 0.0727245 0.429969
0 0.068452 0.47744
0 0.0569009 0.535103
0.371206 0.0059205 0.583947
0.682628 0 0.558862
0.771634 0 0.551965
0.790707 0 0.546548
0.793667 0 0.542016
0.793652 0 0.538918
0 0.105455 0.483406
0 0.117464 0.448569
0 0.113649 0.504631
0.264179 0.0881666 0.584039
0.68397 0 0.556924
0.780835 0 0.547982
0.805142 0 0.541573
0.808667 0 0.535622
0.808392 0 0.53283
0 0.182559 0.463844
0 0.183719 0.502312
0 0.206104 0.474784
0.180819 0.214145 0.563134
0.703609 0.123247 0.568658
0.820127 0.0811017 0.556954
0.84802 0.0653544 0.547753
0.852903 0.0550393 0.541848
0.852369 0.0473335 0.538949
0 0.349676 0.441459
0 0.347509 0.462043
0 0.35465 0.508049
0.120058 0.399756 0.53048
0.721813 0.392935 0.57966
0.88542 0.367834 0.570916
0.925872 0.351446 0.56405
0.935149 0.341405 0.559823
0.93875 0.340276 0.556207
0 0.519738 0.432227
0 0.524941 0.456733
0 0.547601 0.487907
0.138567 0.61413 0.533516
0.719081 0.68014 0.571206
0.935622 0.67483 0.557504
0.998138 0.66479 0.54519
1 0.657877 0.535393
1 0.655131 0.527794
0 0.616587 0.422934
0 0.626123 0.449638
0 0.653117 0.478752
0.093492 0.72398 0.513985
0.674174 0.833432 0.53518
0.941482 0.851667 0.529305
0.999954 0.847898 0.525811
1 0.84271 0.52311
1 0.841642 0.527001
0 0.654841 0.419684
0 0.664714 0.443824
0 0.692164 0.467338
0.0728618 0.760662 0.492348
0.627466 0.879576 0.509239
0.923995 0.916564 0.510048
0.99968 0.921553 0.5122
1 0.920501 0.510704
1 0.919341 0.51162
0 0.669657 0.415839
0 0.67982 0.437797
0 0.705791 0.457618
0.0641642 0.771725 0.480064
0.606241 0.895155 0.495506
0.905623 0.93814 0.497154
1 0.947509 0.501671
1 0.948989 0.504692
1 0.948653 0.505577
0 0.675471 0.415061
0 0.685573 0.435233
0 0.712306 0.454154
0.0603494 0.778378 0.477226
0.605814 0.902937 0.49337
0.897765 0.947066 0.495583
0.997635 0.958373 0.499352
1 0.960891 0.502556
1 0.961059 0.504372
0 0.0732433 0.54406
0 0.0734264 0.571618
0 0.0695048 0.6065
0.070573 0.0600137 0.652537
0.663905 0 0.666957
0.774243 0 0.658274
0.79501 0 0.65565
0.798383 0 0.652766
0.798276 0 0.651469
0 0.112261 0.582605
0 0.125368 0.561776
0 0.123842 0.595636
0.0379492 0.117052 0.648325
0.643641 0 0.682567
0.781857 0 0.663447
0.80795 0 0.659785
0.812467 0 0.656672
0.81239 0 0.654032
0 0.182498 0.607004
0 0.196536 0.610574
0 0.222446 0.594461
0.022385 0.227085 0.647959
0.589517 0.183093 0.721492
0.817517 0.0893873 0.693629
0.847547 0.0753948 0.684932
0.853407 0.0666667 0.678889
0.853346 0.0605173 0.675166
0 0.361517 0.584024
0 0.352682 0.620401
0 0.362234 0.661051
0.000137331 0.411505 0.657191
0.542245 0.440497 0.749218
0.874052 0.376196 0.734783
0.917922 0.360082 0.726528
0.928481 0.348287 0.720668
0.93109 0.341939 0.717723
0 0.54461 0.596628
0 0.546532 0.616785
0 0.563165 0.641154
0.10808 0.621424 0.69659
0.560372 0.705943 0.740597
0.915022 0.684443 0.761776
0.983841 0.669429 0.753735
0.999374 0.657801 0.748775
1 0.653483 0.746426
0 0.639948 0.581216
0 0.646494 0.601862
0 0.668879 0.627665
0.0394293 0.728328 0.669154
0.598489 0.847486 0.729763
0.905715 0.874037 0.754772
0.992538 0.874266 0.751156
1 0.871397 0.745464
1 0.870237 0.741894
0 0.676173 0.569528
0 0.683818 0.590097
0 0.708797 0.617365
0.0455024 0.771115 0.655634
0.542702 0.89572 0.713878
0.884291 0.942718 0.738842
0.990845 0.945876 0.738048
1 0.947646 0.740032
1 0.946319 0.738781
0 0.689921 0.561288
0 0.698466 0.58436
0 0.72311 0.610468
0.0398413 0.784634 0.646693
0.522103 0.911727 0.698802
0.865354 0.96405 0.720958
0.98233 0.976104 0.72874
1 0.977478 0.729625
1 0.97731 0.729824
0 0.695598 0.559243
0 0.704646 0.582925
0 0.730007 0.607401
0.0366827 0.79173 0.643
0.525917 0.920333 0.692119
0.857984 0.973098 0.713268
0.977401 0.987213 0.72224
0.999847 0.989364 0.724697
1 0.989578 0.725933
0 0.0803845 0.601373
0 0.082063 0.615717
0 0.0801404 0.634684
0 0.0749218 0.660792
0.532662 0 0.705653
0.77586 0 0.696956
0.79881 0 0.695659
0.802411 0 0.693339
0.802396 0 0.69247
0 0.120592 0.627634
0 0.134035 0.618143
0 0.133455 0.637903
0.00373846 0.127321 0.668803
0.460883 0.0547646 0.726543
0.781643 0 0.708232
0.810971 0.000167849 0.705104
0.816022 0.00030518 0.702983
0.816449 0.000137331 0.701366
0 0.188785 0.654765
0 0.206744 0.65536
0 0.234134 0.651774
0.00167849 0.238483 0.68632
0.419989 0.234073 0.758312
0.8121 0.103471 0.748882
0.849393 0.0845197 0.738659
0.856016 0.076173 0.733837
0.856168 0.0704356 0.730709
0 0.360159 0.670085
0 0.346273 0.696345
0 0.370642 0.711879
0 0.420966 0.715511
0.373541 0.460624 0.795331
0.837751 0.390875 0.809735
0.914458 0.363668 0.795575
0.926329 0.352911 0.790722
0.929381 0.347021 0.787884
0 0.552056 0.682689
0 0.550622 0.691966
0 0.567651 0.720241
0.104616 0.618799 0.787213
0.381582 0.70309 0.809567
0.823835 0.708263 0.854383
0.969497 0.656413 0.836103
0.994522 0.6607 0.835584
0.998566 0.655146 0.833082
0 0.650675 0.673426
0 0.655299 0.689616
0 0.67454 0.710506
0.0240635 0.728634 0.748318
0.557458 0.85034 0.820081
0.828061 0.877089 0.839368
0.980499 0.858488 0.850187
1 0.874296 0.859663
1 0.871382 0.859159
0 0.686046 0.660868
0 0.692287 0.677516
0 0.714 0.697917
0.0240024 0.77023 0.734829
0.454917 0.894316 0.802213
0.849928 0.946441 0.839719
0.967224 0.947311 0.847913
1 0.958984 0.858045
1 0.958236 0.85539
0 0.699992 0.653147
0 0.706249 0.66833
0 0.728511 0.690181
0.026154 0.785885 0.726802
0.452964 0.911147 0.792737
0.840055 0.973114 0.836683
0.963958 0.98555 0.84596
0.999512 0.987488 0.847532
1 0.989227 0.851118
0 0.70515 0.647654
0 0.712077 0.664149
0 0.735805 0.687724
0.0237736 0.793469 0.723308
0.452873 0.921904 0.790936
0.83267 0.982391 0.829633
0.958846 0.99704 0.838956
0.99707 0.998184 0.83946
1 0.998627 0.846372
0 0.0859846 0.625528
0 0.0877852 0.633539
0 0.0860151 0.644907
0 0.0795453 0.66273
0.381079 0.0103914 0.712657
0.766949 0 0.710018
0.801114 0 0.709087
0.805203 0 0.707805
0.80531 0 0.706859
0 0.126116 0.646815
0 0.139712 0.64213
0 0.1393 0.653819
0 0.134035 0.675608
0.34316 0.104677 0.731914
0.765637 0.00236515 0.727291
0.812909 0.000579843 0.721248
0.818082 0.000488289 0.71899
0.818967 0.000320439 0.718135
0 0.193713 0.671794
0 0.213275 0.674708
0 0.242802 0.676707
0 0.246479 0.701823
0.320195 0.249165 0.765896
0.774868 0.140322 0.777707
0.849943 0.0892195 0.758526
0.857343 0.0813306 0.754543
0.857847 0.0762951 0.752102
0 0.3514 0.706447
0 0.347494 0.718227
0 0.378775 0.731136
0 0.427756 0.740124
0.241978 0.468849 0.809201
0.766445 0.44506 0.844648
0.912535 0.368658 0.822492
0.925597 0.356374 0.817273
0.929107 0.350774 0.814984
0 0.552728 0.719768
0 0.553246 0.729503
0 0.56379 0.764294
0.0671092 0.615228 0.808209
0.258442 0.695232 0.833341
0.776074 0.732006 0.886534
0.963394 0.678828 0.881285
0.9906 0.661311 0.872908
0.995712 0.656077 0.87039
0 0.655818 0.721675
0 0.65893 0.733913
0 0.676616 0.750637
0.0236973 0.731487 0.786191
0.572519 0.850446 0.87602
0.789517 0.890303 0.886397
0.945495 0.881483 0.90956
1 0.87541 0.90634
1 0.872419 0.904616
0 0.690883 0.712062
0 0.69601 0.72285
0 0.715587 0.740948
0.0156558 0.767803 0.775341
0.387335 0.888747 0.844678
0.844053 0.952499 0.890822
0.942992 0.958877 0.901427
1 0.957275 0.91046
1 0.959838 0.911498
0 0.704265 0.701961
0 0.709697 0.714458
0 0.73022 0.734295
0.0183566 0.783978 0.767239
0.390784 0.904219 0.833387
0.819348 0.974472 0.88246
0.956374 0.99089 0.90193
0.996033 0.992447 0.908949
1 0.992676 0.908171
0 0.709361 0.696193
0 0.715419 0.709957
0 0.737667 0.730617
0.0195315 0.79237 0.763333
0.39617 0.916838 0.831922
0.815808 0.983948 0.877867
0.952209 0.99939 0.899153
0.991775 1 0.900755
1 1 0.905592
0 0.0897688 0.636149
0 0.09131 0.641428
0 0.0884871 0.648173
0 0.0815747 0.661509
0.289052 0.0433509 0.709682
0.74966 0 0.712902
0.801328 0 0.713237
0.805997 0 0.712383
0.806241 0 0.711803
0 0.129931 0.654139
0 0.143465 0.652598
0 0.143969 0.661128
0 0.138231 0.678294
0.283284 0.123796 0.730755
0.734615 0.00764477 0.734203
0.81323 0.00120546 0.727474
0.81976 0.00114443 0.725689
0.82034 0.000717174 0.724498
0 0.197787 0.678645
0 0.21854 0.683314
0 0.248234 0.688624
0 0.251911 0.708522
0.245792 0.256352 0.765499
0.723217 0.182269 0.789593
0.848737 0.0948653 0.768856
0.857862 0.0836042 0.762997
0.858549 0.0789654 0.76083
0 0.346868 0.717937
0 0.35024 0.726604
0 0.384588 0.739666
0 0.43328 0.751385
0.172 0.47187 0.809781
0.725139 0.464714 0.854658
0.906554 0.383352 0.837507
0.925582 0.359197 0.827832
0.929183 0.353017 0.825589
0 0.55491 0.737942
0 0.553109 0.74992
0 0.562173 0.781018
0.0403296 0.613413 0.814618
0.193439 0.688807 0.839521
0.728283 0.740307 0.897734
0.934859 0.705028 0.902663
0.988739 0.662074 0.88835
0.994339 0.656992 0.886213
0 0.657877 0.745083
0 0.660471 0.754391
0 0.677729 0.768978
0.0235752 0.73228 0.806012
0.552819 0.849027 0.894789
0.75079 0.890089 0.903822
0.92163 0.890913 0.926146
0.998795 0.872526 0.92665
1 0.872343 0.92491
0 0.693126 0.736522
0 0.697688 0.746273
0 0.715892 0.762493
0.0140383 0.76669 0.796384
0.387671 0.889143 0.865553
0.84921 0.952834 0.920607
0.930251 0.964675 0.924102
0.991928 0.962936 0.937942
1 0.9608 0.936248
0 0.706432 0.728603
0 0.711254 0.738872
0 0.730526 0.756115
0.0160067 0.782361 0.788373
0.349096 0.898039 0.852354
0.804166 0.974151 0.90486
0.9505 0.991943 0.926177
0.990677 0.99382 0.932311
1 0.993072 0.936126
0 0.711376 0.723095
0 0.716976 0.734188
0 0.738079 0.752514
0.0176547 0.791089 0.784253
0.35761 0.911147 0.850568
0.801755 0.983581 0.900832
0.943954 0.999649 0.923247
0.98677 1 0.927169
0.999969 1 0.930831
