public/images/Fine Arts Cadres /TC_-_EDITING_ESSENTIALS_-_COLOR/TC - ATLANTA - LOG TO LOOK - 2.cube
TITLE "Generated by Resolve"
LUT_3D_SIZE 33
0.00619516 0.00619516 0.00619516
0.00619516 0.00619516 0.00619516
0.00619516 0.00619516 0.00619516
0.00619516 0.00619516 0.00619516
0.0125887 0.00564584 0.00585946
0.0227054 0.00482185 0.00535592
0.0344549 0.00387579 0.00479133
0.0468299 0.00288396 0.00419623
0.0599985 0.00184634 0.00358587
0.0735943 0.000762951 0.00294499
0.0872053 0 0.00233463
0.100603 0 0.0018616
0.115923 0 0.00149538
0.133944 0 0.00128176
0.154665 0 0.0010071
0.177829 0 0.00120546
0.204303 0 0.00195315
0.235401 0 0.00361639
0.272114 0 0.00665293
0.314168 0 0.0115358
0.360601 0 0.0187076
0.40766 0.00280766 0.0278325
0.455421 0.00808728 0.0392767
0.504082 0.0147707 0.0514076
0.547662 0.0218814 0.0623636
0.588815 0.0297704 0.0728161
0.626352 0.0368505 0.0823072
0.660197 0.0432288 0.090837
0.689448 0.0487373 0.0981765
0.710674 0.052781 0.103243
0.73341 0.0570993 0.10869
0.756024 0.061387 0.114107
0.778683 0.0656901 0.119539
0.00619516 0.00619516 0.00619516
0.00619516 0.00619516 0.00619516
0.00619516 0.00619516 0.00619516
0.00688182 0.00613413 0.00614939
0.0146944 0.00547799 0.00575265
0.0248112 0.004654 0.0052491
0.0357671 0.00381476 0.00427253
0.0475166 0.00296025 0.00300603
0.059968 0.00218204 0.00161746
0.0733043 0.00132753 0.000198367
0.0872969 0.000381476 0
0.100923 0 0
0.117021 0 0
0.135912 0 0
0.157641 0 0
0.182422 0 0
0.210941 0 0
0.244739 0 0
0.284123 0 0.000289921
0.329519 0 0.00567636
0.377798 0.00109865 0.0133822
0.426322 0.00569162 0.0231022
0.475929 0.01178 0.0354009
0.525063 0.0191653 0.048249
0.569055 0.0272068 0.0597543
0.610605 0.0350042 0.0705272
0.648356 0.0420996 0.0802319
0.682445 0.0485084 0.0888838
0.710033 0.0537118 0.0957504
0.731334 0.0577554 0.100893
0.754147 0.0620737 0.106462
0.776761 0.0663462 0.111971
0.799451 0.0706493 0.11751
0.00624094 0.00680552 0.00633249
0.0062562 0.0071107 0.00639353
0.00627146 0.00735485 0.00645457
0.00967422 0.00807202 0.00627146
0.0168917 0.00901808 0.00578317
0.0262913 0.00993362 0.00514229
0.0377356 0.0104982 0.00425727
0.0502937 0.0108644 0.00326543
0.0638743 0.0112001 0.0021973
0.0781567 0.0111238 0.0010071
0.0926375 0.0108797 0
0.107973 0.0106203 0
0.126223 0.00978103 0
0.147387 0.00863661 0
0.171389 0.00698863 0
0.198428 0.00486763 0
0.229587 0.00227359 0
0.267094 0 0
0.31191 0 0
0.360967 0.00167849 0
0.410269 0.00538643 0.00741588
0.459556 0.0109865 0.0185092
0.51014 0.0181582 0.0323949
0.557168 0.0261387 0.0457923
0.600473 0.0344549 0.0578927
0.64062 0.0419165 0.068864
0.676966 0.0486915 0.0786297
0.709575 0.0547951 0.0872206
0.732174 0.0590524 0.0928817
0.75407 0.0631876 0.0982986
0.776425 0.0673991 0.103838
0.79855 0.0715801 0.109316
0.820111 0.075639 0.114641
0.00683604 0.0147707 0.00814832
0.00686656 0.0153506 0.00828565
0.00694286 0.0162051 0.00848402
0.011429 0.0178683 0.00737011
0.0219577 0.0202792 0.00814832
0.0322423 0.0218051 0.00720226
0.0428473 0.0233921 0.00643931
0.0554513 0.0246281 0.00549325
0.0697032 0.0255436 0.00436408
0.0847791 0.0257267 0.00306706
0.0998245 0.0259709 0.00184634
0.11725 0.025803 0.000457771
0.137789 0.0251469 0
0.161639 0.0241093 0
0.187945 0.0224308 0
0.218143 0.0203098 0
0.2533 0.0176089 0
0.294331 0.0142824 0
0.340108 0.0104067 0
0.387884 0.00799573 0
0.437842 0.0121767 0.00077821
0.488457 0.0176852 0.0119631
0.539345 0.0246738 0.0254826
0.584298 0.0331273 0.0397192
0.626276 0.0408331 0.0523232
0.664546 0.0478828 0.0634318
0.699031 0.0542611 0.0731823
0.728267 0.0597086 0.0811475
0.749126 0.0636301 0.0865187
0.771359 0.0677806 0.0923018
0.793622 0.0719615 0.098085
0.815045 0.0759747 0.103609
0.836286 0.0799573 0.109056
0.00773632 0.0265507 0.0108797
0.00781262 0.0275883 0.0111238
0.00807202 0.0290227 0.0107729
0.0124514 0.0306249 0.00825513
0.0250858 0.033402 0.00981155
0.038819 0.0359045 0.0106813
0.0512703 0.0375677 0.00955215
0.0638743 0.0397192 0.00860609
0.0767681 0.0419013 0.00753796
0.0910048 0.0433509 0.00622568
0.10695 0.0442359 0.00491341
0.126085 0.0444648 0.00332647
0.148516 0.0441291 0.00155642
0.174212 0.0434119 0
0.20267 0.0419928 0
0.23505 0.040116 0
0.27361 0.0375067 0
0.318059 0.0341497 0
0.365301 0.030518 0
0.413001 0.0268864 0
0.460853 0.0233005 0
0.511559 0.0263828 0.00393683
0.561639 0.033875 0.017792
0.606363 0.0406806 0.0317235
0.647959 0.0471046 0.0442054
0.685634 0.0534218 0.055436
0.718868 0.0595102 0.0655375
0.744335 0.0642252 0.0728466
0.765301 0.0681163 0.0786297
0.787182 0.0721904 0.0846723
0.808743 0.0762036 0.0905928
0.829664 0.0800946 0.0962539
0.849973 0.0838788 0.101732
0.0087892 0.0408637 0.0148013
0.00885023 0.0420691 0.0154116
0.00943008 0.0439307 0.0142061
0.0126192 0.0458686 0.010071
0.0249027 0.0487526 0.0112154
0.0411994 0.0521096 0.0130007
0.0578012 0.0554971 0.0142977
0.0725567 0.0575418 0.013077
0.0866865 0.0593881 0.0117952
0.100389 0.0618448 0.010605
0.11632 0.0640879 0.00910964
0.136065 0.0652171 0.00712596
0.159823 0.0655985 0.00495918
0.187182 0.065095 0.00292973
0.217975 0.063798 0.0009308
0.253285 0.0620279 0
0.295277 0.0596017 0
0.342168 0.0563363 0
0.3897 0.0528725 0
0.43743 0.0494392 0
0.485451 0.0460212 0
0.534142 0.0424964 0.00183108
0.580087 0.042237 0.00830091
0.624109 0.0487221 0.0226749
0.664347 0.0548257 0.0357061
0.700893 0.0604562 0.046952
0.73315 0.0655222 0.0564889
0.755169 0.0691539 0.0624552
0.777234 0.0728313 0.0683604
0.799466 0.0765393 0.0742504
0.820554 0.0800946 0.0796979
0.841138 0.0838483 0.0853132
0.860883 0.087541 0.0906081
0.00988785 0.0568093 0.0202792
0.00996414 0.0581979 0.0210575
0.010956 0.0606241 0.0185092
0.0126345 0.0633707 0.012604
0.0247807 0.0658274 0.0129549
0.041062 0.0699474 0.0146944
0.0611887 0.0741283 0.0168154
0.0798657 0.07776 0.0183413
0.095552 0.0794537 0.0169375
0.112413 0.081178 0.0154269
0.130861 0.0834058 0.0136873
0.151064 0.0854353 0.0116579
0.174716 0.0867475 0.00929274
0.201862 0.0867323 0.00701915
0.233692 0.0858015 0.00477607
0.271183 0.0842145 0.00277714
0.315511 0.0815442 0.00123598
0.363272 0.0786297 0.00047303
0.411383 0.0755779 0.00062562
0.459541 0.0726329 0.00173953
0.50782 0.0697642 0.00381476
0.556451 0.0668803 0.00689708
0.599985 0.0646983 0.0105592
0.640604 0.0628824 0.0146792
0.677989 0.0632029 0.0212711
0.713344 0.0686809 0.032929
0.742977 0.0734264 0.0420233
0.763561 0.076936 0.0476081
0.785718 0.0806744 0.0536507
0.807034 0.0843214 0.0592813
0.827695 0.0879072 0.064622
0.847929 0.0914473 0.0697032
0.867033 0.0948196 0.074403
0.0110628 0.0739757 0.0263828
0.0112459 0.0756085 0.0268711
0.0125734 0.0786297 0.0232395
0.0142061 0.0816663 0.0178988
0.0229496 0.0842603 0.0148013
0.0407874 0.0890822 0.0166018
0.0610361 0.0937362 0.018677
0.0827039 0.097612 0.0208591
0.103685 0.101183 0.0225376
0.12372 0.102541 0.0207523
0.145617 0.103746 0.0188907
0.169894 0.105241 0.0168917
0.195148 0.106584 0.0148775
0.222431 0.108064 0.0129091
0.254353 0.108675 0.0108797
0.293202 0.108125 0.00895705
0.338323 0.106538 0.00756847
0.385306 0.104921 0.00708019
0.43299 0.102998 0.00753796
0.481147 0.100969 0.00895705
0.529885 0.0987564 0.0113527
0.577508 0.0969711 0.0146944
0.619715 0.0957961 0.0184787
0.659205 0.095079 0.0229801
0.695003 0.094667 0.0271305
0.727077 0.0949111 0.0309911
0.751873 0.0959793 0.0340887
0.771954 0.0975204 0.0366827
0.793011 0.0990311 0.0394141
0.813245 0.100832 0.0420844
0.832929 0.102739 0.0447089
0.851896 0.104509 0.0472267
0.86978 0.106569 0.0496834
0.0122835 0.0922713 0.0331273
0.0128023 0.0944991 0.0327916
0.0142061 0.0976577 0.0291447
0.0158389 0.101122 0.024445
0.0209506 0.10425 0.0169985
0.0403296 0.109468 0.0189212
0.0617533 0.115053 0.0211643
0.0822461 0.119646 0.0232853
0.107988 0.124407 0.0260471
0.134066 0.128344 0.027863
0.159701 0.129671 0.0257877
0.187228 0.131258 0.0238956
0.21622 0.132265 0.0220951
0.247593 0.133562 0.0203708
0.281758 0.135241 0.0187381
0.321279 0.136446 0.0172427
0.36434 0.136873 0.0162661
0.409262 0.137026 0.016144
0.455817 0.136568 0.016907
0.502998 0.13608 0.0186465
0.551705 0.135256 0.0214237
0.597299 0.134646 0.0249638
0.638911 0.134432 0.0290379
0.677409 0.134737 0.0335393
0.712108 0.135531 0.0375067
0.742977 0.136812 0.0411688
0.76463 0.138735 0.0439002
0.785199 0.141131 0.0465705
0.805737 0.143481 0.0492561
0.825528 0.146014 0.0518807
0.844846 0.14876 0.05449
0.863294 0.151629 0.057023
0.880461 0.154482 0.0594034
0.0138705 0.111986 0.0415045
0.0148165 0.115282 0.040238
0.0163424 0.119234 0.0369421
0.0180362 0.123461 0.0330816
0.021149 0.128862 0.0228275
0.0385748 0.134096 0.0218509
0.0599069 0.140536 0.0242313
0.0804303 0.146365 0.026566
0.108171 0.152316 0.0296788
0.139956 0.158022 0.0336614
0.172213 0.162814 0.0358434
0.203403 0.164141 0.0334325
0.235676 0.165713 0.0316167
0.271778 0.167025 0.0299687
0.312734 0.168322 0.0286107
0.355276 0.170016 0.0277256
0.396597 0.17258 0.0275273
0.438651 0.174777 0.0278935
0.482124 0.176608 0.0290379
0.527565 0.178119 0.0311437
0.574411 0.17879 0.0341802
0.616983 0.18024 0.0381781
0.65716 0.181537 0.0421759
0.694087 0.183078 0.0460975
0.727596 0.185061 0.0498207
0.756451 0.187259 0.0532082
0.776242 0.190616 0.0558633
0.79733 0.194141 0.0586709
0.817533 0.197711 0.0614023
0.837034 0.201328 0.0640879
0.856092 0.204944 0.0667277
0.874083 0.209125 0.0693523
0.888792 0.213626 0.0721294
0.0163577 0.1364 0.0523842
0.0177768 0.140871 0.0503395
0.0194553 0.145632 0.0475471
0.021561 0.151156 0.0437171
0.0252079 0.158267 0.0339666
0.035523 0.16405 0.0260166
0.0560922 0.171328 0.0283513
0.0779278 0.178378 0.0310979
0.10663 0.186053 0.0346532
0.140993 0.193027 0.0391546
0.180499 0.20029 0.0450141
0.217533 0.205478 0.0477455
0.255009 0.20679 0.0446632
0.295567 0.208728 0.0426795
0.340978 0.210132 0.0412604
0.386267 0.212451 0.04094
0.429801 0.215106 0.0414282
0.472114 0.218662 0.042649
0.513924 0.222797 0.0445716
0.557015 0.226947 0.047303
0.599466 0.230732 0.0509346
0.638834 0.234394 0.0544747
0.676585 0.237903 0.0581369
0.71136 0.241489 0.0617533
0.743023 0.245212 0.0652476
0.768643 0.249546 0.0684215
0.788327 0.254749 0.0712444
0.808972 0.259159 0.074052
0.828779 0.264363 0.0769513
0.848249 0.269749 0.0798505
0.866865 0.274754 0.0826276
0.884291 0.280232 0.085359
0.896986 0.286381 0.0885023
0.0204471 0.166827 0.0659648
0.0221866 0.172168 0.0640574
0.024155 0.177829 0.0617685
0.0270695 0.185367 0.0577249
0.0311437 0.193759 0.0491646
0.0358587 0.202411 0.0373999
0.0501259 0.208545 0.0348058
0.0729686 0.216739 0.0371862
0.104326 0.225605 0.0413519
0.139254 0.234592 0.0464332
0.182864 0.243442 0.0532692
0.227222 0.251545 0.0611734
0.27219 0.258198 0.0654612
0.319432 0.260029 0.0614939
0.367483 0.26273 0.0598154
0.414084 0.26598 0.0597391
0.460136 0.26923 0.0607309
0.504921 0.273899 0.0630961
0.548379 0.278813 0.0656443
0.590249 0.28452 0.0685283
0.627619 0.291859 0.0717479
0.663554 0.298482 0.0749218
0.697688 0.305211 0.0784009
0.729732 0.311406 0.0818647
0.759121 0.316976 0.0851453
0.780301 0.3234 0.0881208
0.800275 0.329183 0.090898
0.820218 0.335286 0.0937972
0.83975 0.341115 0.0966506
0.858579 0.34667 0.0994125
0.87686 0.352392 0.10219
0.893706 0.358022 0.10486
0.905943 0.364355 0.107897
0.0265812 0.203861 0.0846418
0.0287175 0.210071 0.0831769
0.0310826 0.216815 0.0814679
0.035111 0.226902 0.0779431
0.0398108 0.236973 0.0712444
0.0449683 0.247074 0.0626688
0.0503548 0.256901 0.0527504
0.0690776 0.265324 0.0497749
0.0989548 0.274006 0.050721
0.137041 0.284977 0.0568551
0.18024 0.295689 0.0643626
0.230304 0.305043 0.0736858
0.284566 0.315694 0.0855421
0.340688 0.324437 0.0929122
0.391959 0.328008 0.0887312
0.440467 0.331991 0.0874952
0.487419 0.336873 0.088014
0.534157 0.342061 0.0895399
0.579995 0.346853 0.0915236
0.620691 0.352773 0.0940108
0.657221 0.359808 0.0968643
0.690394 0.36762 0.0998398
0.721141 0.37554 0.102861
0.749783 0.383429 0.105882
0.774456 0.390845 0.108751
0.792508 0.398154 0.111391
0.8121 0.404883 0.114031
0.831312 0.411673 0.116762
0.850111 0.418173 0.119493
0.868437 0.424048 0.122042
0.885908 0.43035 0.124727
0.902068 0.436332 0.127245
0.915175 0.442664 0.130022
0.0360266 0.250233 0.108507
0.0388952 0.258137 0.108293
0.0425422 0.267628 0.107805
0.0475166 0.279561 0.106584
0.0529793 0.291096 0.103075
0.058854 0.30251 0.0983749
0.0653239 0.314397 0.0923323
0.0732586 0.326589 0.0796826
0.0972 0.336126 0.073579
0.132326 0.345159 0.0715496
0.177417 0.357168 0.0800793
0.228336 0.368292 0.0905623
0.290562 0.379385 0.103731
0.355581 0.391379 0.118929
0.413809 0.401801 0.128466
0.464851 0.404974 0.122667
0.514 0.409354 0.120378
0.561135 0.414099 0.11989
0.60679 0.418616 0.120378
0.646815 0.424063 0.121935
0.683146 0.430045 0.123964
0.715785 0.4374 0.126543
0.744701 0.445289 0.129229
0.770306 0.453605 0.131991
0.788449 0.462943 0.134966
0.806455 0.471443 0.137743
0.824552 0.479667 0.140505
0.842802 0.48716 0.143145
0.860685 0.494621 0.14583
0.878141 0.50135 0.148348
0.894697 0.508049 0.150881
0.910063 0.514626 0.153368
0.923842 0.521553 0.155947
0.0502937 0.307027 0.137713
0.0540169 0.316335 0.138705
0.0592813 0.328542 0.139666
0.0654154 0.34226 0.140887
0.0717632 0.354696 0.140002
0.0787976 0.367758 0.138781
0.0866255 0.380636 0.135973
0.0950027 0.39295 0.128176
0.104585 0.405097 0.112337
0.135882 0.41416 0.103014
0.173861 0.421332 0.0989853
0.227085 0.43331 0.109209
0.291386 0.445243 0.122026
0.362951 0.457099 0.137407
0.42771 0.469139 0.152911
0.48661 0.479896 0.164904
0.537636 0.483268 0.15787
0.587213 0.486748 0.153918
0.630518 0.491661 0.152834
0.669795 0.496849 0.152987
0.70576 0.502571 0.154025
0.737621 0.509209 0.15581
0.765698 0.516503 0.157977
0.78677 0.524636 0.160571
0.8038 0.533944 0.163607
0.821118 0.543572 0.166705
0.838254 0.552941 0.169741
0.855161 0.561868 0.172641
0.871931 0.570153 0.175387
0.888258 0.577707 0.17792
0.903578 0.584802 0.180362
0.917891 0.591989 0.182879
0.930739 0.598474 0.185183
0.0711223 0.374395 0.172686
0.0756847 0.384237 0.174456
0.0824903 0.397253 0.176242
0.0890211 0.410315 0.178256
0.0955215 0.422538 0.178775
0.102617 0.435752 0.179141
0.10988 0.448417 0.177569
0.118029 0.460914 0.172183
0.127337 0.472618 0.159289
0.140871 0.484123 0.136919
0.178744 0.490471 0.130449
0.227619 0.498573 0.128634
0.29369 0.511574 0.141238
0.365454 0.523934 0.155856
0.435828 0.535195 0.171359
0.499962 0.547051 0.186923
0.559869 0.558862 0.201999
0.609781 0.561975 0.193805
0.653056 0.566018 0.189807
0.691325 0.571206 0.188281
0.725567 0.577264 0.188266
0.756878 0.583368 0.188891
0.782956 0.589654 0.190173
0.80058 0.597345 0.192584
0.818647 0.604959 0.194888
0.835859 0.61239 0.197086
0.85243 0.620737 0.199695
0.868437 0.629068 0.202304
0.883879 0.636469 0.204547
0.898665 0.643915 0.206897
0.912734 0.650965 0.20914
0.92575 0.657847 0.211398
0.93753 0.664408 0.213626
0.0962997 0.443259 0.209049
0.101488 0.453895 0.211124
0.107454 0.46595 0.213153
0.113664 0.478996 0.216007
0.120134 0.491875 0.217853
0.126925 0.505058 0.219242
0.134066 0.517998 0.21883
0.142016 0.530327 0.214511
0.151553 0.542779 0.203693
0.161807 0.553811 0.184268
0.186465 0.562341 0.165057
0.232334 0.567483 0.154803
0.298192 0.578149 0.161227
0.367956 0.590753 0.174868
0.438865 0.601953 0.189548
0.508873 0.612863 0.205219
0.572198 0.62356 0.220539
0.629068 0.634241 0.235279
0.672801 0.637751 0.230091
0.711238 0.641108 0.22536
0.744518 0.645502 0.223133
0.773846 0.650294 0.222217
0.795178 0.655558 0.222751
0.813733 0.661311 0.223911
0.832135 0.667292 0.225208
0.8495 0.673716 0.226795
0.866026 0.680369 0.228534
0.881605 0.687175 0.230365
0.896193 0.694331 0.23241
0.909743 0.701091 0.234333
0.922408 0.708186 0.2365
0.933883 0.714611 0.238499
0.944335 0.721126 0.240665
0.122408 0.514366 0.246723
0.127504 0.52491 0.248798
0.133013 0.536431 0.251194
0.138354 0.547799 0.253864
0.144518 0.560204 0.256046
0.150622 0.572106 0.257435
0.15729 0.583902 0.256886
0.164996 0.595483 0.252476
0.17435 0.607065 0.241474
0.183734 0.616876 0.224674
0.195468 0.626307 0.19472
0.244633 0.630488 0.184344
0.305165 0.636759 0.179538
0.374655 0.648463 0.192386
0.442832 0.659739 0.206058
0.514183 0.670146 0.221149
0.58265 0.679774 0.236637
0.639658 0.689632 0.250736
0.689036 0.699077 0.263661
0.728542 0.703243 0.261723
0.761761 0.705989 0.256886
0.788708 0.709621 0.254566
0.807019 0.714565 0.254719
0.826001 0.719265 0.254749
0.84445 0.723812 0.254902
0.861936 0.72874 0.255436
0.878386 0.733898 0.256245
0.893782 0.739666 0.257481
0.907729 0.745678 0.258961
0.920378 0.751522 0.260471
0.931807 0.757687 0.262242
0.942153 0.764248 0.264302
0.951308 0.769985 0.266087
0.145907 0.5785 0.280888
0.150668 0.588296 0.282673
0.155306 0.59794 0.284581
0.160311 0.608637 0.287266
0.166079 0.620401 0.289555
0.171832 0.631571 0.290913
0.178271 0.642634 0.289982
0.185931 0.653727 0.2851
0.194751 0.664195 0.274464
0.203754 0.673136 0.25832
0.214832 0.681926 0.229297
0.257877 0.686458 0.209583
0.313542 0.689082 0.196307
0.383963 0.70042 0.208835
0.451026 0.710887 0.221744
0.519341 0.721172 0.235813
0.589395 0.730495 0.250965
0.648753 0.739208 0.264836
0.698665 0.74757 0.277272
0.741817 0.755688 0.288594
0.776577 0.760204 0.289677
0.800244 0.76286 0.286259
0.81912 0.766003 0.284581
0.837827 0.770169 0.283803
0.855802 0.773785 0.282979
0.873259 0.777768 0.282597
0.88954 0.781857 0.282567
0.904524 0.786206 0.282902
0.918059 0.790448 0.283375
0.930205 0.794568 0.28394
0.940703 0.798474 0.284566
0.949981 0.802289 0.285267
0.958541 0.805829 0.285924
0.167178 0.636378 0.311574
0.171344 0.644953 0.3131
0.175341 0.653284 0.314733
0.180331 0.663966 0.317586
0.185428 0.674189 0.319387
0.190707 0.684215 0.320302
0.197208 0.695018 0.318975
0.204822 0.705348 0.3131
0.212833 0.714153 0.302373
0.22179 0.722454 0.285695
0.232883 0.730587 0.256275
0.271824 0.735088 0.230716
0.326238 0.736355 0.215244
0.394705 0.745266 0.223621
0.46247 0.755642 0.236347
0.528267 0.765011 0.249454
0.594736 0.77438 0.263584
0.654826 0.782284 0.277012
0.706706 0.78967 0.289311
0.750149 0.796536 0.30016
0.786542 0.803037 0.309667
0.810056 0.807172 0.314534
0.830014 0.808316 0.310567
0.848844 0.809644 0.307408
0.86656 0.811719 0.305272
0.883284 0.813336 0.303258
0.899168 0.815259 0.301762
0.913725 0.817624 0.300862
0.926757 0.820569 0.300603
0.938262 0.823835 0.30071
0.948241 0.827543 0.301305
0.957076 0.83122 0.301976
0.965576 0.83537 0.302922
0.185885 0.687465 0.338872
0.189425 0.694667 0.339986
0.192935 0.701854 0.341299
0.197757 0.712032 0.343923
0.202564 0.721614 0.345556
0.207706 0.730922 0.345754
0.213993 0.740642 0.343328
0.221317 0.749538 0.336004
0.228595 0.756817 0.325185
0.23711 0.76318 0.306737
0.248051 0.769558 0.274678
0.285924 0.772732 0.246265
0.340414 0.772305 0.230121
0.407797 0.778683 0.235538
0.476356 0.787884 0.247974
0.54165 0.795987 0.260563
0.603861 0.803952 0.273411
0.660838 0.811582 0.285969
0.713619 0.818097 0.298039
0.758282 0.824552 0.308873
0.792447 0.82977 0.317494
0.815442 0.834363 0.323674
0.839109 0.839078 0.330083
0.858457 0.840482 0.326421
0.876417 0.842008 0.323537
0.892958 0.84445 0.321813
0.90808 0.846723 0.320409
0.922072 0.849302 0.319539
0.934524 0.851713 0.318898
0.945556 0.854871 0.31899
0.954955 0.858091 0.319341
0.963851 0.861067 0.3196
0.970352 0.865309 0.32076
0.201282 0.729473 0.361379
0.203876 0.734264 0.361456
0.20708 0.740429 0.362158
0.210849 0.747723 0.363272
0.214832 0.755047 0.363699
0.219791 0.763317 0.362875
0.225834 0.771756 0.359091
0.232853 0.779706 0.351125
0.239963 0.786175 0.339452
0.248875 0.79263 0.319707
0.260441 0.799146 0.285069
0.300404 0.802121 0.257572
0.354452 0.801602 0.24152
0.422034 0.808591 0.246723
0.490532 0.817136 0.2589
0.555886 0.825681 0.27155
0.614328 0.833585 0.283619
0.667918 0.840864 0.295293
0.718379 0.847242 0.306645
0.763653 0.853193 0.317311
0.795865 0.858015 0.325292
0.819974 0.862455 0.331579
0.843793 0.866728 0.337835
0.866346 0.870909 0.343847
0.885374 0.873213 0.343008
0.901915 0.874784 0.340398
0.916762 0.876844 0.338689
0.929946 0.879011 0.33753
0.941604 0.881682 0.337057
0.951888 0.884672 0.337072
0.961273 0.887266 0.337026
0.970153 0.890318 0.337316
0.974441 0.894057 0.338338
0.212497 0.760052 0.377905
0.214969 0.764553 0.37789
0.218616 0.77171 0.379004
0.222538 0.779553 0.380468
0.226551 0.786892 0.380865
0.231662 0.794995 0.379446
0.237842 0.803296 0.375036
0.244526 0.810544 0.366964
0.251942 0.81709 0.354437
0.261204 0.823407 0.33315
0.273136 0.829465 0.295735
0.314839 0.832456 0.269383
0.368719 0.831785 0.25333
0.436179 0.837995 0.257816
0.504662 0.84625 0.269886
0.569894 0.854353 0.282307
0.626062 0.861784 0.293797
0.676783 0.868864 0.304753
0.724041 0.87512 0.315282
0.767636 0.880766 0.325322
0.798047 0.884688 0.332586
0.824002 0.889006 0.339147
0.848188 0.893233 0.345388
0.870527 0.897368 0.351263
0.891752 0.901381 0.356939
0.910002 0.904402 0.359152
0.924666 0.905959 0.356893
0.937377 0.908034 0.355596
0.948302 0.910384 0.35494
0.957916 0.913008 0.354742
0.967163 0.915175 0.354376
0.975906 0.918013 0.354528
0.978408 0.921752 0.355673
0.224063 0.791592 0.394995
0.226505 0.796002 0.394934
0.230426 0.803815 0.396384
0.234134 0.81117 0.397726
0.238361 0.818753 0.39791
0.243626 0.826871 0.396124
0.249866 0.834653 0.390707
0.256138 0.841062 0.382483
0.263752 0.847272 0.36878
0.273381 0.853239 0.345449
0.285649 0.859236 0.306081
0.328954 0.861158 0.280522
0.382727 0.8598 0.264118
0.450919 0.865843 0.268681
0.519341 0.873823 0.280629
0.583047 0.881544 0.292607
0.63769 0.888685 0.303639
0.68687 0.895399 0.314107
0.731258 0.901427 0.323903
0.771634 0.906813 0.333104
0.799619 0.910552 0.339712
0.826902 0.914488 0.346365
0.851926 0.918166 0.352575
0.874678 0.922042 0.358434
0.895506 0.926055 0.363958
0.914504 0.929549 0.369009
0.931365 0.933165 0.373648
0.944076 0.935149 0.37293
0.954482 0.93698 0.371923
0.963897 0.939101 0.371359
0.972869 0.941421 0.371069
0.981186 0.943343 0.370687
0.982025 0.946883 0.371817
0.235431 0.82269 0.411963
0.238407 0.828336 0.412451
0.242069 0.835569 0.413687
0.245594 0.842435 0.414816
0.249989 0.850034 0.414694
0.255161 0.857435 0.412039
0.261097 0.864256 0.405982
0.267399 0.870375 0.397284
0.275212 0.876234 0.3823
0.285298 0.881819 0.356451
0.297749 0.887556 0.315236
0.342855 0.888441 0.291005
0.396979 0.8869 0.274342
0.465614 0.892515 0.279194
0.534371 0.900236 0.291051
0.59556 0.907393 0.302434
0.649134 0.913939 0.313069
0.6972 0.920104 0.32311
0.739651 0.925933 0.332433
0.775814 0.930617 0.340536
0.801572 0.934371 0.346624
0.828901 0.938094 0.353109
0.854978 0.941268 0.35935
0.878355 0.945037 0.365255
0.899153 0.948348 0.370565
0.917723 0.951675 0.375433
0.93402 0.954925 0.379843
0.948028 0.957916 0.383703
0.959777 0.960952 0.387091
0.969512 0.962768 0.386725
0.978225 0.964385 0.385977
0.984939 0.966415 0.385733
0.985321 0.969543 0.386679
0.246723 0.85362 0.428931
0.249943 0.85977 0.429633
0.253178 0.865904 0.430381
0.256687 0.872648 0.431373
0.261006 0.879561 0.430518
0.266148 0.886442 0.427131
0.271778 0.892485 0.420829
0.278202 0.898146 0.411048
0.286198 0.903487 0.394491
0.296727 0.90869 0.366018
0.309117 0.913466 0.322316
0.356802 0.913603 0.300404
0.411521 0.911223 0.282994
0.480659 0.917006 0.289174
0.54934 0.9243 0.300893
0.608118 0.930846 0.311727
0.66067 0.936919 0.322011
0.707347 0.942565 0.331624
0.74847 0.947646 0.340444
0.77998 0.95201 0.347524
0.804685 0.95552 0.353277
0.830991 0.958999 0.359411
0.857267 0.962173 0.365591
0.881331 0.965347 0.371435
0.902586 0.968231 0.376699
0.920775 0.97116 0.381384
0.936416 0.974029 0.385534
0.949828 0.97673 0.389197
0.961791 0.979263 0.392508
0.972946 0.981659 0.395605
0.982864 0.984192 0.398444
0.987839 0.986236 0.398871
0.988052 0.988052 0.399359
0.257481 0.883055 0.445212
0.260563 0.888747 0.445655
0.263706 0.894728 0.446433
0.267262 0.901259 0.447105
0.271458 0.907454 0.445502
0.276493 0.913512 0.441154
0.281697 0.918379 0.434241
0.288182 0.923384 0.423194
0.296513 0.928176 0.404425
0.307271 0.932769 0.373526
0.319829 0.937179 0.327443
0.371069 0.936156 0.308431
0.425956 0.933089 0.290394
0.496742 0.938857 0.298665
0.56376 0.945663 0.310033
0.620768 0.95169 0.320455
0.672129 0.957046 0.330312
0.717449 0.962234 0.339529
0.757061 0.966827 0.347875
0.784115 0.970367 0.353918
0.808759 0.97377 0.359564
0.834134 0.976883 0.365347
