public/images/Fine Arts Cadres /TC_-_EDITING_ESSENTIALS_-_COLOR/TC - ATLANTA - LOG TO LOOK - 2.cube
TITLE "Generated by Resolve"
LUT_3D_SIZE 5
0.00619516 0.00619516 0.00619516
0.0599985 0.00184634 0.00358587
0.204303 0 0.00195315
0.547662 0.0218814 0.0623636
0.778683 0.0656901 0.119539
0.0122835 0.0922713 0.0331273
0.107988 0.124407 0.0260471
0.36434 0.136873 0.0162661
0.712108 0.135531 0.0375067
0.880461 0.154482 0.0594034
0.0962997 0.443259 0.209049
0.151553 0.542779 0.203693
0.572198 0.62356 0.220539
0.832135 0.667292 0.225208
0.944335 0.721126 0.240665
0.235431 0.82269 0.411963
0.275212 0.876234 0.3823
0.649134 0.913939 0.313069
0.899153 0.948348 0.370565
0.985321 0.969543 0.386679
0.303273 0.962402 0.517861
0.343801 0.964843 0.427512
0.738445 0.978058 0.37261
0.921416 0.98677 0.411414
0.990539 0.990524 0.432135
0.0043946 0 0.0602274
0.0670329 0.00291447 0.0638437
0.240543 0 0.0677348
0.596002 0.0288701 0.109758
0.80795 0.0686046 0.149096
0.0149691 0.0991379 0.0995346
0.0870527 0.127245 0.130053
0.429603 0.113191 0.101335
0.757687 0.110979 0.105028
0.884459 0.137224 0.116045
0.109026 0.492943 0.301946
0.1523 0.56759 0.303365
0.566217 0.645457 0.251072
0.835691 0.689845 0.280461
0.954665 0.730053 0.289631
0.227176 0.832227 0.50251
0.260777 0.872557 0.498283
0.610025 0.920501 0.370138
0.887465 0.946212 0.411521
0.987762 0.961196 0.434882
0.28513 0.962402 0.637675
0.326223 0.965698 0.608484
0.653773 0.982162 0.464881
0.888792 0.992477 0.503456
0.995193 1 0.568154
0.013611 0 0.232547
0.0722667 0 0.198749
0.246265 0.000183108 0.252689
0.621378 0.0358129 0.288777
0.825864 0.0728008 0.297688
0 0.0176089 0.320607
0 0 0.396094
0.417365 0.0237278 0.434562
0.764523 0.0790265 0.447318
0.885588 0.110185 0.427802
0.138766 0.526024 0.525826
0.160723 0.564965 0.556146
0.522667 0.647898 0.647868
0.881102 0.665705 0.631174
0.973098 0.695628 0.608637
0.240009 0.821286 0.720012
0.263066 0.847272 0.730694
0.559365 0.912764 0.720134
0.889891 0.943603 0.758587
1 0.953918 0.753185
0.289189 0.959915 0.816739
0.32491 0.968292 0.806775
0.634256 0.996109 0.784634
0.90248 1 0.822354
1 1 0.846586
0.0785687 0 0.506523
0.108522 0 0.457404
0.250828 0 0.501778
0.612772 0.0551461 0.589471
0.820035 0.0827802 0.618921
0 0 0.606531
0.0652018 0 0.624842
0.414008 0 0.650675
0.760601 0.0939345 0.717662
0.891173 0.120043 0.731868
0 0.528389 0.679408
0 0.553002 0.71751
0.384726 0.563287 0.847608
0.87013 0.626612 0.873594
0.974426 0.651545 0.864485
0.249363 0.820844 0.822324
0.26511 0.84033 0.833722
0.456046 0.893126 0.873381
0.875578 0.935485 0.930144
1 0.941176 0.928267
0.294057 0.945464 0.897963
0.32639 0.95462 0.899367
0.621576 0.994278 0.921584
0.904005 1 0.955276
1 1 0.976272
0.116304 0 0.650095
0.146105 0 0.61146
0.270649 0 0.628229
0.60914 0.0150454 0.708949
0.814679 0.0962387 0.763119
0.00924697 0 0.737804
0.0991226 0 0.753964
0.425772 0 0.764263
0.754269 0.078172 0.823148
0.894148 0.128985 0.85127
0 0.522805 0.780453
0 0.55169 0.80972
0.326131 0.535836 0.913619
0.846647 0.602975 0.958343
0.975219 0.647684 0.97052
0.158175 0.803891 0.860136
0.199023 0.845594 0.890303
0.306905 0.859373 0.916854
0.833478 0.913298 0.997574
1 0.93257 1
0.297734 0.944411 0.934676
0.315618 0.952911 0.940749
0.535332 0.982498 0.968917
0.874128 1 1
1 1 1
