public/images/Fine Arts Cadres /TC_-_EDITING_ESSENTIALS_-_COLOR/TC - BARBIE - LOOK1 - LOG TO LOOK - STANDARD.cube
TITLE "Generated by Resolve"
LUT_3D_SIZE 33
0.00682078 0.0149233 0.0161288
0.00682078 0.0149233 0.0161288
0.0296025 0.0240482 0.0202792
0.0608225 0.0343023 0.0233158
0.0879377 0.0425422 0.0259098
0.110872 0.0460365 0.0295262
0.13698 0.0489509 0.034699
0.170214 0.052079 0.0418097
0.210101 0.05626 0.05037
0.267826 0.0658885 0.0628519
0.343328 0.0827039 0.0792706
0.441978 0.106783 0.100969
0.54757 0.132387 0.124727
0.64535 0.156191 0.146563
0.691417 0.167529 0.156542
0.691417 0.167529 0.156542
0.691417 0.167529 0.156542
0.691417 0.167529 0.156542
0.691417 0.167529 0.156542
0.691417 0.167529 0.156542
0.691417 0.167529 0.156542
0.691417 0.167529 0.156542
0.691417 0.167529 0.156542
0.691417 0.167529 0.156542
0.691417 0.167529 0.156542
0.691417 0.167529 0.156542
0.691417 0.167529 0.156542
0.691417 0.167529 0.156542
0.691417 0.167529 0.156542
0.691417 0.167529 0.156542
0.691417 0.167529 0.156542
0.691417 0.167529 0.156542
0.691417 0.167529 0.156542
0.00682078 0.0149233 0.0161288
0.00682078 0.0149233 0.0161288
0.016556 0.0195468 0.0186923
0.0513619 0.0311131 0.0224765
0.0796216 0.0400549 0.0247654
0.104295 0.0451972 0.0283818
0.130922 0.0484627 0.033463
0.166232 0.0517891 0.0409705
0.20679 0.0558328 0.0496529
0.264973 0.0653239 0.0622416
0.340551 0.0820325 0.0786603
0.439551 0.106188 0.100435
0.545785 0.13196 0.124331
0.643824 0.15581 0.146227
0.691417 0.167529 0.156542
0.691417 0.167529 0.156542
0.691417 0.167529 0.156542
0.691417 0.167529 0.156542
0.691417 0.167529 0.156542
0.691417 0.167529 0.156542
0.691417 0.167529 0.156542
0.691417 0.167529 0.156542
0.691417 0.167529 0.156542
0.691417 0.167529 0.156542
0.691417 0.167529 0.156542
0.691417 0.167529 0.156542
0.691417 0.167529 0.156542
0.691417 0.167529 0.156542
0.691417 0.167529 0.156542
0.691417 0.167529 0.156542
0.691417 0.167529 0.156542
0.691417 0.167529 0.156542
0.691417 0.167529 0.156542
0.00682078 0.0149233 0.0161288
0.00682078 0.0149233 0.0161288
0.00682078 0.0149233 0.0161288
0.0340276 0.0254368 0.0206302
0.0659342 0.0358892 0.0235447
0.0929274 0.0438239 0.0266728
0.120134 0.0472877 0.031281
0.155871 0.0507515 0.0387427
0.196353 0.054612 0.0474098
0.255238 0.0634775 0.0601205
0.332784 0.0801862 0.0769665
0.436393 0.105425 0.099733
0.543114 0.131319 0.123735
0.641627 0.155276 0.145754
0.691417 0.167529 0.156542
0.691417 0.167529 0.156542
0.691417 0.167529 0.156542
0.691417 0.167529 0.156542
0.691417 0.167529 0.156542
0.691417 0.167529 0.156542
0.691417 0.167529 0.156542
0.691417 0.167529 0.156542
0.691417 0.167529 0.156542
0.691417 0.167529 0.156542
0.691417 0.167529 0.156542
0.691417 0.167529 0.156542
0.691417 0.167529 0.156542
0.691417 0.167529 0.156542
0.691417 0.167529 0.156542
0.691417 0.167529 0.156542
0.691417 0.167529 0.156542
0.691417 0.167529 0.156542
0.691417 0.167529 0.156542
0.00889601 0.0215305 0.0201724
0.00869764 0.0209812 0.0198215
0.00834669 0.0200046 0.0192264
0.0122072 0.0196841 0.0188602
0.0520485 0.0313726 0.0226291
0.0790417 0.0398718 0.0247044
0.107515 0.0456092 0.0289311
0.142443 0.049424 0.0358434
0.185077 0.0533761 0.0449836
0.242145 0.0611429 0.0572824
0.319722 0.0771344 0.0741283
0.422782 0.102113 0.0966964
0.535119 0.129366 0.121935
0.639429 0.154742 0.145266
0.691417 0.167529 0.156542
0.691417 0.167529 0.156542
0.691417 0.167529 0.156542
0.691417 0.167529 0.156542
0.691417 0.167529 0.156542
0.691417 0.167529 0.156542
0.691417 0.167529 0.156542
0.691417 0.167529 0.156542
0.691417 0.167529 0.156542
0.691417 0.167529 0.156542
0.691417 0.167529 0.156542
0.691417 0.167529 0.156542
0.691417 0.167529 0.156542
0.691417 0.167529 0.156542
0.691417 0.167529 0.156542
0.691417 0.167529 0.156542
0.691417 0.167529 0.156542
0.691417 0.167529 0.156542
0.691417 0.167529 0.156542
0.0154574 0.0392157 0.0313268
0.0152438 0.0386664 0.0309758
0.0149386 0.0378424 0.030457
0.0144198 0.0364691 0.029572
0.0301823 0.0414282 0.0307164
0.0734264 0.0479438 0.0294804
0.102251 0.0526589 0.0309606
0.132525 0.0526741 0.0345464
0.171939 0.0522011 0.0421759
0.226474 0.0585946 0.0538949
0.304265 0.0736095 0.0707713
0.407187 0.0982986 0.0932479
0.522103 0.126223 0.119005
0.628397 0.152041 0.142824
0.691417 0.167529 0.156542
0.691417 0.167529 0.156542
0.691417 0.167529 0.156542
0.691417 0.167529 0.156542
0.691417 0.167529 0.156542
0.691417 0.167529 0.156542
0.691417 0.167529 0.156542
0.691417 0.167529 0.156542
0.691417 0.167529 0.156542
0.691417 0.167529 0.156542
0.691417 0.167529 0.156542
0.691417 0.167529 0.156542
0.691417 0.167529 0.156542
0.691417 0.167529 0.156542
0.691417 0.167529 0.156542
0.691417 0.167529 0.156542
0.691417 0.167529 0.156542
0.691417 0.167529 0.156542
0.691417 0.167529 0.156542
0.0221408 0.0567636 0.0415808
0.021912 0.0561837 0.0412909
0.0216983 0.0556039 0.0410163
0.0211948 0.0542916 0.0403754
0.0204166 0.0522469 0.0393835
0.0521706 0.0616465 0.0408179
0.102159 0.0666819 0.037995
0.135836 0.0681315 0.0392004
0.175891 0.0664836 0.0451362
0.220661 0.0630198 0.0533761
0.288121 0.0700694 0.0672618
0.389487 0.0939803 0.0893568
0.50486 0.122042 0.115114
0.614466 0.148638 0.139757
0.691417 0.167529 0.156542
0.691417 0.167529 0.156542
0.691417 0.167529 0.156542
0.691417 0.167529 0.156542
0.691417 0.167529 0.156542
0.691417 0.167529 0.156542
0.691417 0.167529 0.156542
0.691417 0.167529 0.156542
0.691417 0.167529 0.156542
0.691417 0.167529 0.156542
0.691417 0.167529 0.156542
0.691417 0.167529 0.156542
0.691417 0.167529 0.156542
0.691417 0.167529 0.156542
0.691417 0.167529 0.156542
0.691417 0.167529 0.156542
0.691417 0.167529 0.156542
0.691417 0.167529 0.156542
0.691417 0.167529 0.156542
0.0295567 0.0762188 0.0511788
0.0293889 0.0757763 0.0509651
0.02916 0.0751965 0.0506752
0.0288396 0.0743267 0.050248
0.0282292 0.0727398 0.0494545
0.027985 0.0717021 0.0487526
0.074876 0.0854505 0.0474861
0.136309 0.08748 0.0463264
0.179965 0.0848707 0.0494392
0.226307 0.0801556 0.0570687
0.29044 0.0777447 0.0690166
0.374075 0.0901961 0.0861219
0.482506 0.116625 0.110063
0.59443 0.143755 0.135302
0.691417 0.167529 0.156542
0.691417 0.167529 0.156542
0.691417 0.167529 0.156542
0.691417 0.167529 0.156542
0.691417 0.167529 0.156542
0.691417 0.167529 0.156542
0.691417 0.167529 0.156542
0.691417 0.167529 0.156542
0.691417 0.167529 0.156542
0.691417 0.167529 0.156542
0.691417 0.167529 0.156542
0.691417 0.167529 0.156542
0.691417 0.167529 0.156542
0.691417 0.167529 0.156542
0.691417 0.167529 0.156542
0.691417 0.167529 0.156542
0.691417 0.167529 0.156542
0.691417 0.167529 0.156542
0.691417 0.167529 0.156542
0.0380102 0.0983139 0.0620737
0.0379187 0.0980545 0.0619364
0.0377203 0.0975357 0.0616922
0.0375677 0.0971389 0.0614939
0.0371557 0.0960861 0.0609751
0.0365606 0.0944991 0.0602121
0.0391089 0.0977188 0.0597238
0.105318 0.116213 0.0525978
0.176776 0.114824 0.0569162
0.23006 0.108644 0.0630961
0.295674 0.0995041 0.0733959
0.379767 0.097734 0.0888838
0.475013 0.114733 0.108629
0.570184 0.137881 0.129824
0.674693 0.163424 0.15288
0.691417 0.167529 0.156542
0.691417 0.167529 0.156542
0.691417 0.167529 0.156542
0.691417 0.167529 0.156542
0.691417 0.167529 0.156542
0.691417 0.167529 0.156542
0.691417 0.167529 0.156542
0.691417 0.167529 0.156542
0.691417 0.167529 0.156542
0.691417 0.167529 0.156542
0.691417 0.167529 0.156542
0.691417 0.167529 0.156542
0.691417 0.167529 0.156542
0.691417 0.167529 0.156542
0.691417 0.167529 0.156542
0.691417 0.167529 0.156542
0.691417 0.167529 0.156542
0.691417 0.167529 0.156542
0.0478218 0.123903 0.0746471
0.047715 0.123629 0.0745098
0.0475624 0.123217 0.0742962
0.0474098 0.122805 0.0740826
0.0471962 0.122271 0.0738079
0.0467842 0.121187 0.0732586
0.0460212 0.119219 0.0722972
0.0510872 0.126833 0.068925
0.143313 0.151781 0.0655375
0.228473 0.146532 0.0718395
0.296498 0.137591 0.0806744
0.380774 0.125887 0.0936294
0.478645 0.124788 0.111696
0.581643 0.141039 0.13283
0.668406 0.161837 0.15172
0.695109 0.168383 0.157549
0.691417 0.167529 0.156542
0.691417 0.167529 0.156542
0.691417 0.167529 0.156542
0.691417 0.167529 0.156542
0.691417 0.167529 0.156542
0.691417 0.167529 0.156542
0.691417 0.167529 0.156542
0.691417 0.167529 0.156542
0.691417 0.167529 0.156542
0.691417 0.167529 0.156542
0.691417 0.167529 0.156542
0.691417 0.167529 0.156542
0.691417 0.167529 0.156542
0.691417 0.167529 0.156542
0.691417 0.167529 0.156542
0.691417 0.167529 0.156542
0.691417 0.167529 0.156542
0.0601205 0.155917 0.0910506
0.0600748 0.155779 0.0909743
0.0599222 0.155367 0.0907607
0.0598154 0.155093 0.0906233
0.0596628 0.154696 0.090425
0.0594492 0.154147 0.090135
0.0589761 0.152926 0.0895094
0.0580453 0.1505 0.0882582
0.0627451 0.159884 0.0773938
0.183825 0.193149 0.0812543
0.288365 0.185534 0.0908064
0.378775 0.173342 0.102312
0.476066 0.161028 0.117281
0.581689 0.158923 0.136629
0.676875 0.168948 0.155673
0.736721 0.17995 0.169955
0.725948 0.175463 0.166552
0.711727 0.172 0.162478
0.696345 0.168658 0.1579
0.691417 0.167529 0.156542
0.691417 0.167529 0.156542
0.691417 0.167529 0.156542
0.691417 0.167529 0.156542
0.691417 0.167529 0.156542
0.691417 0.167529 0.156542
0.691417 0.167529 0.156542
0.691417 0.167529 0.156542
0.691417 0.167529 0.156542
0.691417 0.167529 0.156542
0.691417 0.167529 0.156542
0.691417 0.167529 0.156542
0.691417 0.167529 0.156542
0.691417 0.167529 0.156542
0.0762036 0.197818 0.110903
0.0760815 0.197482 0.11078
0.0759442 0.197147 0.110658
0.0758221 0.196796 0.110521
0.0756237 0.196292 0.110338
0.0754864 0.195941 0.110216
0.075227 0.19527 0.109957
0.0746471 0.193729 0.109407
0.0734417 0.1906 0.108095
0.081529 0.205737 0.0852674
0.236408 0.245869 0.102861
0.366659 0.236973 0.115709
0.467155 0.222416 0.127825
0.570855 0.207828 0.143069
0.672984 0.200015 0.16054
0.762097 0.207767 0.179477
0.763287 0.201541 0.179049
0.756832 0.194095 0.17673
0.748562 0.187091 0.173877
0.738216 0.180728 0.170443
0.728847 0.176471 0.167437
0.719249 0.173678 0.164599
0.710628 0.171771 0.162142
0.703624 0.17026 0.160037
0.697444 0.168902 0.158221
0.692927 0.16788 0.156954
0.691417 0.167529 0.156542
0.691417 0.167529 0.156542
0.691417 0.167529 0.156542
0.691417 0.167529 0.156542
0.691417 0.167529 0.156542
0.691417 0.167529 0.156542
0.691417 0.167529 0.156542
0.100343 0.26099 0.133455
0.100191 0.260609 0.133333
0.100053 0.260243 0.133196
0.0999008 0.259861 0.133074
0.0997635 0.25948 0.132952
0.0996109 0.259098 0.132815
0.0993973 0.258534 0.132631
0.0990311 0.257588 0.132311
0.0983902 0.255894 0.131731
0.0969406 0.25211 0.130465
0.120836 0.272084 0.105379
0.299351 0.315145 0.13138
0.442985 0.302617 0.144167
0.55024 0.285023 0.155718
0.656306 0.26659 0.16968
0.751415 0.25658 0.185031
0.790433 0.255268 0.19237
0.786923 0.24506 0.190021
0.782574 0.234852 0.187625
0.77789 0.224506 0.185183
0.773648 0.215808 0.183093
0.769543 0.209751 0.18143
0.766033 0.205035 0.180072
0.763287 0.201541 0.179049
0.760861 0.198611 0.178149
0.759106 0.196597 0.177523
0.757977 0.195331 0.177127
0.757137 0.19443 0.176822
0.75668 0.193942 0.176669
0.756451 0.193698 0.176593
0.756146 0.193378 0.176486
0.75584 0.193057 0.176379
0.755398 0.192584 0.176226
0.129107 0.336355 0.1579
0.12903 0.336126 0.157839
0.128862 0.335698 0.157717
0.128695 0.335256 0.157595
0.128603 0.335027 0.157519
0.12845 0.33463 0.157397
0.128222 0.334035 0.157198
0.127916 0.333242 0.156939
0.127535 0.332235 0.156619
0.126619 0.329839 0.15584
0.125246 0.326253 0.154665
0.185657 0.356405 0.138247
0.3673 0.395132 0.163989
0.517555 0.37998 0.17586
0.630426 0.35729 0.185794
0.729397 0.337072 0.197223
0.807721 0.330861 0.209628
0.805508 0.318898 0.206867
0.803311 0.307164 0.204181
0.801038 0.295125 0.20148
0.798596 0.28452 0.199084
0.796674 0.27744 0.197436
0.795071 0.271611 0.196109
0.793881 0.267323 0.195117
0.792813 0.263554 0.194263
0.79202 0.260761 0.193622
0.791531 0.259068 0.19324
0.79118 0.257847 0.192966
0.790967 0.257084 0.192782
0.790829 0.256626 0.192691
0.790753 0.256321 0.192615
0.790616 0.255879 0.192508
0.790433 0.255268 0.19237
0.160967 0.419852 0.182437
0.160891 0.419623 0.182376
0.1608 0.419409 0.1823
0.160723 0.419196 0.182239
0.160555 0.418753 0.182116
0.160388 0.418311 0.181979
0.16022 0.417868 0.181857
0.15996 0.417212 0.181674
0.159625 0.416327 0.181415
0.159045 0.414786 0.180972
0.157702 0.411276 0.17995
0.157305 0.410483 0.167514
0.271733 0.448737 0.175875
0.437201 0.475959 0.19707
0.585962 0.456779 0.206821
0.702022 0.429541 0.214939
0.791745 0.413657 0.224918
0.818341 0.40647 0.227543
0.816968 0.395193 0.224796
0.815366 0.383474 0.221942
0.813779 0.371832 0.21915
0.812772 0.364569 0.217441
0.811933 0.358404 0.215991
0.811292 0.353765 0.214923
0.810742 0.349767 0.214008
0.810346 0.346838 0.213336
0.810086 0.344961 0.212909
0.809918 0.343709 0.212619
0.809796 0.34287 0.212436
0.80975 0.342458 0.212329
0.809689 0.342046 0.212238
0.809628 0.341619 0.212146
0.809522 0.340795 0.211963
0.193744 0.505653 0.207736
0.193744 0.505653 0.207736
0.193561 0.50518 0.207599
0.193469 0.504952 0.207523
0.193378 0.504707 0.207446
0.193194 0.504234 0.207309
0.193011 0.503761 0.207156
0.192828 0.503288 0.207019
0.192477 0.502342 0.206729
0.191928 0.500923 0.206287
0.191302 0.499275 0.205783
0.189303 0.494057 0.204211
0.195727 0.498711 0.191287
0.345113 0.533135 0.210178
0.503502 0.55256 0.228428
0.651759 0.533562 0.237629
0.76347 0.502571 0.243198
0.829389 0.495232 0.250675
0.827985 0.484169 0.247654
0.826581 0.473136 0.244678
0.825208 0.46215 0.241749
0.824353 0.455222 0.239933
0.823682 0.449866 0.238529
0.823194 0.445945 0.237507
0.822782 0.442679 0.236667
0.822461 0.44007 0.235996
0.822278 0.438544 0.235599
0.82211 0.437247 0.235264
0.822034 0.436591 0.235096
0.822003 0.436377 0.23505
0.821958 0.43595 0.234928
0.821897 0.435508 0.234821
0.82182 0.434867 0.234653
0.228016 0.595361 0.235203
0.227909 0.595102 0.235126
0.227817 0.594858 0.235035
0.227726 0.594598 0.234958
0.227619 0.594339 0.234882
0.227527 0.594079 0.234791
0.227329 0.593576 0.234638
0.227131 0.593057 0.23447
0.226734 0.592035 0.23415
0.226352 0.591012 0.233814
0.225666 0.589212 0.233249
0.224094 0.585107 0.231952
0.221836 0.579202 0.230106
0.253025 0.58854 0.2262
0.419211 0.613657 0.243244
0.57409 0.626047 0.259113
0.710735 0.603006 0.265568
0.816739 0.572732 0.269886
0.839155 0.565057 0.270695
0.83772 0.555611 0.267903
0.836393 0.546227 0.265156
0.835477 0.539773 0.263279
0.834913 0.535836 0.26215
0.83447 0.532708 0.26125
0.834104 0.530007 0.260471
0.833844 0.528145 0.259937
0.833661 0.526894 0.259571
0.833524 0.525856 0.259281
0.833463 0.525444 0.259159
0.833402 0.525032 0.259037
0.833371 0.524834 0.258991
0.833341 0.52462 0.25893
0.833249 0.523995 0.258747
0.262898 0.686625 0.265599
0.262791 0.686366 0.265507
0.262699 0.686107 0.265415
0.262592 0.685847 0.265324
0.262501 0.685588 0.265232
0.262394 0.685313 0.265141
0.262303 0.685054 0.265049
0.261997 0.684276 0.264775
0.261799 0.683757 0.264607
0.261295 0.682445 0.264149
0.2607 0.680873 0.2636
0.259892 0.678782 0.262882
0.257801 0.673274 0.26099
0.258167 0.673625 0.259129
0.3393 0.675578 0.261479
0.494285 0.685222 0.273289
0.640558 0.690944 0.286595
0.763287 0.664393 0.290379
0.852628 0.641138 0.294087
0.849943 0.627634 0.28983
0.848127 0.618524 0.286961
0.846845 0.612055 0.284932
0.846311 0.608804 0.283925
0.845899 0.606378 0.283177
0.845533 0.604135 0.28249
0.845273 0.602518 0.282002
0.845106 0.601495 0.281697
0.844999 0.600885 0.281498
0.844938 0.600488 0.281376
0.844907 0.600275 0.281315
0.844862 0.600076 0.281254
0.8448 0.59968 0.281132
0.844739 0.599268 0.28101
0.298695 0.78027 0.299489
0.298695 0.78027 0.299489
0.298573 0.779965 0.299367
0.298466 0.77966 0.29926
0.298344 0.779355 0.299138
0.298222 0.779049 0.299031
0.298116 0.778729 0.298909
0.297871 0.778119 0.29868
0.29752 0.777203 0.298344
0.297169 0.776272 0.297993
0.296483 0.774487 0.297337
0.295735 0.772549 0.29662
0.294575 0.769497 0.295476
0.291066 0.760327 0.292088
0.299199 0.755215 0.289433
0.413077 0.747951 0.291157
0.567239 0.747112 0.299901
0.705913 0.747402 0.311208
0.811276 0.715999 0.311772
0.865156 0.696757 0.312032
0.861799 0.68275 0.307454
0.859693 0.673884 0.30457
0.859052 0.671214 0.3037
0.858595 0.669261 0.303075
0.858213 0.667674 0.302556
0.857923 0.666438 0.302159
0.857755 0.665721 0.30193
0.857633 0.665187 0.301747
0.857542 0.664836 0.30164
0.857496 0.664652 0.301579
0.857466 0.664485 0.301518
0.85742 0.664302 0.301472
0.857374 0.664134 0.301411
0.326619 0.853254 0.327001
0.326619 0.853254 0.327001
0.326619 0.853254 0.327001
0.326619 0.853254 0.327001
0.326619 0.853254 0.327001
0.326619 0.853254 0.327001
0.326619 0.853254 0.327001
0.326619 0.853254 0.327001
0.326619 0.853254 0.327001
0.326619 0.853254 0.327001
0.326619 0.853254 0.327001
0.326619 0.853254 0.327001
0.326619 0.853254 0.327001
0.326619 0.853254 0.327001
0.32607 0.851606 0.32604
0.373953 0.832456 0.320485
0.499382 0.808957 0.317571
0.639582 0.799588 0.323339
0.76643 0.795102 0.332601
0.855085 0.76025 0.330632
0.878401 0.745083 0.328435
0.874556 0.731517 0.323751
0.873121 0.726452 0.322011
0.872663 0.724819 0.321462
0.872236 0.723339 0.320958
0.871962 0.722362 0.320623
0.871778 0.721706 0.320394
0.871641 0.721218 0.320226
0.871595 0.72105 0.320165
0.87155 0.720897 0.320119
0.871504 0.720729 0.320058
0.871458 0.720562 0.320012
0.871366 0.720241 0.31989
0.326619 0.853254 0.327001
0.326619 0.853254 0.327001
0.326619 0.853254 0.327001
0.326619 0.853254 0.327001
0.326619 0.853254 0.327001
0.326619 0.853254 0.327001
0.326619 0.853254 0.327001
0.326619 0.853254 0.327001
0.326619 0.853254 0.327001
0.326619 0.853254 0.327001
0.326619 0.853254 0.327001
0.326619 0.853254 0.327001
0.326619 0.853254 0.327001
0.326619 0.853254 0.327001
0.326619 0.853254 0.327001
0.338155 0.856519 0.328222
0.431449 0.846464 0.327886
0.575204 0.839414 0.332845
0.712108 0.842603 0.343755
0.822385 0.83592 0.3514
0.89221 0.802777 0.348669
0.893141 0.788128 0.34403
0.889296 0.777676 0.340154
0.888777 0.776165 0.339605
0.88838 0.77496 0.339162
0.88806 0.77406 0.338842
0.887861 0.773465 0.338628
0.887709 0.773007 0.33846
0.887663 0.772854 0.338399
0.887602 0.772702 0.338354
0.887556 0.772549 0.338293
0.887495 0.772412 0.338231
0.887404 0.772107 0.338125
0.326619 0.853254 0.327001
0.326619 0.853254 0.327001
0.326619 0.853254 0.327001
0.326619 0.853254 0.327001
0.326619 0.853254 0.327001
0.326619 0.853254 0.327001
0.326619 0.853254 0.327001
0.326619 0.853254 0.327001
0.326619 0.853254 0.327001
0.326619 0.853254 0.327001
0.326619 0.853254 0.327001
0.326619 0.853254 0.327001
0.326619 0.853254 0.327001
0.326619 0.853254 0.327001
0.326619 0.853254 0.327001
0.327245 0.854749 0.327306
0.374121 0.852552 0.327916
0.497963 0.841031 0.32903
0.638941 0.840116 0.337316
0.764111 0.844053 0.348684
0.855955 0.839506 0.355947
0.912062 0.823316 0.358236
0.912062 0.823316 0.358236
0.911757 0.822751 0.358007
0.911131 0.821607 0.357534
0.910674 0.820752 0.357183
0.910369 0.820172 0.356954
0.910216 0.819883 0.356832
0.910063 0.819608 0.356725
0.909987 0.819455 0.356664
0.909911 0.819318 0.356603
0.909834 0.819181 0.356542
0.909758 0.819028 0.356481
0.326619 0.853254 0.327001
0.326619 0.853254 0.327001
0.326619 0.853254 0.327001
0.326619 0.853254 0.327001
0.326619 0.853254 0.327001
0.326619 0.853254 0.327001
0.326619 0.853254 0.327001
0.326619 0.853254 0.327001
0.326619 0.853254 0.327001
0.326619 0.853254 0.327001
0.326619 0.853254 0.327001
0.326619 0.853254 0.327001
0.326619 0.853254 0.327001
0.326619 0.853254 0.327001
0.326619 0.853254 0.327001
0.326619 0.853254 0.327001
0.338094 0.856535 0.328222
0.431449 0.846464 0.327886
0.569665 0.83946 0.332509
0.702434 0.842237 0.34284
0.808179 0.844327 0.352804
0.87538 0.831052 0.355367
0.912062 0.823316 0.358236
0.912062 0.823316 0.358236
0.912062 0.823316 0.358236
0.912062 0.823316 0.358236
0.912062 0.823316 0.358236
0.912062 0.823316 0.358236
0.912062 0.823316 0.358236
0.912062 0.823316 0.358236
0.912062 0.823316 0.358236
0.912062 0.823316 0.358236
0.912062 0.823316 0.358236
0.326619 0.853254 0.327001
0.326619 0.853254 0.327001
0.326619 0.853254 0.327001
0.326619 0.853254 0.327001
0.326619 0.853254 0.327001
0.326619 0.853254 0.327001
0.326619 0.853254 0.327001
0.326619 0.853254 0.327001
0.326619 0.853254 0.327001
0.326619 0.853254 0.327001
0.326619 0.853254 0.327001
0.326619 0.853254 0.327001
0.326619 0.853254 0.327001
0.326619 0.853254 0.327001
0.326619 0.853254 0.327001
0.326619 0.853254 0.327001
0.328496 0.856519 0.327932
0.400702 0.849821 0.327886
0.532265 0.839796 0.330434
0.666285 0.840925 0.33959
0.778454 0.844251 0.350042
0.855161 0.839857 0.355978
0.898314 0.825437 0.356664
0.912062 0.823316 0.358236
0.912062 0.823316 0.358236
0.912062 0.823316 0.358236
0.912062 0.823316 0.358236
0.912062 0.823316 0.358236
0.912062 0.823316 0.358236
0.912062 0.823316 0.358236
0.912062 0.823316 0.358236
0.912062 0.823316 0.358236
0.912062 0.823316 0.358236
0.326619 0.853254 0.327001
0.326619 0.853254 0.327001
0.326619 0.853254 0.327001
0.326619 0.853254 0.327001
0.326619 0.853254 0.327001
0.326619 0.853254 0.327001
0.326619 0.853254 0.327001
0.326619 0.853254 0.327001
0.326619 0.853254 0.327001
0.326619 0.853254 0.327001
0.326619 0.853254 0.327001
0.326619 0.853254 0.327001
0.326619 0.853254 0.327001
0.326619 0.853254 0.327001
0.326619 0.853254 0.327001
0.326619 0.853254 0.327001
0.327123 0.854444 0.327214
0.377234 0.852232 0.327901
0.504067 0.840772 0.329259
0.643015 0.840238 0.337652
0.759258 0.843931 0.348211
0.842908 0.843809 0.355978
0.887098 0.827161 0.355566
0.912062 0.823316 0.358236
0.912062 0.823316 0.358236
0.912062 0.823316 0.358236
0.912062 0.823316 0.358236
0.912062 0.823316 0.358236
0.912062 0.823316 0.358236
0.912062 0.823316 0.358236
0.912062 0.823316 0.358236
0.912062 0.823316 0.358236
0.912062 0.823316 0.358236
0.326619 0.853254 0.327001
0.326619 0.853254 0.327001
0.326619 0.853254 0.327001
0.326619 0.853254 0.327001
0.326619 0.853254 0.327001
0.326619 0.853254 0.327001
0.326619 0.853254 0.327001
0.326619 0.853254 0.327001
0.326619 0.853254 0.327001
0.326619 0.853254 0.327001
0.326619 0.853254 0.327001
0.326619 0.853254 0.327001
0.326619 0.853254 0.327001
0.326619 0.853254 0.327001
0.326619 0.853254 0.327001
0.326619 0.853254 0.327001
0.326619 0.853254 0.327001
0.35903 0.854337 0.328069
0.480385 0.841779 0.32842
0.622385 0.83975 0.336034
0.741817 0.843503 0.346548
0.829419 0.844053 0.354742
0.87776 0.830014 0.355306
0.912062 0.823316 0.358236
0.912062 0.823316 0.358236
0.912062 0.823316 0.358236
0.912062 0.823316 0.358236
0.912062 0.823316 0.358236
0.912062 0.823316 0.358236
0.912062 0.823316 0.358236
0.912062 0.823316 0.358236
0.912062 0.823316 0.358236
0.912062 0.823316 0.358236
0.326619 0.853254 0.327001
0.326619 0.853254 0.327001
0.326619 0.853254 0.327001
0.326619 0.853254 0.327001
0.326619 0.853254 0.327001
0.326619 0.853254 0.327001
0.326619 0.853254 0.327001
0.326619 0.853254 0.327001
0.326619 0.853254 0.327001
0.326619 0.853254 0.327001
0.326619 0.853254 0.327001
0.326619 0.853254 0.327001
0.326619 0.853254 0.327001
0.326619 0.853254 0.327001
0.326619 0.853254 0.327001
0.326619 0.853254 0.327001
0.326619 0.853254 0.327001
0.348592 0.855283 0.328084
0.462898 0.843275 0.32813
0.606348 0.839612 0.334905
0.729076 0.843198 0.345357
0.819409 0.844251 0.353841
0.871061 0.832929 0.355474
0.904723 0.824445 0.357366
0.912062 0.823316 0.358236
0.912062 0.823316 0.358236
0.912062 0.823316 0.358236
0.912062 0.823316 0.358236
0.912062 0.823316 0.358236
0.912062 0.823316 0.358236
0.912062 0.823316 0.358236
0.912062 0.823316 0.358236
0.912062 0.823316 0.358236
0.326619 0.853254 0.327001
0.326619 0.853254 0.327001
0.326619 0.853254 0.327001
0.326619 0.853254 0.327001
0.326619 0.853254 0.327001
0.326619 0.853254 0.327001
0.326619 0.853254 0.327001
0.326619 0.853254 0.327001
0.326619 0.853254 0.327001
0.326619 0.853254 0.327001
0.326619 0.853254 0.327001
0.326619 0.853254 0.327001
0.326619 0.853254 0.327001
0.326619 0.853254 0.327001
0.326619 0.853254 0.327001
0.326619 0.853254 0.327001
0.326619 0.853254 0.327001
0.342916 0.855879 0.32813
0.451591 0.844373 0.328008
0.595682 0.839536 0.334188
0.720485 0.842939 0.344549
0.812787 0.844343 0.353246
0.866621 0.834852 0.355612
0.900145 0.825162 0.356863
