public/images/Fine Arts Cadres /TC_-_EDITING_ESSENTIALS_-_COLOR/TC - EXHIBITION_100.cube
TITLE "Generated by Resolve"
LUT_3D_SIZE 33
0.0176242 0.0465858 0.0562448
0.0312352 0.0471199 0.0557565
0.0469062 0.047776 0.0551156
0.0660105 0.0485695 0.0543679
0.0867781 0.0496529 0.0536049
0.111147 0.0510719 0.0528878
0.138949 0.0523995 0.0518807
0.174563 0.0531167 0.050248
0.216556 0.0518196 0.0481422
0.265583 0.0483253 0.0454566
0.326284 0.0330816 0.0374762
0.392523 0.0166934 0.0266575
0.464195 0.00227359 0.0113527
0.532555 0 0.00373846
0.593637 0 0
0.64593 0 0
0.684337 0 0
0.715908 0 0
0.741314 0 0
0.759487 0 0
0.772976 0 0
0.783123 0 0
0.788769 0 0
0.792935 0 0
0.795514 0 0
0.797131 0 0
0.797909 0 0
0.798505 0 0
0.798596 0 0
0.798672 0 0
0.798703 0 0
0.798611 0 0
0.79855 0 0
0.0152285 0.0522011 0.0550546
0.0283055 0.0527352 0.0547494
0.045304 0.0533455 0.0542763
0.0657054 0.054139 0.053666
0.0880293 0.0552224 0.0531319
0.112169 0.0566262 0.0526131
0.141314 0.0579995 0.0515602
0.175341 0.0592813 0.0500038
0.218204 0.0579995 0.0479591
0.266438 0.0549477 0.0451362
0.327749 0.0416571 0.0368353
0.394003 0.0233158 0.0250248
0.465431 0 0.0103456
0.534005 0.000259403 0.00299077
0.593957 0 0
0.64596 0 0
0.685756 0 0
0.716808 0 0
0.742275 0 0
0.761532 0 0
0.774655 0 0
0.784543 0 0
0.790478 0 0
0.79443 0 0
0.797147 0 0
0.798672 0 0
0.799649 0 0
0.800244 0 0
0.800381 0 0
0.800519 0 0
0.800473 0 0
0.800351 0 0
0.800244 0 0
0.0129397 0.0592203 0.0540169
0.0243076 0.0597543 0.0538796
0.0413825 0.0604715 0.0534676
0.0617685 0.0612955 0.0529335
0.0850996 0.0624399 0.052369
0.110948 0.0638132 0.0517433
0.143755 0.0653697 0.0504921
0.179919 0.0667887 0.0490578
0.225574 0.0656901 0.0471199
0.278264 0.0606851 0.0426795
0.338766 0.051133 0.0354925
0.407126 0.0295872 0.0213474
0.47747 0.0114748 0.00891127
0.546105 0.00077821 0.00047303
0.602899 0 0
0.651576 0 0
0.692714 0 0
0.722759 0 0
0.747082 0 0
0.766247 0 0
0.778592 0 0
0.787243 0 0
0.793469 0 0
0.796918 0 0
0.799847 0 0
0.801038 0 0
0.80209 0 0
0.802457 0 0
0.802563 0 0
0.80267 0 0
0.802518 0 0
0.802319 0 0
0.802152 0 0
0.0105592 0.0677195 0.0531777
0.01944 0.0682536 0.0531167
0.0367895 0.0690318 0.0527962
0.0568704 0.0697948 0.0523537
0.0809644 0.0708782 0.0517433
0.10695 0.0720684 0.0510414
0.140108 0.073991 0.0497597
0.177737 0.0753796 0.0482185
0.223865 0.0754253 0.046067
0.28101 0.071107 0.0410163
0.345113 0.0617838 0.0328374
0.418128 0.0383917 0.0165103
0.490822 0.0155337 0.00593576
0.558007 0.000274662 0
0.616587 0.000137331 0
0.662089 0 0
0.700862 0 0
0.73312 0 0
0.754513 0 0
0.771634 0 0
0.784237 0 0
0.791516 0 0
0.797574 0 0
0.801099 0 0
0.803876 0 0
0.80528 0 0
0.806561 0 0
0.806806 0 0
0.80705 0 0
0.807218 0 0
0.807034 0 0
0.806867 0 0
0.806699 0 0
0.00773632 0.0779583 0.052369
0.0137636 0.0784161 0.052369
0.0319219 0.0793622 0.0520943
0.0516365 0.0801862 0.0518044
0.0759289 0.0814221 0.0512856
0.102144 0.0826886 0.0506294
0.135103 0.0846265 0.0495613
0.173434 0.0862745 0.0479896
0.218769 0.0876326 0.0456245
0.276524 0.0847944 0.0407721
0.342214 0.0767529 0.0314031
0.418463 0.0598154 0.0137942
0.494057 0.0320745 0.00410468
0.563012 0.0119631 0
0.624048 0 0
0.672343 0 0
0.710124 0 0
0.740749 0 0
0.763592 0 0
0.778531 0 0
0.790066 0 0
0.797848 0 0
0.803204 0 0
0.807034 0 0
0.809339 0 0
0.810895 0 0
0.811887 0 0
0.812253 0 0
0.812497 0 0
0.81236 0 0
0.812116 0 0
0.811948 0 0
0.811872 0 0
0.00419623 0.0894942 0.051545
0.00843824 0.090135 0.0515297
0.0265202 0.0910353 0.0514076
0.0459754 0.0919051 0.051194
0.0701152 0.0932326 0.050782
0.0967269 0.0947433 0.0502327
0.12961 0.0965133 0.0494087
0.168383 0.0987564 0.0476539
0.213214 0.101381 0.0450446
0.27071 0.100221 0.040589
0.33724 0.0950332 0.0301061
0.413626 0.0840009 0.0132906
0.491218 0.0537423 0.00306706
0.562417 0.0256809 0
0.625467 0.00598154 0
0.678721 0.00077821 0
0.716731 0.000213626 0
0.74699 0 0
0.770397 0 0
0.786236 0 0
0.797162 0 0
0.805722 0 0
0.810437 0 0
0.814466 0 0
0.816403 0 0
0.818296 0 0
0.818769 0 0
0.819074 0 0
0.819455 0 0
0.819257 0 0
0.81912 0 0
0.81912 0 0
0.819028 0 0
0.00169375 0.104753 0.0510567
0.00630198 0.105028 0.0510109
0.022385 0.105974 0.0508888
0.0403906 0.106981 0.0506752
0.0643931 0.108583 0.0501717
0.0915236 0.110475 0.049485
0.123461 0.112566 0.0486
0.162676 0.115145 0.0466011
0.207721 0.117617 0.0438087
0.264988 0.118532 0.038941
0.33225 0.115663 0.0283055
0.408286 0.107103 0.0142672
0.488243 0.0871138 0.00195315
0.561379 0.052491 0
0.626154 0.0225376 0
0.681483 0.00227359 0
0.721889 0.000442512 0
0.752468 0 0
0.776486 0 0
0.794308 0 0
0.805066 0 0
0.813458 0 0
0.818631 0 0
0.822446 0 0
0.82472 0 0
0.826352 0 0
0.826795 0 0
0.827253 0 0
0.827466 0 0
0.827512 0 0
0.827604 0 0
0.82771 0 0
0.827649 0 0
0 0.122393 0.050721
0.00437934 0.122805 0.05066
0.0157626 0.123705 0.0505684
0.0314336 0.12488 0.0502785
0.0565805 0.126543 0.0498054
0.0851148 0.128481 0.0490578
0.116823 0.131106 0.0481727
0.156725 0.134051 0.0458381
0.20238 0.137148 0.0425269
0.258488 0.139635 0.0372015
0.326589 0.138994 0.0265202
0.403388 0.133623 0.0135958
0.485023 0.122332 0.00030518
0.561425 0.0912184 0
0.628168 0.0636301 0
0.684977 0.0415045 0
0.729732 0.0306706 0
0.76173 0.0206607 0
0.786938 0.0135805 0
0.805951 0.00950637 0
0.817533 0.00679026 0
0.826093 0.00389105 0
0.831754 0.000869764 0
0.834928 0 0
0.836942 0 0
0.838071 0 0
0.838483 0 0
0.838956 0 0
0.838743 0 0
0.838621 0 0
0.838697 0 0
0.838453 0 0
0.838239 0 0
0 0.144091 0.050782
0.00170901 0.144411 0.0507057
0.00492866 0.144991 0.0505226
0.0192264 0.145861 0.0502327
0.0472419 0.146868 0.0497902
0.0772412 0.149432 0.049012
0.109667 0.152392 0.0480049
0.149722 0.156283 0.0451514
0.196231 0.160098 0.041062
0.251881 0.163745 0.0348211
0.32108 0.165667 0.0233921
0.399069 0.164065 0.0108644
0.48188 0.157549 0
0.5626 0.138445 1.5259e-05
0.631418 0.11632 0
0.690349 0.0951095 0
0.739284 0.0769207 0
0.773632 0.0606241 0
0.800183 0.0499733 0
0.819852 0.0446479 0
0.832593 0.0404669 0
0.841047 0.0361486 0
0.847318 0.0319524 0
0.850248 0.0300603 0
0.852689 0.0282902 0
0.853697 0.0267948 0
0.854307 0.0251469 0
0.854963 0.0242771 0
0.854841 0.0232548 0
0.854887 0.022446 0
0.855085 0.0218509 0
0.854612 0.0206302 0
0.854383 0.0198825 0
0 0.170687 0.0506905
0.000579843 0.171359 0.0504921
0.00140383 0.172137 0.0501411
0.00907912 0.173053 0.0496223
0.0204013 0.174762 0.0489357
0.052369 0.176959 0.048127
0.0929427 0.179644 0.0470893
0.138125 0.183932 0.0439765
0.188891 0.189014 0.0383307
0.24564 0.194217 0.0298466
0.317571 0.198047 0.0137331
0.397147 0.199512 0.00404364
0.480858 0.196887 1.5259e-05
0.563897 0.188693 0
0.636316 0.176104 0
0.697887 0.161486 0
0.748669 0.144747 0
0.788708 0.130556 0
0.816663 0.120897 0
0.837003 0.113756 0
0.850431 0.10695 0
0.858778 0.100404 0
0.865446 0.0944076 0
0.868727 0.0879683 0
0.871733 0.0819104 0
0.872877 0.0779583 0
0.873884 0.0741588 0
0.874311 0.0712444 0
0.874418 0.0693675 0
0.874479 0.0674907 0
0.874434 0.065919 0
0.874098 0.0648661 0
0.873869 0.0641031 0
0 0.202518 0.0496986
0 0.203037 0.0495155
0 0.203906 0.0492561
0.00201419 0.205585 0.0485542
0.00459297 0.207599 0.0476692
0.029984 0.210651 0.0460517
0.0628214 0.214542 0.0438239
0.11873 0.219638 0.0398108
0.177584 0.225757 0.032517
0.24036 0.232258 0.0223392
0.313863 0.237888 0.00668345
0.395743 0.242115 0.00125124
0.480949 0.243397 0
0.566354 0.240314 0
0.642054 0.233036 0
0.706493 0.2215 0
0.76083 0.20911 0
0.804837 0.19855 0
0.834363 0.190082 0
0.855512 0.183078 0
0.870268 0.176883 0
0.879057 0.172137 0
0.886137 0.166796 0
0.889937 0.161761 0
0.89337 0.158022 0
0.894865 0.154971 0
0.896223 0.151965 0
0.896437 0.148241 0
0.896727 0.145937 0
0.89688 0.143191 0
0.896864 0.141207 0
0.896574 0.139513 0
0.896162 0.137514 0
0 0.239567 0.0467231
0 0.240635 0.0464485
0 0.241535 0.0461433
0 0.243717 0.0451362
0.000427253 0.245991 0.0439307
0.0099031 0.250736 0.04094
0.0359045 0.255604 0.0371405
0.0953994 0.261158 0.0316472
0.160998 0.268696 0.0220798
0.232624 0.276173 0.0113985
0.309331 0.284382 0.00163272
0.394781 0.291493 0.000198367
0.481621 0.295323 0
0.568719 0.295537 0
0.64918 0.291951 0
0.71693 0.283864 0
0.774517 0.275746 0
0.82208 0.266987 0
0.854429 0.259815 0
0.876448 0.252537 0
0.892836 0.247532 0
0.902754 0.242786 0
0.910521 0.238209 0
0.915251 0.234134 0
0.918883 0.230777 0
0.920607 0.227253 0
0.92224 0.22414 0
0.922301 0.220829 0
0.922545 0.218647 0
0.922576 0.216236 0
0.922255 0.214267 0
0.921782 0.212406 0
0.921553 0.211276 0
0 0.283207 0.0386969
0 0.284123 0.0382391
0 0.285237 0.037644
0 0.287358 0.036408
0 0.289906 0.034638
0 0.294301 0.03122
0.0218509 0.299992 0.0259709
0.0670024 0.306752 0.0188449
0.14049 0.315648 0.00794995
0.220401 0.324895 0.00109865
0.30457 0.335439 0
0.392584 0.344854 0
0.482063 0.351415 0
0.571389 0.355245 0
0.656687 0.354314 0
0.728634 0.349691 0
0.789395 0.343313 0
0.839078 0.335897 0
0.875608 0.329549 0
0.899474 0.323552 0
0.917418 0.318608 0
0.928573 0.313817 0
0.936889 0.309834 0
0.942473 0.305928 0
0.946136 0.302174 0
0.948409 0.299336 0
0.949966 0.295827 0
0.950088 0.292622 0
0.950408 0.290227 0
0.950759 0.288258 0
0.950362 0.286168 0
0.950225 0.284871 0
0.949889 0.283177 0
0 0.329519 0.0245823
0 0.330282 0.023621
0 0.331197 0.0224155
0 0.333303 0.0198062
0 0.336278 0.0165866
0 0.340429 0.0125124
0.013077 0.346685 0.00787366
0.0360876 0.354574 0.00271611
0.115175 0.365698 0.000854505
0.202365 0.377371 6.10361e-05
0.295995 0.389563 0
0.38732 0.401633 0
0.481575 0.411933 0
0.573861 0.417762 0
0.662684 0.420172 0
0.741009 0.418463 0
0.804471 0.413046 0
0.856397 0.406958 0
0.897475 0.40116 0
0.923354 0.396292 0
0.942916 0.391257 0
0.955795 0.387213 0
0.964385 0.382956 0
0.97084 0.379004 0
0.974289 0.37557 0
0.976059 0.371679 0
0.977554 0.368978 0
0.978012 0.366369 0
0.978363 0.363745 0
0.978775 0.361913 0
0.978912 0.360357 0
0.979156 0.359152 0
0.979187 0.357504 0
0 0.374792 0.00961318
0 0.375479 0.00881972
0 0.376425 0.00788891
0 0.378683 0.00654612
0 0.382055 0.005066
0 0.386297 0.00340276
0.00450141 0.392599 0.00172427
0.0197604 0.400641 0.000259403
0.0824903 0.414099 7.62951e-05
0.175784 0.428611 0
0.281147 0.443702 0
0.377874 0.459083 0
0.475944 0.471611 0
0.572335 0.481071 0
0.666163 0.487343 0
0.749828 0.488243 0
0.817823 0.485374 0
0.873671 0.481559 0
0.917388 0.476738 0
0.946303 0.470954 0
0.968017 0.466896 0
0.982818 0.462318 0
0.991073 0.457847 0
0.997467 0.454383 0
0.998962 0.450553 0
0.999664 0.447135 0
1 0.44416 0
1 0.441978 0
1 0.43946 0
1 0.437217 0
1 0.435615 0
1 0.433951 0
1 0.433417 0
0 0.417884 0
0 0.418158 4.57771e-05
0 0.419562 0.000122072
0 0.421942 0.000198367
0 0.425513 0.000213626
0 0.429419 0.000198367
0 0.436225 9.15541e-05
0.011841 0.445426 0
0.0502937 0.459022 0
0.148425 0.476173 0
0.259754 0.49427 0
0.368811 0.512062 0
0.468528 0.527901 0
0.568887 0.540627 0
0.665431 0.549859 0
0.755932 0.555138 0
0.827619 0.554681 0
0.886839 0.551797 0
0.933349 0.547768 0
0.966781 0.544137 0
0.985199 0.539452 0
0.996963 0.535714 0
0.998596 0.531411 0
0.999725 0.527886 0
0.999863 0.524269 0
0.999985 0.521019 0
1 0.518318 0
1 0.516075 0
1 0.514168 0
1 0.512444 0
1 0.510582 0
1 0.509438 0
1 0.507866 0
0 0.456779 0
0 0.457694 0
0 0.459266 0
0 0.461082 0
0 0.464805 0
0 0.46923 0
0 0.476234 0
0.00666819 0.485847 0
0.0213626 0.49839 0
0.119387 0.517617 0
0.233036 0.538689 0
0.353079 0.55903 0
0.458366 0.577966 0
0.562509 0.593744 0
0.661616 0.606073 0
0.755184 0.613962 0
0.833143 0.617441 0
0.895735 0.616297 0
0.945205 0.613855 0
0.982834 0.61059 0
0.994659 0.607492 0
1 0.603922 0
1 0.600549 0
1 0.596918 0
1 0.593393 0
1 0.591012 0
1 0.588815 0
1 0.586633 0
1 0.584466 0
1 0.582834 0
1 0.581506 0
1 0.580209 0
1 0.579553 0
0 0.490425 0
0 0.491905 0
0 0.493278 0
0 0.495415 0
0 0.499382 0
0 0.504234 0
0 0.51043 0
0.000823987 0.519921 0
0.010071 0.532097 0
0.0894942 0.552331 0
0.206683 0.575174 0
0.333486 0.598383 0
0.447028 0.620981 0
0.553246 0.639704 0
0.654643 0.654414 0
0.749325 0.664958 0
0.833906 0.67158 0
0.899641 0.672724 0
0.95198 0.671397 0
0.993423 0.669963 0
0.997711 0.667597 0
1 0.664805 0
1 0.661616 0
1 0.658808 0
1 0.655818 0
1 0.653162 0
1 0.651392 0
1 0.649119 0
1 0.646845 0
1 0.64564 0
1 0.64419 0
1 0.643351 0
1 0.642496 0
0 0.518196 0
0 0.519509 0
0 0.521218 0
0 0.523186 0
0 0.527153 0
0 0.531807 0
0 0.538231 0
0.000198367 0.547372 0
0.0134432 0.56025 0
0.0692302 0.580545 0
0.189532 0.604761 0
0.316152 0.629618 0
0.43415 0.653895 0
0.541787 0.675441 0
0.64477 0.69279 0
0.741756 0.706065 0
0.829725 0.71487 0
0.899153 0.717876 0
0.953811 0.718654 0
0.993423 0.718608 0
0.997665 0.716075 0
1 0.714183 0
1 0.711604 0
1 0.709117 0
1 0.706844 0
1 0.704799 0
1 0.702541 0
1 0.700572 0
1 0.699062 0
1 0.698009 0
1 0.696468 0
1 0.69546 0
1 0.694667 0
0 0.540429 0
0 0.541604 0
0 0.543435 0
0 0.545495 0
0 0.549447 0
0 0.554513 0
0 0.560662 0
0 0.569848 0
0.0124666 0.582589 0
0.0460517 0.600916 0
0.167254 0.626963 0
0.295476 0.653269 0
0.422232 0.678859 0
0.530663 0.702632 0
0.634256 0.720989 0
0.731609 0.735607 0
0.821103 0.746059 0
0.895155 0.750942 0
0.950393 0.753094 0
0.988418 0.753887 0
0.996628 0.753643 0
1 0.751904 0
1 0.750484 0
1 0.748425 0
1 0.746487 0
1 0.745159 0
1 0.742916 0
1 0.741894 0
1 0.740566 0
1 0.739452 0
1 0.738567 0
1 0.737865 0
1 0.737163 0
0 0.558587 0
0 0.55993 0
0 0.561639 0
0 0.564065 0
0 0.567788 0
0 0.5729 0
0 0.579309 0
0 0.588342 0
0.00807202 0.600839 0
0.0325475 0.617594 0
0.140276 0.64387 0
0.27483 0.671183 0
0.408103 0.698161 0
0.519066 0.722942 0
0.623606 0.742748 0
0.721218 0.758221 0
0.811902 0.769512 0
0.889601 0.776989 0
0.945861 0.780011 0
0.982773 0.781521 0
0.996307 0.78201 0
1 0.781292 0
1 0.780575 0
1 0.779217 0
1 0.777951 0
1 0.776761 0
1 0.775402 0
1 0.774258 0
1 0.773144 0
1 0.772412 0
1 0.771282 0
1 0.770901 0
1 0.770153 0
0 0.572488 0
0 0.573983 0
0 0.575906 0
0 0.578439 0
0 0.582177 0
0 0.587549 0
0 0.59379 0
0 0.602655 0
0.00384527 0.614694 0
0.0258488 0.631113 0
0.107881 0.65536 0
0.253529 0.684138 0
0.393347 0.71194 0
0.506676 0.737057 0
0.61236 0.758953 0
0.711574 0.77554 0
0.802609 0.788525 0
0.88455 0.798657 0
0.941268 0.802258 0
0.978042 0.804425 0
0.997208 0.805325 0
1 0.805692 0
1 0.805875 0
1 0.805051 0
1 0.804318 0
1 0.80322 0
1 0.801999 0
1 0.801205 0
1 0.800198 0
1 0.799329 0
1 0.798489 0
1 0.797772 0
1 0.79707 0
0 0.584161 0
0 0.585504 0
0 0.587289 0
0 0.589731 0
0 0.593301 0
0 0.598444 0
0 0.604654 0
0 0.613016 0
0.00144961 0.624979 0
0.0230716 0.641398 0
0.0844129 0.663386 0
0.23682 0.693034 0
0.374746 0.72105 0
0.495384 0.747219 0
0.602136 0.769909 0
0.70222 0.787396 0
0.793591 0.801312 0
0.875151 0.811749 0
0.934661 0.816983 0
0.973159 0.819989 0
0.999451 0.821775 0
1 0.822644 0
1 0.823041 0
1 0.822644 0
1 0.822354 0
1 0.821607 0
1 0.821073 0
1 0.820218 0
1 0.819699 0
1 0.818891 0
1 0.818494 0
1 0.818036 0
1 0.817624 0
0 0.592859 0
0 0.594186 0
0 0.595743 0
0 0.598367 0
0 0.601785 0
0 0.606775 0
0 0.61294 0
0 0.621225 0
0.000259403 0.633402 0
0.019791 0.649821 0
0.0703441 0.670756 0
0.221942 0.700557 0
0.360739 0.729381 0
0.48603 0.756252 0
0.593439 0.779629 0
0.694499 0.798169 0
0.785946 0.812741 0
0.866896 0.823514 0
0.928939 0.83006 0
0.969955 0.833631 0
0.999695 0.836011 0
0.999863 0.836942 0
1 0.837598 0
1 0.837461 0
1 0.837263 0
1 0.836759 0
1 0.836255 0
1 0.835599 0
1 0.834943 0
1 0.834485 0
1 0.833921 0
1 0.8336 0
1 0.833341 0
0 0.599542 0
0 0.600763 0
0 0.602243 0
0 0.604898 0
0 0.608087 0
0 0.613138 0
0 0.619318 0
0 0.627314 0
0 0.639582 0
0.0206455 0.656046 0
0.0756237 0.67718 0
0.211261 0.705928 0
0.349798 0.734707 0
0.475883 0.761624 0
0.585214 0.785779 0
0.686885 0.805295 0
0.779217 0.820325 0
0.859571 0.831601 0
0.923766 0.838972 0
0.967819 0.84303 0
0.998642 0.845884 0
0.999466 0.847318 0
1 0.848234 0
1 0.84831 0
1 0.848173 0
1 0.847944 0
1 0.847501 0
1 0.847181 0
1 0.846693 0
1 0.846281 0
1 0.84596 0
1 0.845624 0
1 0.845243 0
0 0.604395 0
0 0.605661 0
0 0.607355 0
0 0.610162 0
0 0.613474 0
0 0.618402 0
0 0.624796 0
0 0.632654 0
0 0.644892 0
0.0219272 0.661585 0
0.0801709 0.683085 0
0.200275 0.710719 0
0.342321 0.739818 0
0.468421 0.766918 0
0.578347 0.791562 0
0.681437 0.812161 0
0.773739 0.827588 0
0.85362 0.839231 0
0.920012 0.847471 0
0.967514 0.851759 0
0.997482 0.854978 0
0.9991 0.856657 0
1 0.857557 0
1 0.857771 0
1 0.857816 0
1 0.857618 0
1 0.85742 0
1 0.857069 0
1 0.856657 0
1 0.856138 0
1 0.85594 0
1 0.855695 0
1 0.855268 0
0 0.608621 0
0 0.609964 0
0 0.611673 0
0 0.614496 0
0 0.617929 0
0 0.622736 0
0 0.629099 0
0 0.637171 0
0 0.648859 0
0.0222782 0.665736 0
0.0812085 0.687175 0
0.18822 0.713664 0
0.336629 0.743099 0
0.462394 0.770397 0
0.572244 0.794949 0
0.67602 0.815946 0
0.768475 0.831617 0
0.848173 0.843381 0
0.914824 0.851789 0
0.963684 0.856641 0
0.991745 0.860212 0
0.997665 0.862364 0
1 0.863508 0
1 0.864073 0
1 0.864439 0
1 0.864271 0
1 0.864363 0
1 0.86421 0
1 0.863783 0
1 0.863478 0
1 0.863371 0
1 0.863142 0
1 0.862715 0
0 0.611734 0
0 0.613123 0
0 0.614816 0
0 0.617761 0
0 0.621286 0
0 0.625986 0
0 0.63241 0
0 0.640681 0
0 0.651865 0
