public/images/Fine Arts Cadres /TC_-_EDITING_ESSENTIALS_-_COLOR/TC - STRANGER THINGS - LOG TO LOOK - 2.cube
TITLE "Generated by Resolve"
LUT_3D_SIZE 9
0.0061799 0.00952163 0.0102083
0.0149081 0.0144808 0.0126955
0.107607 0.0259709 0.0039826
0.268025 0.00619516 0
0.482002 0.0138094 0.0263676
0.619028 0.0372931 0.0678721
0.749844 0.0614176 0.104494
0.862882 0.082414 0.134707
0.881407 0.105196 0.163424
0.00779736 0.0249485 0.0216068
0.00759899 0.0214542 0.0190433
0.119936 0.0366827 0.00512703
0.287938 0.0154269 0
0.516426 0.0197604 0.0289464
0.655344 0.0447547 0.072343
0.786465 0.068925 0.109209
0.879088 0.091722 0.140673
0.882567 0.112749 0.165484
0.0119478 0.0789349 0.0532235
0.0115663 0.0740978 0.050248
0.132921 0.125124 0.0263828
0.437324 0.109483 0.00793469
0.676356 0.0837568 0.0229801
0.80798 0.0855879 0.0565347
0.880293 0.105791 0.0986496
0.883528 0.122469 0.125063
0.885023 0.131334 0.137011
0.0224002 0.178592 0.105379
0.0203555 0.163409 0.0981765
0.0608988 0.20853 0.030808
0.393179 0.312734 0.0705882
0.723934 0.30663 0.0713207
0.860243 0.284199 0.078706
0.896681 0.281498 0.0910811
0.897627 0.284062 0.101381
0.898238 0.286442 0.106752
0.0786603 0.407538 0.21033
0.0687419 0.379614 0.196948
0.0785077 0.381476 0.15491
0.336049 0.543038 0.14905
0.682124 0.6215 0.211353
0.864042 0.609552 0.1832
0.93341 0.594186 0.176715
0.93402 0.596826 0.181811
0.934371 0.59852 0.184588
0.154513 0.609918 0.309316
0.144457 0.582849 0.295888
0.142824 0.568566 0.270604
0.259342 0.704189 0.214939
0.650416 0.78648 0.271595
0.854063 0.82295 0.309636
0.942992 0.818921 0.287343
0.962509 0.815213 0.2795
0.962219 0.813519 0.277714
0.22707 0.8056 0.406851
0.215503 0.774304 0.391089
0.213123 0.763806 0.378393
0.267903 0.846296 0.337865
0.599741 0.901396 0.291249
0.848142 0.9402 0.350622
0.938628 0.952239 0.374334
0.982055 0.951141 0.365881
0.980652 0.944137 0.355596
0.289326 0.960815 0.492988
0.280461 0.950713 0.480766
0.277104 0.939681 0.47219
0.30071 0.961044 0.43331
0.542794 0.966812 0.302983
0.835523 0.980529 0.363989
0.934264 0.985458 0.387854
0.985733 0.988083 0.400946
0.988663 0.988663 0.407446
0.320302 0.964157 0.534157
0.316701 0.96376 0.52958
0.31429 0.963485 0.524285
0.322347 0.963806 0.494148
0.482551 0.965972 0.317006
0.817105 0.980407 0.370504
0.932128 0.986053 0.396811
0.984527 0.988678 0.409552
0.989288 0.989288 0.415702
0.00509651 0.00914015 0.0158083
0.010544 0.0110475 0.0315557
0.128405 0.0158999 0.024094
0.317739 0 0.0219425
0.520882 0.0166476 0.0668345
0.66865 0.0435035 0.105409
0.801984 0.0682841 0.140581
0.879332 0.0907759 0.171267
0.882475 0.10956 0.195377
0.00810254 0.0270695 0.0258793
0.00575265 0.0211795 0.0253605
0.118349 0.0329137 0.0178988
0.272343 0.0124514 0.00256352
0.502663 0.0164492 0.038819
0.645029 0.0414435 0.0819409
0.77612 0.0654154 0.119539
0.878813 0.088777 0.153735
0.882445 0.110552 0.182239
0.0120241 0.079942 0.0538338
0.011841 0.0754711 0.0549935
0.130114 0.123445 0.0274357
0.398978 0.111788 0.0137026
0.654704 0.0821241 0.0261845
0.800443 0.081178 0.0640116
0.880262 0.102037 0.109636
0.883452 0.12076 0.138827
0.884993 0.129931 0.151629
0.0223239 0.178073 0.105119
0.0198367 0.159319 0.0962692
0.0603342 0.20264 0.0299382
0.386023 0.303456 0.0666209
0.710338 0.299397 0.068513
0.839216 0.285603 0.0788128
0.896513 0.279026 0.0921645
0.897246 0.277455 0.105241
0.897398 0.274083 0.112245
0.0773938 0.404059 0.208652
0.0660716 0.371725 0.193179
0.0754253 0.372091 0.149111
0.328557 0.531914 0.144747
0.675425 0.61062 0.20557
0.862379 0.595987 0.177096
0.932723 0.589197 0.174029
0.933822 0.595575 0.180804
0.934401 0.598398 0.18529
0.15288 0.605493 0.307118
0.141436 0.574716 0.29189
0.139345 0.558877 0.265217
0.254002 0.694606 0.211475
0.642863 0.777783 0.267918
0.850355 0.814939 0.304829
0.942855 0.808591 0.281071
0.961517 0.807919 0.275654
0.961761 0.810147 0.276005
0.224735 0.799283 0.403647
0.212421 0.765942 0.386892
0.208942 0.752361 0.372412
0.264118 0.836362 0.332982
0.590921 0.892973 0.287449
0.843397 0.93344 0.348013
0.936049 0.946288 0.372442
0.980926 0.943526 0.360662
0.979583 0.936782 0.350851
0.287312 0.960601 0.490227
0.277668 0.943099 0.47686
0.273442 0.929747 0.467094
0.297841 0.954101 0.429419
0.532036 0.966232 0.299748
0.828977 0.980133 0.361471
0.931014 0.985229 0.386175
0.983703 0.98793 0.399619
0.98854 0.98854 0.405859
0.319585 0.96408 0.533257
0.315419 0.963623 0.527916
0.312337 0.963272 0.521828
0.320241 0.963577 0.491905
0.475029 0.965835 0.318257
0.810285 0.980041 0.368399
0.92871 0.98584 0.395468
0.982315 0.988525 0.408499
0.989242 0.989227 0.41503
0.000183108 0.00221256 0.0429084
0.00137331 0 0.0675975
0.113573 0.00172427 0.10277
0.298451 0 0.12665
0.503395 0.0144808 0.155032
0.654322 0.0403906 0.182391
0.792111 0.0654765 0.21062
0.879789 0.0881208 0.237919
0.883101 0.108003 0.26273
0.00169375 0.027451 0.0535897
0.000244144 0.0220798 0.0588235
0.112444 0.0144961 0.102129
0.282963 0 0.100587
0.515526 0.0170443 0.133837
0.657679 0.0415045 0.161074
0.792264 0.0657511 0.189532
0.879545 0.0883192 0.217411
0.882856 0.108217 0.242008
0.0164797 0.110979 0.109758
0.00854505 0.104982 0.11809
0.0894026 0.12398 0.131792
0.386923 0.10016 0.101991
0.638819 0.0682078 0.101976
0.785214 0.0732586 0.128099
0.87985 0.0949416 0.162707
0.883284 0.115251 0.192065
0.885054 0.125658 0.208148
0.032929 0.234562 0.162997
0.0328222 0.226856 0.181216
0.0368811 0.228 0.139467
0.365026 0.324315 0.106111
0.68751 0.304753 0.119356
0.833356 0.281788 0.127718
0.898711 0.268193 0.139681
0.899367 0.265797 0.152712
0.89987 0.266728 0.158801
0.0933852 0.454109 0.250233
0.0911574 0.447257 0.27039
0.0872663 0.431617 0.231388
0.259556 0.547082 0.151049
0.663905 0.614878 0.215869
0.859083 0.592355 0.18938
0.933928 0.588235 0.193042
0.935195 0.593332 0.204181
0.9355 0.59266 0.209674
0.162112 0.633585 0.329503
0.154253 0.617929 0.334005
0.154726 0.611429 0.316121
0.223148 0.7093 0.247349
0.622995 0.780743 0.266423
0.846937 0.81529 0.307164
0.945678 0.803159 0.280476
0.961532 0.805661 0.279271
0.962295 0.81059 0.283146
0.228794 0.811917 0.414267
0.21828 0.785626 0.406516
0.217517 0.780499 0.398779
0.261204 0.840909 0.354986
0.571862 0.894331 0.28574
0.837491 0.933654 0.347265
0.935576 0.946456 0.372671
0.980819 0.942794 0.360174
0.98024 0.940795 0.354498
0.287434 0.960632 0.492393
0.278035 0.945876 0.482628
0.275105 0.936278 0.475944
0.296132 0.954192 0.436072
0.516548 0.965621 0.297963
0.822339 0.979828 0.360204
0.929229 0.985138 0.385733
0.983536 0.987915 0.399496
0.988525 0.988525 0.405737
0.31931 0.96405 0.532891
0.314519 0.963561 0.528679
0.310918 0.963165 0.52311
0.318318 0.963424 0.492683
0.467674 0.965789 0.320745
0.803769 0.979721 0.366888
0.926162 0.985687 0.394644
0.981048 0.988449 0.407904
0.989212 0.989197 0.414618
0 0 0.0739605
0 0 0.111864
0.109758 0 0.180743
0.273426 0.0016022 0.246845
0.465629 0.012665 0.289494
0.60238 0.0334783 0.318654
0.72958 0.0562905 0.347173
0.840085 0.0762951 0.372396
0.883299 0.0974594 0.398856
0 0.038468 0.100969
0 0.0349279 0.118853
0.0905928 0 0.178882
0.263462 0.00158694 0.231312
0.481865 0.0144961 0.26685
0.612268 0.0349432 0.288533
0.738827 0.0576028 0.314595
0.85124 0.0779126 0.339452
0.883268 0.100053 0.367788
0 0.148409 0.218387
0 0.138277 0.229618
0 0.0758526 0.212543
0.348028 0.0289464 0.306035
0.638987 0.0514076 0.316793
0.789654 0.0757916 0.333989
0.882673 0.0972152 0.354955
0.885832 0.116182 0.378195
0.887556 0.126268 0.393362
0.0665141 0.338323 0.330816
0.0287938 0.316548 0.344335
0.0225528 0.262394 0.287221
0.323491 0.344411 0.345159
0.686595 0.289647 0.282582
0.836805 0.267552 0.27686
0.906004 0.257084 0.281315
0.906142 0.257053 0.2934
0.90602 0.255512 0.301671
0.124071 0.531456 0.379019
0.118914 0.50721 0.403464
0.114504 0.495033 0.385901
0.168734 0.559396 0.315435
0.640421 0.625772 0.259327
0.849622 0.598215 0.286595
0.941115 0.587076 0.300114
0.942336 0.586892 0.318273
0.942901 0.585184 0.329076
0.171679 0.679911 0.409125
0.164965 0.653544 0.434989
0.168856 0.660761 0.453498
0.201816 0.712947 0.378622
0.556909 0.78851 0.283772
0.830274 0.82295 0.328954
0.941787 0.810208 0.31783
0.96556 0.812757 0.327886
0.966644 0.816632 0.33814
0.232197 0.836561 0.462165
0.213519 0.800153 0.472953
0.215915 0.804822 0.49752
0.243977 0.839612 0.437018
0.489906 0.896986 0.296452
0.801862 0.933394 0.350057
0.922393 0.946059 0.375372
0.981613 0.943313 0.371054
0.981872 0.945357 0.371862
0.285298 0.960754 0.515892
0.270298 0.941726 0.519646
0.264775 0.932708 0.530053
0.28069 0.9458 0.488289
0.421118 0.963836 0.31342
0.776654 0.978225 0.358328
0.91104 0.984573 0.385992
0.97969 0.987945 0.401633
0.988769 0.988769 0.408804
0.315785 0.963897 0.545129
0.307561 0.963195 0.547936
0.301167 0.962661 0.550652
0.308354 0.962936 0.524056
0.371145 0.965454 0.355825
0.749218 0.977569 0.361364
0.904738 0.984878 0.39295
0.97583 0.988342 0.408881
0.989364 0.989364 0.416754
0 0.00723278 0.143221
0 0.00184634 0.221103
0.108888 0 0.252415
0.247883 0 0.340734
0.42565 0.0174411 0.403204
0.547417 0.0306096 0.435782
0.664881 0.0496986 0.463798
0.771435 0.0677653 0.486686
0.868513 0.0846265 0.505501
0 0.0426947 0.218845
0 0.0334783 0.253544
0.0871443 0 0.259663
0.239307 0 0.34229
0.439811 0.0182956 0.401892
0.555566 0.0311589 0.425803
0.671275 0.0501411 0.450141
0.78088 0.0689097 0.47332
0.878325 0.0859846 0.49247
0 0.195468 0.369345
0 0.185473 0.378119
0 0.0428779 0.345571
0.291798 0 0.481926
0.611475 0.0570993 0.53843
0.757244 0.077409 0.554208
0.869551 0.0948043 0.568658
0.88835 0.114168 0.588968
0.890394 0.126467 0.603693
0 0.370733 0.464408
0 0.352224 0.471824
0 0.288899 0.435828
0.102312 0.274006 0.489281
0.650736 0.236973 0.577432
0.80618 0.206058 0.547616
0.898085 0.183322 0.537087
0.896971 0.17557 0.541711
0.896117 0.169635 0.545083
0.147463 0.56112 0.532219
0.131106 0.536934 0.544427
0.111818 0.538247 0.559197
0.15314 0.540948 0.517159
0.618311 0.634256 0.598505
0.847089 0.603128 0.559564
0.95668 0.579904 0.537011
0.95613 0.575936 0.534874
0.95584 0.57348 0.534264
0.184604 0.693049 0.542107
0.178622 0.665782 0.561257
0.185657 0.677775 0.595254
0.190921 0.690913 0.547814
0.428992 0.794507 0.489174
0.812802 0.827283 0.476753
0.944854 0.808225 0.496452
0.977508 0.806577 0.511681
0.978714 0.80882 0.52604
0.228 0.8336 0.560739
0.217975 0.796063 0.580133
0.222583 0.799954 0.620691
0.226535 0.812253 0.585657
0.334554 0.886168 0.467567
0.738628 0.932906 0.41352
0.900236 0.941482 0.417655
0.985519 0.936751 0.437888
0.987167 0.938415 0.459541
0.266133 0.953414 0.578851
0.257252 0.920668 0.601495
0.25568 0.907332 0.635981
0.26006 0.919219 0.614755
0.323751 0.956603 0.511147
0.700832 0.979629 0.410224
0.873793 0.985931 0.420813
0.959594 0.98912 0.426627
0.990906 0.990906 0.437064
0.300206 0.963088 0.589364
0.284184 0.961929 0.609964
0.278782 0.961822 0.637446
0.28368 0.962142 0.628595
0.321355 0.96437 0.543709
0.66421 0.977691 0.399481
0.860258 0.985351 0.419028
0.951095 0.989013 0.428824
0.990662 0.990662 0.433906
0 0 0.257069
0 0 0.324529
0.11368 0 0.322026
0.227878 0 0.393271
0.387472 0 0.458518
0.504402 0.0338293 0.500191
0.614267 0.0481575 0.53228
0.714046 0.062974 0.555871
0.810803 0.0783398 0.574258
0 0.0569619 0.367453
0 0.0464027 0.379461
0.0861524 0 0.327672
0.222278 0 0.402518
0.40177 0 0.464958
0.513558 0.0341497 0.497902
0.621363 0.0484321 0.52604
0.724544 0.0641337 0.550561
0.823056 0.0800641 0.570199
0 0.249241 0.491417
0 0.239841 0.496544
0 0.0763714 0.472511
0.245792 0 0.576562
0.580682 0.0363012 0.656184
0.731228 0.0844739 0.684672
0.841917 0.0985733 0.700435
0.89015 0.114504 0.717617
0.892348 0.12781 0.732891
0 0.394415 0.567697
0 0.37879 0.566506
0 0.33225 0.564431
0 0.224857 0.573938
0.562722 0.171908 0.713451
0.758038 0.152438 0.714931
0.858076 0.124315 0.702068
0.893462 0.137163 0.711131
0.895155 0.147616 0.72015
0 0.538674 0.634775
0 0.513283 0.633677
0 0.529656 0.656077
0 0.498238 0.624567
0.445304 0.583444 0.759426
0.81796 0.577523 0.803861
0.942443 0.545159 0.783413
0.954757 0.531746 0.779934
0.953445 0.523461 0.777661
0.192279 0.682719 0.686366
0.13637 0.651713 0.684749
0.116426 0.659586 0.707271
0.162264 0.675471 0.698924
0.300664 0.755444 0.73019
0.778912 0.827619 0.801465
0.918227 0.822126 0.789319
0.993454 0.814679 0.774655
0.996429 0.816907 0.771649
0.23267 0.80824 0.706279
0.224872 0.775677 0.713878
0.225803 0.769421 0.733791
0.232914 0.795651 0.730343
0.301366 0.857221 0.720974
0.690074 0.928405 0.745739
0.882231 0.941985 0.740154
0.980224 0.938628 0.758007
1 0.936614 0.765072
0.263996 0.916259 0.715175
0.256367 0.885863 0.727764
0.253223 0.867506 0.747372
0.263355 0.896895 0.757671
0.301991 0.927138 0.737331
0.608209 0.98349 0.687892
0.83711 0.996689 0.691478
0.948333 1 0.674022
1 1 0.699306
0.286 0.9635 0.712093
0.279377 0.963134 0.729305
0.274067 0.941161 0.748867
0.282841 0.961105 0.769955
0.301152 0.965316 0.746059
0.502602 0.981949 0.628489
0.803326 1 0.643671
0.925048 1 0.628504
0.988418 1 0.609125
0 0 0.344167
0 0 0.389548
0.11899 0 0.380575
0.221454 0 0.444846
0.35375 0 0.493797
0.462226 0 0.534142
0.569543 0.0476997 0.5729
0.666835 0.0614939 0.600763
0.76083 0.0745708 0.621118
0 0.0785382 0.439551
0 0.068925 0.451148
0.0842756 0 0.382803
0.213169 0 0.447608
0.367803 0 0.504982
0.474342 0.00343328 0.539651
0.580911 0.0508431 0.575998
0.678355 0.0629892 0.602884
0.773083 0.0764172 0.623545
0 0.275441 0.553964
0 0.266499 0.557458
0 0.145541 0.556146
0.182635 0 0.63444
0.547768 0 0.73019
0.702434 0.064271 0.764401
0.817655 0.104875 0.787945
0.89163 0.116548 0.803494
0.893889 0.130159 0.819028
0 0.413687 0.625208
0 0.400778 0.623835
0 0.36614 0.634455
0 0.217487 0.642084
0.484184 0.124804 0.781826
0.703838 0.105318 0.79649
0.835767 0.127367 0.80911
0.895216 0.139528 0.81416
0.897017 0.150668 0.822644
0 0.525307 0.67866
0 0.507881 0.674693
0 0.539483 0.710628
0 0.50042 0.702068
0.274815 0.54667 0.817243
0.752041 0.549142 0.909789
0.913817 0.543587 0.915114
0.955627 0.526406 0.908721
0.953979 0.515862 0.90753
0.028809 0.639078 0.731136
0 0.612131 0.723354
0.000579843 0.645975 0.755032
0.025391 0.65774 0.758785
0.259876 0.727321 0.815076
0.671183 0.79971 0.90251
0.88893 0.810391 0.928634
0.983108 0.806638 0.921553
0.998917 0.80444 0.918517
0.209125 0.772488 0.787808
0.16228 0.740368 0.778592
0.127703 0.721172 0.776486
0.193378 0.780255 0.808484
0.272129 0.834501 0.828061
0.595911 0.908705 0.882551
0.85005 0.932601 0.917281
0.961425 0.939818 0.921935
1 0.935683 0.912413
0.263462 0.874556 0.821729
0.256672 0.848814 0.819211
0.250462 0.825422 0.815305
0.268376 0.879698 0.846357
0.285283 0.904219 0.841703
0.50106 0.953567 0.854871
0.799985 0.981857 0.890745
0.93727 0.99443 0.894362
1 0.995529 0.906752
0.282734 0.942184 0.834989
0.277836 0.922255 0.83859
0.273045 0.903136 0.840162
0.285084 0.935302 0.865934
0.29366 0.948516 0.854887
0.417365 0.97406 0.837369
0.76173 1 0.871992
0.914275 1 0.880217
0.98822 1 0.873747
0 0 0.401083
0 0.0037995 0.442069
0.124163 0 0.438041
0.23949 0 0.534813
0.366278 0 0.572686
0.46331 0 0.60206
0.562646 0.0168612 0.634791
0.662303 0.067155 0.668681
0.757397 0.0820325 0.695766
0 0.1075 0.501289
0 0.0999771 0.512566
0.0689555 0 0.472511
0.220127 0 0.520378
0.356909 0 0.559915
0.450568 0 0.583658
0.54522 0.0153048 0.612665
0.642466 0.0643931 0.644755
0.734936 0.076524 0.668727
0 0.293248 0.600381
0 0.282292 0.601205
0 0.207034 0.61886
0.117113 0 0.689219
0.513771 0 0.778027
0.669123 0.0301213 0.809964
0.787717 0.0871443 0.834409
0.881315 0.1187 0.85211
0.894759 0.131563 0.867124
0 0.429129 0.669871
0 0.416541 0.668086
0 0.395117 0.686854
0 0.245609 0.706249
0.404639 0.137285 0.825315
0.661631 0.104952 0.839872
0.80148 0.120439 0.851774
0.892851 0.140291 0.860136
0.897856 0.152163 0.867628
0 0.527062 0.712703
0 0.513985 0.709606
0 0.554192 0.751034
0 0.51986 0.761013
0.113741 0.534554 0.826627
0.694789 0.558434 0.953201
0.874434 0.55552 0.958175
0.959945 0.549905 0.959945
0.958312 0.539559 0.958312
0 0.616648 0.754711
0 0.597772 0.749294
0 0.642802 0.783459
0 0.657038 0.798398
0.185153 0.718883 0.849729
0.55378 0.786816 0.942702
0.841062 0.809735 0.98201
0.960616 0.816709 0.985946
1 0.815579 0.984131
0.0987106 0.732647 0.807462
0.0492103 0.703166 0.797055
0.0434119 0.708507 0.806424
0.103685 0.755444 0.833021
0.226886 0.826185 0.871733
0.535622 0.893797 0.938018
0.777157 0.918135 0.968688
0.940368 0.931914 0.987488
1 0.932067 0.986053
0.242252 0.842771 0.853773
0.20528 0.816022 0.844984
0.170642 0.791592 0.837049
0.240772 0.86157 0.878569
0.279316 0.890364 0.890822
0.376074 0.923018 0.908446
0.740597 0.970611 0.958648
0.917845 0.987259 0.980423
0.993378 0.995712 0.987991
0.281834 0.915831 0.883558
0.276707 0.898161 0.877668
0.271626 0.879896 0.872923
0.285145 0.918761 0.90074
0.2925 0.93669 0.904662
0.357504 0.948516 0.900313
0.695933 0.99469 0.947692
0.890028 1 0.969116
0.984466 1 0.979675
0 0.00547799 0.454063
0 0.013901 0.494469
0.138323 0 0.538842
0.265217 0 0.603235
0.408545 0 0.644358
0.506889 0 0.672587
0.603479 0.0147707 0.700236
0.694133 0.0644846 0.724376
0.783185 0.090837 0.745083
0 0.145342 0.558724
0 0.140764 0.571374
0.0292668 0 0.584558
0.257633 0 0.670008
0.42565 0 0.690745
0.517952 0 0.706218
0.609201 0.00665293 0.727153
0.696513 0.0562905 0.747982
0.780606 0.0937819 0.766155
0 0.305776 0.637842
0 0.296773 0.640986
0 0.262699 0.671992
0.0717174 0 0.745327
0.476509 0 0.819959
0.648173 0.0229496 0.851621
0.770962 0.076112 0.871275
0.869459 0.119265 0.888472
0.896178 0.138384 0.896178
0 0.439109 0.70341
0 0.42739 0.702586
0 0.422583 0.727871
0 0.293721 0.753979
0.289311 0.175525 0.860716
0.628244 0.191608 0.888624
0.776272 0.191302 0.893797
0.879194 0.191409 0.897566
0.903807 0.188922 0.897231
0 0.53846 0.745205
0 0.528191 0.743435
0 0.568917 0.779919
0 0.533425 0.794568
0 0.540795 0.831006
0.623957 0.587121 0.955489
0.829755 0.582132 0.960876
0.952346 0.583703 0.964843
0.964385 0.578256 0.964385
0 0.611032 0.775906
0 0.597528 0.772412
0 0.649332 0.805188
0 0.665919 0.824796
0.0800336 0.713314 0.862821
0.404669 0.774884 0.9523
0.780087 0.814343 0.993057
0.929686 0.827802 1
1 0.83505 1
0.0162051 0.704662 0.815595
0 0.679774 0.806043
0.010605 0.711177 0.826001
0.062974 0.75462 0.852857
0.181994 0.82385 0.893248
0.411841 0.876066 0.951507
0.684703 0.908736 0.986938
0.903868 0.927657 1
0.986648 0.935073 1
0.164981 0.807202 0.86009
0.131289 0.783413 0.851255
0.0989242 0.762264 0.843717
0.187518 0.841062 0.887999
0.239734 0.885985 0.913909
0.365209 0.916106 0.937896
0.688701 0.962005 0.98526
0.868101 0.979477 1
0.974563 0.989837 1
0.265126 0.889662 0.897292
0.239368 0.86807 0.887526
0.213916 0.848142 0.879545
0.259586 0.898482 0.91223
0.290929 0.928847 0.930053
0.330358 0.945693 0.937636
0.567514 0.981491 0.972137
0.850584 1 1
0.963745 1 1
