public/images/Fine Arts Cadres /TC_-_EDITING_ESSENTIALS_-_COLOR/TC - OPPENHEIMER - LOOK2 - LOG TO LOOK - STANDARD.cube
TITLE "Generated by Resolve"
LUT_3D_SIZE 9
0.00682078 0.0149538 0.0161593
0.00682078 0.0149538 0.0161593
0.0315099 0.0246738 0.0204623
0.214023 0.0568093 0.0512093
0.411963 0.0994736 0.0943008
0.55021 0.133028 0.125322
0.55021 0.133028 0.125322
0.55021 0.133028 0.125322
0.55021 0.133028 0.125322
0.00682078 0.0149538 0.0161593
0.00682078 0.0149538 0.0161593
0.0252232 0.0227054 0.0199741
0.211017 0.0564126 0.0505684
0.409308 0.0988174 0.0937209
0.55021 0.133028 0.125322
0.55021 0.133028 0.125322
0.55021 0.133028 0.125322
0.55021 0.133028 0.125322
0.0275578 0.070985 0.0486152
0.0269474 0.0693828 0.0478218
0.0307164 0.0769818 0.050721
0.270741 0.108949 0.0704204
0.452537 0.110277 0.104082
0.555261 0.134264 0.126452
0.55021 0.133028 0.125322
0.55021 0.133028 0.125322
0.55021 0.133028 0.125322
0.0996567 0.25919 0.132891
0.0992142 0.258061 0.132509
0.0982834 0.255604 0.131685
0.373342 0.378897 0.159411
0.618128 0.389197 0.193561
0.771267 0.378668 0.214694
0.761196 0.348852 0.206622
0.757855 0.33959 0.204166
0.756939 0.337026 0.203494
0.215976 0.563821 0.227085
0.215686 0.563073 0.226795
0.215045 0.561364 0.22623
0.226596 0.59115 0.237049
0.694087 0.68368 0.290303
0.877317 0.678096 0.311955
0.878416 0.671672 0.310903
0.87776 0.668544 0.309941
0.877577 0.667735 0.309682
0.322713 0.842924 0.327138
0.322728 0.842939 0.327108
0.322728 0.842939 0.327108
0.322728 0.842954 0.327047
0.623072 0.856458 0.357519
0.930694 0.876127 0.419364
0.942397 0.877485 0.441444
0.942351 0.877379 0.441001
0.942351 0.877379 0.441001
0.322621 0.842664 0.327855
0.322621 0.842664 0.327855
0.322621 0.842664 0.327855
0.322621 0.842664 0.327855
0.449363 0.849195 0.339483
0.901305 0.8822 0.404074
0.943053 0.879271 0.4495
0.943145 0.87953 0.450614
0.943145 0.87953 0.450614
0.322621 0.842664 0.327855
0.322621 0.842664 0.327855
0.322621 0.842664 0.327855
0.322621 0.842664 0.327855
0.37789 0.851133 0.334066
0.885145 0.884062 0.397406
0.94287 0.878782 0.447257
0.943145 0.87953 0.450614
0.943145 0.87953 0.450614
0.322621 0.842664 0.327855
0.322621 0.842664 0.327855
0.322621 0.842664 0.327855
0.322621 0.842664 0.327855
0.355261 0.851637 0.332631
0.879286 0.883619 0.396307
0.942809 0.87863 0.446586
0.943145 0.87953 0.450614
0.943145 0.87953 0.450614
0.00682078 0.0149538 0.0161593
0.00682078 0.0149538 0.0161593
0.0355688 0.0259403 0.0207828
0.21796 0.0573587 0.0520638
0.415686 0.100374 0.0951247
0.55108 0.133242 0.125521
0.55021 0.133028 0.125322
0.55021 0.133028 0.125322
0.55021 0.133028 0.125322
0.00682078 0.0149538 0.0161593
0.00682078 0.0149538 0.0161593
0.0272526 0.0233463 0.0201419
0.21355 0.0567483 0.0511177
0.411963 0.0994736 0.0943008
0.55021 0.133028 0.125322
0.55021 0.133028 0.125322
0.55021 0.133028 0.125322
0.55021 0.133028 0.125322
0.0254978 0.0656138 0.0459602
0.0248875 0.0640116 0.0451667
0.0280003 0.0705577 0.0478676
0.264424 0.100801 0.0677806
0.440421 0.106447 0.101015
0.550561 0.13312 0.125399
0.55021 0.133028 0.125322
0.55021 0.133028 0.125322
0.55021 0.133028 0.125322
0.0979934 0.254856 0.131441
0.0975662 0.253712 0.13106
0.0966201 0.251255 0.130236
0.370077 0.373877 0.157458
0.615076 0.383749 0.191592
0.769024 0.372442 0.212955
0.758816 0.342382 0.204898
0.755276 0.332967 0.202396
0.754299 0.329992 0.201648
0.214847 0.560861 0.226017
0.214572 0.560143 0.225803
0.213916 0.558419 0.225177
0.224903 0.586786 0.235813
0.692378 0.681346 0.289387
0.876173 0.67602 0.311208
0.877974 0.669551 0.310262
0.877287 0.666331 0.309255
0.877058 0.665309 0.308949
0.322728 0.842939 0.327108
0.322728 0.842954 0.327077
0.322728 0.842954 0.327077
0.322744 0.842985 0.326986
0.621927 0.856306 0.35729
0.93022 0.876097 0.41886
0.942367 0.877424 0.44123
0.942336 0.877333 0.440787
0.942336 0.877333 0.440787
0.322621 0.842664 0.327855
0.322621 0.842664 0.327855
0.322621 0.842664 0.327855
0.322621 0.842664 0.327855
0.447074 0.84921 0.339284
0.900969 0.882261 0.403967
0.943053 0.879271 0.4495
0.943145 0.87953 0.450614
0.943145 0.87953 0.450614
0.322621 0.842664 0.327855
0.322621 0.842664 0.327855
0.322621 0.842664 0.327855
0.322621 0.842664 0.327855
0.375494 0.851179 0.333913
0.884642 0.884153 0.397223
0.94287 0.878782 0.447257
0.943145 0.87953 0.450614
0.943145 0.87953 0.450614
0.322621 0.842664 0.327855
0.322621 0.842664 0.327855
0.322621 0.842664 0.327855
0.322621 0.842664 0.327855
0.353231 0.851698 0.332509
0.878614 0.883513 0.39617
0.942809 0.87863 0.446586
0.943145 0.87953 0.450614
0.943145 0.87953 0.450614
0.00816358 0.016556 0.0390631
0.00939956 0.0172885 0.0507362
0.0267796 0.026688 0.0636606
0.231968 0.0596323 0.0577707
0.428763 0.102312 0.101381
0.566888 0.135836 0.132403
0.564294 0.135836 0.130159
0.563546 0.135866 0.129412
0.563256 0.135851 0.129183
0.00784314 0.0162203 0.0352026
0.00843824 0.0167849 0.0417639
0.0138399 0.0211795 0.0551461
0.225498 0.0588235 0.055787
0.42475 0.101518 0.100008
0.56527 0.135836 0.131014
0.562829 0.135897 0.12871
0.561944 0.135882 0.127962
0.561776 0.135836 0.127932
0.0242313 0.0617838 0.0510872
0.0235447 0.059968 0.0500496
0.0268254 0.0659342 0.071107
0.269566 0.0879377 0.0709087
0.437217 0.104082 0.103975
0.561944 0.135882 0.127962
0.560403 0.1355 0.127611
0.559899 0.135378 0.127504
0.559731 0.135332 0.127459
0.0966354 0.251194 0.132937
0.0960555 0.249683 0.132158
0.0948653 0.246586 0.130465
0.370275 0.371633 0.157397
0.612634 0.377371 0.190967
0.766262 0.35964 0.209827
0.753384 0.327871 0.201068
0.749508 0.318013 0.198459
0.748409 0.315084 0.197696
0.212406 0.554467 0.223774
0.212024 0.553475 0.223423
0.211368 0.551751 0.222858
0.221286 0.577462 0.233295
0.688746 0.676478 0.287465
0.873487 0.670924 0.309407
0.876875 0.6645 0.30869
0.876188 0.661265 0.307698
0.875959 0.660258 0.307378
0.322728 0.842969 0.327016
0.322728 0.842969 0.327016
0.322744 0.842985 0.326986
0.322744 0.843 0.326925
0.619074 0.856031 0.356832
0.929335 0.876066 0.41796
0.942336 0.877333 0.440787
0.942321 0.877287 0.440558
0.942306 0.877226 0.44033
0.322621 0.842664 0.327855
0.322621 0.842664 0.327855
0.322621 0.842664 0.327855
0.322621 0.842664 0.327855
0.442145 0.849287 0.338857
0.899947 0.882383 0.40354
0.943038 0.879225 0.449271
0.943145 0.87953 0.450614
0.943145 0.87953 0.450614
0.322621 0.842664 0.327855
0.322621 0.842664 0.327855
0.322621 0.842664 0.327855
0.322621 0.842664 0.327855
0.370291 0.851286 0.333593
0.883436 0.884108 0.396933
0.942855 0.878721 0.447028
0.943145 0.87953 0.450614
0.943145 0.87953 0.450614
0.322621 0.842664 0.327855
0.322621 0.842664 0.327855
0.322621 0.842664 0.327855
0.322621 0.842664 0.327855
0.349142 0.851835 0.33225
0.877302 0.883345 0.395956
0.942794 0.878584 0.446357
0.943145 0.87953 0.450614
0.943145 0.87953 0.450614
0.0167239 0.0195468 0.121798
0.0172274 0.020325 0.127184
0.0198367 0.0241855 0.150179
0.218189 0.0593729 0.222354
0.444114 0.107027 0.202289
0.591592 0.140551 0.197894
0.591836 0.140536 0.194125
0.591836 0.14052 0.193057
0.591882 0.140536 0.192706
0.0165866 0.0193637 0.1205
0.0167239 0.0195468 0.121798
0.0193637 0.0234836 0.146014
0.211749 0.0580911 0.219211
0.441199 0.106294 0.199084
0.591775 0.140551 0.195575
0.592035 0.140551 0.191775
0.592035 0.14052 0.190585
0.592065 0.14052 0.190326
0.0176089 0.023621 0.119326
0.0169985 0.0214847 0.117693
0.0181582 0.0217136 0.135561
0.203006 0.0564736 0.214389
0.434821 0.104677 0.192233
0.592065 0.14052 0.190326
0.591836 0.140414 0.186358
0.591943 0.140414 0.185168
0.591791 0.140368 0.184802
0.111513 0.285023 0.235554
0.110994 0.283696 0.234943
0.109865 0.28072 0.233204
0.374945 0.384924 0.349889
0.650813 0.35935 0.310704
0.811444 0.332341 0.302174
0.796902 0.293996 0.283711
0.793118 0.282002 0.2804
0.791714 0.278813 0.278767
0.216464 0.562905 0.29189
0.21622 0.562249 0.291524
0.215549 0.56051 0.29073
0.224537 0.582437 0.331853
0.712673 0.699443 0.353964
0.908736 0.696422 0.392981
0.907607 0.687297 0.385809
0.906172 0.683162 0.382986
0.905821 0.68217 0.382284
0.321309 0.838727 0.343771
0.32134 0.838804 0.343526
0.32137 0.838941 0.343145
0.321553 0.83946 0.341543
0.607584 0.8654 0.37293
0.932143 0.885054 0.445808
0.944579 0.883406 0.468086
0.944289 0.882612 0.4645
0.944228 0.88246 0.463828
0.322621 0.842664 0.327855
0.322621 0.842664 0.327855
0.322621 0.842664 0.327855
0.322621 0.842664 0.327855
0.423636 0.849668 0.337438
0.896147 0.882795 0.401938
0.943008 0.879118 0.448829
0.943145 0.87953 0.450614
0.943145 0.87953 0.450614
0.322621 0.842664 0.327855
0.322621 0.842664 0.327855
0.322621 0.842664 0.327855
0.322621 0.842664 0.327855
0.352422 0.851728 0.332464
0.878401 0.883482 0.396139
0.942809 0.87863 0.446586
0.943145 0.87953 0.450614
0.943145 0.87953 0.450614
0.322621 0.842664 0.327855
0.322621 0.842664 0.327855
0.322621 0.842664 0.327855
0.322621 0.842664 0.327855
0.33695 0.852338 0.331441
0.872297 0.882719 0.395163
0.942763 0.878477 0.445914
0.943145 0.87953 0.450614
0.943145 0.87953 0.450614
0.0343786 0.057908 0.223285
0.0343786 0.057908 0.223285
0.0428168 0.0807813 0.252338
0.114 0.0492409 0.30045
0.386313 0.103059 0.382574
0.555856 0.138354 0.381109
0.556695 0.13846 0.379553
0.556863 0.138476 0.37908
0.556893 0.138476 0.378958
0.0341192 0.0571908 0.222354
0.0340887 0.0570993 0.222217
0.0411383 0.0762646 0.246708
0.106279 0.0480507 0.297322
0.383825 0.102495 0.381552
0.556344 0.138415 0.380148
0.557183 0.138521 0.378592
0.557336 0.138537 0.378119
0.557412 0.138537 0.377874
0.0335699 0.0556954 0.220356
0.0335393 0.0555886 0.220218
0.0368963 0.0647746 0.232197
0.0898756 0.045655 0.290791
0.377874 0.101137 0.379126
0.557382 0.138537 0.377997
0.558297 0.138659 0.376196
0.55845 0.138674 0.375723
0.558694 0.138705 0.375479
0.122942 0.302815 0.371084
0.122454 0.301518 0.370291
0.121431 0.298817 0.36875
0.116579 0.274601 0.429023
0.574548 0.251347 0.530236
0.724727 0.209598 0.468299
0.676036 0.168582 0.429343
0.658427 0.163149 0.416007
0.653422 0.161883 0.412177
0.216953 0.556924 0.426123
0.216678 0.556191 0.42591
0.216114 0.554711 0.425299
0.216632 0.555047 0.440421
0.71017 0.703029 0.635691
0.914305 0.709743 0.620188
0.924132 0.704845 0.616678
0.923278 0.700755 0.614771
0.923003 0.699443 0.614069
0.311345 0.807263 0.474571
0.31136 0.807309 0.474388
0.310872 0.806043 0.473442
0.309117 0.801556 0.469902
0.599283 0.887236 0.706722
0.953109 0.937881 0.767254
0.957046 0.928695 0.775921
0.957046 0.926589 0.77052
0.957046 0.92607 0.769207
0.312093 0.809735 0.464424
0.312093 0.809766 0.46424
0.312108 0.809812 0.464073
0.312184 0.810056 0.463203
0.362661 0.8495 0.58883
0.914855 0.937026 0.751934
0.957046 0.933928 0.773556
0.957046 0.934035 0.774441
0.957046 0.934005 0.774273
0.31252 0.811139 0.458473
0.31252 0.811185 0.458289
0.312535 0.811215 0.458122
0.312596 0.811414 0.457252
0.329198 0.831785 0.535668
0.893263 0.931655 0.737026
0.957046 0.932723 0.763531
0.957046 0.933013 0.765866
0.957046 0.932982 0.765682
0.312627 0.811521 0.456718
0.312642 0.811566 0.45655
0.312657 0.811597 0.456382
0.312703 0.811795 0.455512
0.3234 0.827955 0.518242
0.887144 0.930068 0.732189
0.957046 0.932326 0.760128
0.957046 0.932692 0.76318
0.957046 0.932662 0.762997
0.066743 0.144305 0.32221
0.066743 0.144305 0.32221
0.068864 0.149706 0.328573
0.0724041 0.147753 0.365866
0.301213 0.089189 0.422065
0.49131 0.129503 0.464714
0.491859 0.129564 0.464103
0.492119 0.12961 0.463844
0.492119 0.12961 0.463844
0.0665293 0.143725 0.321614
0.0664988 0.143664 0.321508
0.0671855 0.145373 0.323735
0.079942 0.176013 0.369635
0.297871 0.0884718 0.420645
0.4916 0.129534 0.464363
0.4925 0.129671 0.463645
0.492744 0.129702 0.463386
0.492744 0.129702 0.463386
0.0660258 0.142397 0.320195
0.0660258 0.142397 0.320195
0.0659648 0.142275 0.320058
0.0802167 0.177737 0.367422
0.290547 0.0869001 0.417548
0.492744 0.129702 0.463386
0.493339 0.129778 0.462669
0.493568 0.129809 0.462486
0.493614 0.129809 0.462394
0.0908217 0.208881 0.373724
0.0897383 0.206012 0.371481
0.0873884 0.199771 0.366598
0.0840162 0.188327 0.373571
0.261112 0.0806744 0.404639
0.488441 0.128573 0.459495
0.496803 0.130236 0.458976
0.497108 0.130266 0.458625
0.497139 0.130266 0.458534
0.211643 0.532692 0.539528
0.211398 0.532036 0.539162
0.210819 0.53051 0.538506
0.208713 0.52491 0.536187
0.56527 0.649149 0.727611
0.887816 0.66775 0.7691
0.907866 0.669749 0.767514
0.90663 0.664775 0.76585
0.906233 0.663218 0.765438
0.297597 0.762432 0.605631
0.297414 0.761975 0.605158
0.296941 0.760769 0.604257
0.295171 0.756207 0.600626
0.485924 0.852903 0.740185
0.945266 0.925078 0.835981
0.957046 0.920958 0.839155
0.957046 0.918853 0.835248
0.957046 0.918334 0.83418
0.303349 0.77792 0.606973
0.303365 0.777966 0.606806
0.303365 0.778012 0.606622
0.303395 0.778134 0.606088
0.318349 0.810849 0.662745
0.89778 0.954162 0.87805
0.957046 0.950072 0.891951
0.957046 0.950317 0.893858
0.957046 0.950301 0.893721
0.303609 0.778958 0.602564
0.303609 0.778958 0.602564
0.303624 0.778988 0.602396
0.30367 0.779156 0.601678
0.310842 0.796185 0.633341
0.877104 0.949813 0.872892
0.957046 0.94963 0.888411
0.957046 0.949996 0.891325
0.957046 0.949981 0.891203
0.303685 0.779248 0.601328
0.303685 0.779248 0.601328
0.3037 0.779278 0.60116
0.303746 0.779446 0.600458
0.304143 0.779477 0.615106
0.871199 0.948516 0.871214
0.957046 0.949447 0.887022
0.957046 0.949844 0.890181
0.957046 0.949859 0.890318
0.0760662 0.168276 0.349126
0.0760662 0.168276 0.349126
0.0760662 0.168276 0.349126
0.0843061 0.187182 0.385
0.269627 0.0840467 0.429007
0.469139 0.126177 0.482109
0.469139 0.126177 0.482109
0.469139 0.126177 0.482109
0.469139 0.126177 0.482109
0.0760662 0.168276 0.349126
0.0760662 0.168276 0.349126
0.0760662 0.168276 0.349126
0.0840772 0.186679 0.383978
0.266102 0.0833448 0.427939
0.469139 0.126177 0.482109
0.469139 0.126177 0.482109
0.469139 0.126177 0.482109
0.469139 0.126177 0.482109
0.0760662 0.168276 0.349126
0.0760662 0.168276 0.349126
0.0760662 0.168276 0.349126
0.0835584 0.185504 0.381598
0.257939 0.0817426 0.425513
0.469139 0.126177 0.482109
0.469139 0.126177 0.482109
0.469139 0.126177 0.482109
0.469139 0.126177 0.482109
0.0760662 0.168276 0.349126
0.0760662 0.168276 0.349126
0.0760662 0.168276 0.349126
0.0819715 0.182147 0.373068
0.225101 0.0755627 0.416648
0.453803 0.12285 0.478828
0.469139 0.126177 0.482109
0.469139 0.126177 0.482109
0.469139 0.126177 0.482109
0.198688 0.494804 0.555383
0.198428 0.494087 0.555108
0.19794 0.492821 0.554467
0.196033 0.487709 0.552056
0.428855 0.579782 0.741848
0.826688 0.606149 0.819776
0.887861 0.627436 0.827375
0.884459 0.619516 0.824994
0.883467 0.617075 0.824308
0.288472 0.734508 0.644343
0.288289 0.734035 0.644038
0.287739 0.732647 0.643
0.285847 0.727779 0.639307
0.341329 0.804746 0.749325
0.898848 0.91603 0.893278
0.957046 0.915618 0.904524
0.957046 0.913802 0.903365
0.957046 0.913222 0.902998
0.299336 0.762951 0.659495
0.299351 0.762997 0.659358
0.299367 0.763043 0.65922
0.299397 0.763195 0.658824
0.309224 0.786542 0.699306
0.882567 0.955596 0.907774
0.957046 0.955978 0.945556
0.957046 0.956069 0.94638
0.957046 0.956039 0.946166
0.299519 0.763638 0.657603
0.299519 0.763638 0.657603
0.299535 0.763684 0.657465
0.299565 0.763775 0.657191
0.299199 0.762463 0.660853
0.868772 0.95201 0.901915
0.957046 0.955795 0.943618
0.957046 0.9561 0.946685
0.957046 0.95613 0.947082
0.299596 0.763867 0.656901
0.299596 0.763867 0.656901
0.299596 0.763867 0.656901
0.299626 0.764004 0.656443
0.299687 0.764233 0.65568
0.861982 0.950317 0.899535
0.957046 0.955688 0.942702
0.957046 0.956008 0.945754
0.957046 0.956069 0.946471
0.0760662 0.168276 0.349126
0.0760662 0.168276 0.349126
0.0760662 0.168276 0.349126
0.084123 0.18677 0.384146
0.266789 0.0834821 0.428107
0.469139 0.126177 0.482109
0.469139 0.126177 0.482109
0.469139 0.126177 0.482109
0.469139 0.126177 0.482109
0.0760662 0.168276 0.349126
0.0760662 0.168276 0.349126
0.0760662 0.168276 0.349126
0.0838941 0.186267 0.383124
0.263233 0.0827802 0.427115
0.469139 0.126177 0.482109
0.469139 0.126177 0.482109
0.469139 0.126177 0.482109
0.469139 0.126177 0.482109
0.0760662 0.168276 0.349126
0.0760662 0.168276 0.349126
0.0760662 0.168276 0.349126
0.08336 0.185046 0.380667
0.254932 0.0811627 0.424659
0.469139 0.126177 0.482109
0.469139 0.126177 0.482109
0.469139 0.126177 0.482109
0.469139 0.126177 0.482109
0.0760662 0.168276 0.349126
0.0760662 0.168276 0.349126
0.0760662 0.168276 0.349126
0.0818647 0.181964 0.372351
0.221912 0.0749828 0.415839
0.451606 0.122362 0.478355
0.469139 0.126177 0.482109
0.469139 0.126177 0.482109
0.469139 0.126177 0.482109
0.194125 0.482612 0.549661
0.193851 0.48191 0.549294
0.193332 0.480491 0.548669
0.191211 0.47483 0.545968
0.408515 0.556695 0.733516
0.812512 0.580591 0.812436
0.874281 0.595254 0.817685
0.870268 0.585611 0.814801
0.869276 0.583093 0.813931
0.284398 0.72372 0.640314
0.284123 0.723003 0.639872
0.28365 0.721798 0.639109
0.281819 0.717037 0.635966
0.323812 0.786694 0.73875
0.88513 0.907515 0.896635
0.957046 0.913512 0.913756
0.957046 0.911284 0.912581
0.957046 0.910613 0.912276
0.298405 0.759655 0.668742
0.298405 0.759655 0.668742
0.298405 0.759655 0.668742
0.298421 0.759701 0.668605
0.30396 0.771908 0.702419
0.864607 0.952819 0.915068
0.957046 0.957 0.956558
0.957046 0.957 0.956558
0.957046 0.957 0.956451
0.298344 0.759411 0.669413
0.298344 0.759411 0.669413
0.298344 0.759411 0.669413
0.298375 0.759518 0.669154
0.298405 0.759609 0.668879
0.854887 0.95021 0.910323
0.957046 0.956939 0.95584
0.957046 0.957046 0.957046
0.957046 0.957046 0.957046
0.298405 0.759609 0.668879
0.298405 0.759609 0.668879
0.298405 0.759655 0.668742
0.298436 0.759747 0.668467
0.298512 0.759991 0.667781
0.848035 0.948486 0.90782
0.957046 0.956893 0.95523
0.957046 0.957046 0.957046
0.957046 0.957046 0.957046
0.0760662 0.168276 0.349126
0.0760662 0.168276 0.349126
0.0760662 0.168276 0.349126
0.084062 0.186633 0.383886
0.265965 0.0833143 0.427909
0.469139 0.126177 0.482109
0.469139 0.126177 0.482109
0.469139 0.126177 0.482109
0.469139 0.126177 0.482109
0.0760662 0.168276 0.349126
0.0760662 0.168276 0.349126
0.0760662 0.168276 0.349126
0.0838331 0.18613 0.382864
0.262287 0.0825971 0.426795
0.469139 0.126177 0.482109
0.469139 0.126177 0.482109
0.469139 0.126177 0.482109
0.469139 0.126177 0.482109
0.0760662 0.168276 0.349126
0.0760662 0.168276 0.349126
0.0760662 0.168276 0.349126
0.083299 0.184909 0.380407
0.254124 0.0809949 0.424353
0.469139 0.126177 0.482109
0.469139 0.126177 0.482109
0.469139 0.126177 0.482109
0.469139 0.126177 0.482109
0.0760662 0.168276 0.349126
0.0760662 0.168276 0.349126
0.0760662 0.168276 0.349126
0.0818952 0.182055 0.372305
0.220966 0.0748302 0.415671
0.451087 0.122255 0.478264
0.469139 0.126177 0.482109
0.469139 0.126177 0.482109
0.469139 0.126177 0.482109
0.192737 0.478935 0.547951
0.192477 0.478233 0.547601
0.191943 0.476814 0.54696
0.189731 0.470893 0.544121
0.402792 0.549874 0.730999
0.807706 0.571847 0.809705
0.87013 0.585138 0.814664
0.866102 0.575479 0.811597
0.864836 0.57261 0.810773
0.283101 0.720363 0.638209
0.282918 0.71989 0.637903
0.282368 0.718486 0.636866
0.280537 0.713726 0.633707
0.320424 0.782498 0.73521
0.882734 0.905013 0.895781
0.957046 0.911116 0.912505
0.957046 0.908888 0.911376
0.957046 0.908202 0.911086
0.298405 0.759655 0.668742
0.298405 0.759655 0.668742
0.298405 0.759655 0.668742
0.298421 0.759701 0.668605
0.302617 0.768475 0.699901
0.862638 0.952361 0.914611
0.957046 0.957046 0.956954
0.957046 0.957046 0.957046
0.957046 0.957046 0.957046
0.298344 0.759411 0.669413
0.298344 0.759411 0.669413
0.298344 0.759411 0.669413
0.298344 0.759411 0.669413
0.298344 0.759411 0.669413
0.851408 0.949615 0.911223
0.957046 0.957046 0.957046
0.957046 0.957046 0.957046
0.957046 0.957046 0.957046
0.298344 0.759411 0.669413
0.298344 0.759411 0.669413
0.298344 0.759411 0.669413
0.298344 0.759411 0.669413
0.298344 0.759411 0.669413
0.844678 0.948013 0.909407
0.957046 0.957046 0.957046
0.957046 0.957046 0.957046
0.957046 0.957046 0.957046
